(G-CODE GENERATED BY FLATCAM v8.994 - www.flatcam.org - Version Date: 2020/11/7)

(Name: Combo_Excellon_cnc)
(Type: G-code from Geometry)
(Units: MM)

(Created on Friday, 18 February 2022 at 11:48)

(This preprocessor is the default preprocessor used by FlatCAM.)
(It is made to work with MACH3 compatible motion controllers.)


(TOOLS DIAMETER: )
(Tool: 1 -> Dia: 1.021)
(Tool: 2 -> Dia: 1.101)

(FEEDRATE Z: )
(Tool: 1 -> Feedrate: 300)
(Tool: 2 -> Feedrate: 300)

(FEEDRATE RAPIDS: )
(Tool: 1 -> Feedrate Rapids: 1500)
(Tool: 2 -> Feedrate Rapids: 1500)

(Z_CUT: )
(Tool: 1 -> Z_Cut: -1.8)
(Tool: 2 -> Z_Cut: -1.8)

(Tools Offset: )
(Tool: 1 -> Offset Z: 0.0)
(Tool: 2 -> Offset Z: 0.0)

(Z_MOVE: )
(Tool: 1 -> Z_Move: 2.0)
(Tool: 2 -> Z_Move: 2.0)

(Z Toolchange: 15 mm)
(X,Y Toolchange: 0.0000, 0.0000 mm)
(Z Start: None mm)
(Z End: 0.5 mm)
(X,Y End: None mm)
(Steps per circle: 64)
(Preprocessor Excellon: default)

(X range:    4.2755 ...   50.4705  mm)
(Y range:    4.0965 ...   60.4705  mm)

(Spindle Speed: 12000 RPM)
G21
G90
G94

G01 F300.00

M5
G00 Z15.0000
T1
G00 X0.0000 Y0.0000                
M6
(MSG, Change to Tool Dia = 1.0210 ||| Total drills for tool T1 = 57)
M0
G00 Z15.0000

G01 F300.00
M03 S12000
G00 X18.5230 Y14.0450
G01 Z-1.8000
G01 Z0
G00 Z2.0000
G00 X18.5230 Y16.5850
G01 Z-1.8000
G01 Z0
G00 Z2.0000
G00 X18.5230 Y19.1250
G01 Z-1.8000
G01 Z0
G00 Z2.0000
G00 X19.9200 Y30.1740
G01 Z-1.8000
G01 Z0
G00 Z2.0000
G00 X17.4200 Y30.1740
G01 Z-1.8000
G01 Z0
G00 Z2.0000
G00 X14.9200 Y30.1740
G01 Z-1.8000
G01 Z0
G00 Z2.0000
G00 X12.4200 Y30.1740
G01 Z-1.8000
G01 Z0
G00 Z2.0000
G00 X9.9200 Y30.1740
G01 Z-1.8000
G01 Z0
G00 Z2.0000
G00 X7.4200 Y30.1740
G01 Z-1.8000
G01 Z0
G00 Z2.0000
G00 X4.9200 Y30.1740
G01 Z-1.8000
G01 Z0
G00 Z2.0000
G00 X4.8260 Y44.9200
G01 Z-1.8000
G01 Z0
G00 Z2.0000
G00 X4.8260 Y47.4200
G01 Z-1.8000
G01 Z0
G00 Z2.0000
G00 X4.8260 Y49.9200
G01 Z-1.8000
G01 Z0
G00 Z2.0000
G00 X4.8260 Y52.4200
G01 Z-1.8000
G01 Z0
G00 Z2.0000
G00 X4.8260 Y54.9200
G01 Z-1.8000
G01 Z0
G00 Z2.0000
G00 X4.8260 Y57.4200
G01 Z-1.8000
G01 Z0
G00 Z2.0000
G00 X4.8260 Y59.9200
G01 Z-1.8000
G01 Z0
G00 Z2.0000
G00 X15.8750 Y58.5230
G01 Z-1.8000
G01 Z0
G00 Z2.0000
G00 X18.4150 Y58.5230
G01 Z-1.8000
G01 Z0
G00 Z2.0000
G00 X20.9550 Y58.5230
G01 Z-1.8000
G01 Z0
G00 Z2.0000
G00 X15.8750 Y53.0620
G01 Z-1.8000
G01 Z0
G00 Z2.0000
G00 X18.4150 Y53.0620
G01 Z-1.8000
G01 Z0
G00 Z2.0000
G00 X20.9550 Y53.0620
G01 Z-1.8000
G01 Z0
G00 Z2.0000
G00 X30.3530 Y57.6880
G01 Z-1.8000
G01 Z0
G00 Z2.0000
G00 X30.3530 Y55.1880
G01 Z-1.8000
G01 Z0
G00 Z2.0000
G00 X30.3530 Y52.6880
G01 Z-1.8000
G01 Z0
G00 Z2.0000
G00 X30.3530 Y50.1880
G01 Z-1.8000
G01 Z0
G00 Z2.0000
G00 X30.3530 Y47.6880
G01 Z-1.8000
G01 Z0
G00 Z2.0000
G00 X30.3530 Y45.1880
G01 Z-1.8000
G01 Z0
G00 Z2.0000
G00 X34.9200 Y30.1740
G01 Z-1.8000
G01 Z0
G00 Z2.0000
G00 X37.4200 Y30.1740
G01 Z-1.8000
G01 Z0
G00 Z2.0000
G00 X39.9200 Y30.1740
G01 Z-1.8000
G01 Z0
G00 Z2.0000
G00 X42.4200 Y30.1740
G01 Z-1.8000
G01 Z0
G00 Z2.0000
G00 X44.9200 Y30.1740
G01 Z-1.8000
G01 Z0
G00 Z2.0000
G00 X47.4200 Y30.1740
G01 Z-1.8000
G01 Z0
G00 Z2.0000
G00 X49.9200 Y30.1740
G01 Z-1.8000
G01 Z0
G00 Z2.0000
G00 X48.5230 Y19.1250
G01 Z-1.8000
G01 Z0
G00 Z2.0000
G00 X48.5230 Y16.5850
G01 Z-1.8000
G01 Z0
G00 Z2.0000
G00 X48.5230 Y14.0450
G01 Z-1.8000
G01 Z0
G00 Z2.0000
G00 X43.0620 Y19.1250
G01 Z-1.8000
G01 Z0
G00 Z2.0000
G00 X43.0620 Y16.5850
G01 Z-1.8000
G01 Z0
G00 Z2.0000
G00 X43.0620 Y14.0450
G01 Z-1.8000
G01 Z0
G00 Z2.0000
G00 X47.6880 Y4.6470
G01 Z-1.8000
G01 Z0
G00 Z2.0000
G00 X45.1880 Y4.6470
G01 Z-1.8000
G01 Z0
G00 Z2.0000
G00 X42.6880 Y4.6470
G01 Z-1.8000
G01 Z0
G00 Z2.0000
G00 X40.1880 Y4.6470
G01 Z-1.8000
G01 Z0
G00 Z2.0000
G00 X37.6880 Y4.6470
G01 Z-1.8000
G01 Z0
G00 Z2.0000
G00 X35.1880 Y4.6470
G01 Z-1.8000
G01 Z0
G00 Z2.0000
G00 X17.6880 Y4.6470
G01 Z-1.8000
G01 Z0
G00 Z2.0000
G00 X15.1880 Y4.6470
G01 Z-1.8000
G01 Z0
G00 Z2.0000
G00 X12.6880 Y4.6470
G01 Z-1.8000
G01 Z0
G00 Z2.0000
G00 X10.1880 Y4.6470
G01 Z-1.8000
G01 Z0
G00 Z2.0000
G00 X7.6880 Y4.6470
G01 Z-1.8000
G01 Z0
G00 Z2.0000
G00 X5.1880 Y4.6470
G01 Z-1.8000
G01 Z0
G00 Z2.0000
G00 X13.0620 Y14.0450
G01 Z-1.8000
G01 Z0
G00 Z2.0000
G00 X13.0620 Y16.5850
G01 Z-1.8000
G01 Z0
G00 Z2.0000
G00 X13.0620 Y19.1250
G01 Z-1.8000
G01 Z0
G00 Z2.0000
M05
G00 Z0.50


