(G-CODE GENERATED BY FLATCAM v8.994 - www.flatcam.org - Version Date: 2020/11/7)

(Name: Combo_Gerber_iso_combined_cnc)
(Type: G-code from Geometry)
(Units: MM)

(Created on Friday, 18 February 2022 at 11:50)

(This preprocessor is the default preprocessor used by FlatCAM.)
(It is made to work with MACH3 compatible motion controllers.)

(TOOL DIAMETER: 1.5 mm)
(Feedrate_XY: 200.0 mm/min)
(Feedrate_Z: 60.0 mm/min)
(Feedrate rapids 1500.0 mm/min)

(Z_Cut: -1.8 mm)
(DepthPerCut: 0.6 mm <=>3 passes)
(Z_Move: 2.0 mm)
(Z Start: None mm)
(Z End: 5.0 mm)
(X,Y End: 0.0000, 0.0000 mm)
(Steps per circle: 64)
(Preprocessor Geometry: default)

(X range:   -0.8771 ...   55.8771  mm)
(Y range:   -0.8771 ...   65.8771  mm)

(Spindle Speed: 12000.0 RPM)
G21
G90
G94

G01 F200.00

M5
G00 Z5.0000
G00 X0.0000 Y0.0000
T1
M6    
(MSG, Change to Tool Dia = 1.5000)
M0
G00 Z5.0000

M03 S12000.0
G01 F200.00
G00 X25.0046 Y36.6271
G01 F60.00
G01 Z-0.6000
G01 F200.00
G01 X25.0368 Y36.6267
G01 X25.0907 Y36.6244
G01 X25.1228 Y36.6224
G01 X25.1595 Y36.6193
G01 X25.1961 Y36.6152
G01 X25.2372 Y36.6095
G01 X25.2812 Y36.6026
G01 X25.3174 Y36.5959
G01 X25.3535 Y36.5882
G01 X25.3989 Y36.5772
G01 X25.4370 Y36.5673
G01 X25.4723 Y36.5571
G01 X25.5074 Y36.5459
G01 X25.5511 Y36.5307
G01 X25.5885 Y36.5169
G01 X25.6227 Y36.5033
G01 X25.6565 Y36.4888
G01 X25.6960 Y36.4705
G01 X25.7343 Y36.4519
G01 X25.7670 Y36.4350
G01 X25.7993 Y36.4172
G01 X25.8347 Y36.3965
G01 X25.8731 Y36.3730
G01 X25.9040 Y36.3529
G01 X25.9343 Y36.3321
G01 X25.9675 Y36.3079
G01 X26.0035 Y36.2808
G01 X26.0322 Y36.2578
G01 X26.0604 Y36.2341
G01 X26.0921 Y36.2059
G01 X26.1242 Y36.1763
G01 X26.1505 Y36.1505
G01 X26.1763 Y36.1242
G01 X26.2058 Y36.0922
G01 X26.2341 Y36.0604
G01 X26.2578 Y36.0322
G01 X26.2808 Y36.0035
G01 X26.3076 Y35.9680
G01 X26.3321 Y35.9343
G01 X26.3529 Y35.9040
G01 X26.3730 Y35.8731
G01 X26.3953 Y35.8366
G01 X26.4172 Y35.7993
G01 X26.4350 Y35.7670
G01 X26.4519 Y35.7343
G01 X26.4700 Y35.6970
G01 X26.4888 Y35.6565
G01 X26.5033 Y35.6227
G01 X26.5169 Y35.5885
G01 X26.5314 Y35.5491
G01 X26.5459 Y35.5074
G01 X26.5571 Y35.4723
G01 X26.5673 Y35.4370
G01 X26.5780 Y35.3958
G01 X26.5882 Y35.3535
G01 X26.5959 Y35.3174
G01 X26.6026 Y35.2812
G01 X26.6093 Y35.2388
G01 X26.6152 Y35.1961
G01 X26.6193 Y35.1595
G01 X26.6224 Y35.1228
G01 X26.6244 Y35.0907
G01 X26.6267 Y35.0368
G01 X26.6271 Y35.0046
G01 X26.6271 Y-0.0046
G01 X26.6267 Y-0.0368
G01 X26.6255 Y-0.0690
G01 X26.6224 Y-0.1228
G01 X26.6193 Y-0.1595
G01 X26.6152 Y-0.1961
G01 X26.6077 Y-0.2494
G01 X26.6026 Y-0.2812
G01 X26.5959 Y-0.3174
G01 X26.5882 Y-0.3535
G01 X26.5755 Y-0.4058
G01 X26.5673 Y-0.4370
G01 X26.5571 Y-0.4723
G01 X26.5459 Y-0.5074
G01 X26.5355 Y-0.5379
G01 X26.5169 Y-0.5885
G01 X26.5033 Y-0.6227
G01 X26.4888 Y-0.6565
G01 X26.4753 Y-0.6858
G01 X26.4519 Y-0.7343
G01 X26.4350 Y-0.7670
G01 X26.4172 Y-0.7993
G01 X26.3899 Y-0.8457
G01 X26.3730 Y-0.8731
G01 X26.3529 Y-0.9040
G01 X26.3321 Y-0.9343
G01 X26.3003 Y-0.9779
G01 X26.2808 Y-1.0035
G01 X26.2578 Y-1.0322
G01 X26.2341 Y-1.0604
G01 X26.2127 Y-1.0845
G01 X26.1763 Y-1.1242
G01 X26.1505 Y-1.1505
G01 X26.1242 Y-1.1763
G01 X26.1006 Y-1.1982
G01 X26.0604 Y-1.2341
G01 X26.0322 Y-1.2578
G01 X26.0035 Y-1.2808
G01 X25.9779 Y-1.3003
G01 X25.9343 Y-1.3321
G01 X25.9040 Y-1.3529
G01 X25.8731 Y-1.3730
G01 X25.8457 Y-1.3899
G01 X25.7993 Y-1.4172
G01 X25.7670 Y-1.4350
G01 X25.7343 Y-1.4519
G01 X25.6858 Y-1.4753
G01 X25.6565 Y-1.4888
G01 X25.6227 Y-1.5033
G01 X25.5885 Y-1.5169
G01 X25.5583 Y-1.5282
G01 X25.5074 Y-1.5459
G01 X25.4723 Y-1.5571
G01 X25.4370 Y-1.5673
G01 X25.4058 Y-1.5755
G01 X25.3535 Y-1.5882
G01 X25.3174 Y-1.5959
G01 X25.2812 Y-1.6026
G01 X25.2280 Y-1.6109
G01 X25.1961 Y-1.6152
G01 X25.1595 Y-1.6193
G01 X25.1228 Y-1.6224
G01 X25.0690 Y-1.6255
G01 X25.0368 Y-1.6267
G01 X25.0046 Y-1.6271
G01 X-0.0046 Y-1.6271
G01 X-0.0368 Y-1.6267
G01 X-0.0690 Y-1.6255
G01 X-0.1228 Y-1.6224
G01 X-0.1595 Y-1.6193
G01 X-0.1961 Y-1.6152
G01 X-0.2494 Y-1.6077
G01 X-0.2812 Y-1.6026
G01 X-0.3174 Y-1.5959
G01 X-0.3535 Y-1.5882
G01 X-0.4058 Y-1.5755
G01 X-0.4370 Y-1.5673
G01 X-0.4723 Y-1.5571
G01 X-0.5074 Y-1.5459
G01 X-0.5379 Y-1.5355
G01 X-0.5885 Y-1.5169
G01 X-0.6227 Y-1.5033
G01 X-0.6565 Y-1.4888
G01 X-0.7054 Y-1.4661
G01 X-0.7343 Y-1.4519
G01 X-0.7670 Y-1.4350
G01 X-0.7993 Y-1.4172
G01 X-0.8457 Y-1.3899
G01 X-0.8731 Y-1.3730
G01 X-0.9040 Y-1.3529
G01 X-0.9343 Y-1.3321
G01 X-0.9779 Y-1.3003
G01 X-1.0035 Y-1.2808
G01 X-1.0322 Y-1.2578
G01 X-1.0604 Y-1.2341
G01 X-1.1006 Y-1.1982
G01 X-1.1242 Y-1.1763
G01 X-1.1505 Y-1.1505
G01 X-1.1763 Y-1.1242
G01 X-1.2127 Y-1.0845
G01 X-1.2341 Y-1.0604
G01 X-1.2578 Y-1.0322
G01 X-1.2808 Y-1.0035
G01 X-1.3003 Y-0.9779
G01 X-1.3321 Y-0.9343
G01 X-1.3529 Y-0.9040
G01 X-1.3730 Y-0.8731
G01 X-1.3899 Y-0.8457
G01 X-1.4172 Y-0.7993
G01 X-1.4350 Y-0.7670
G01 X-1.4519 Y-0.7343
G01 X-1.4753 Y-0.6858
G01 X-1.4888 Y-0.6565
G01 X-1.5033 Y-0.6227
G01 X-1.5169 Y-0.5885
G01 X-1.5355 Y-0.5379
G01 X-1.5459 Y-0.5074
G01 X-1.5571 Y-0.4723
G01 X-1.5673 Y-0.4370
G01 X-1.5755 Y-0.4058
G01 X-1.5882 Y-0.3535
G01 X-1.5959 Y-0.3174
G01 X-1.6026 Y-0.2812
G01 X-1.6077 Y-0.2494
G01 X-1.6152 Y-0.1961
G01 X-1.6193 Y-0.1595
G01 X-1.6224 Y-0.1228
G01 X-1.6255 Y-0.0690
G01 X-1.6267 Y-0.0368
G01 X-1.6271 Y-0.0046
G01 X-1.6271 Y35.0046
G01 X-1.6267 Y35.0368
G01 X-1.6255 Y35.0690
G01 X-1.6224 Y35.1228
G01 X-1.6193 Y35.1595
G01 X-1.6152 Y35.1961
G01 X-1.6077 Y35.2494
G01 X-1.6026 Y35.2812
G01 X-1.5959 Y35.3174
G01 X-1.5882 Y35.3535
G01 X-1.5755 Y35.4058
G01 X-1.5673 Y35.4370
G01 X-1.5571 Y35.4723
G01 X-1.5459 Y35.5074
G01 X-1.5355 Y35.5379
G01 X-1.5169 Y35.5885
G01 X-1.5033 Y35.6227
G01 X-1.4888 Y35.6565
G01 X-1.4661 Y35.7054
G01 X-1.4519 Y35.7343
G01 X-1.4350 Y35.7670
G01 X-1.4172 Y35.7993
G01 X-1.3899 Y35.8457
G01 X-1.3730 Y35.8731
G01 X-1.3529 Y35.9040
G01 X-1.3321 Y35.9343
G01 X-1.3003 Y35.9779
G01 X-1.2808 Y36.0035
G01 X-1.2578 Y36.0322
G01 X-1.2341 Y36.0604
G01 X-1.1982 Y36.1006
G01 X-1.1763 Y36.1242
G01 X-1.1505 Y36.1505
G01 X-1.1242 Y36.1763
G01 X-1.0845 Y36.2127
G01 X-1.0604 Y36.2341
G01 X-1.0322 Y36.2578
G01 X-1.0035 Y36.2808
G01 X-0.9604 Y36.3132
G01 X-0.9343 Y36.3321
G01 X-0.9040 Y36.3529
G01 X-0.8731 Y36.3730
G01 X-0.8457 Y36.3899
G01 X-0.7993 Y36.4172
G01 X-0.7670 Y36.4350
G01 X-0.7343 Y36.4519
G01 X-0.6858 Y36.4753
G01 X-0.6565 Y36.4888
G01 X-0.6227 Y36.5033
G01 X-0.5885 Y36.5169
G01 X-0.5583 Y36.5282
G01 X-0.5074 Y36.5459
G01 X-0.4723 Y36.5571
G01 X-0.4370 Y36.5673
G01 X-0.4058 Y36.5755
G01 X-0.3535 Y36.5882
G01 X-0.3174 Y36.5959
G01 X-0.2812 Y36.6026
G01 X-0.2280 Y36.6109
G01 X-0.1961 Y36.6152
G01 X-0.1595 Y36.6193
G01 X-0.1228 Y36.6224
G01 X-0.0690 Y36.6255
G01 X-0.0368 Y36.6267
G01 X-0.0046 Y36.6271
G01 X25.0046 Y36.6271
G00 X25.0046 Y36.6271
G01 F60.00
G01 Z-1.2000
G01 F200.00
G01 X25.0368 Y36.6267
G01 X25.0907 Y36.6244
G01 X25.1228 Y36.6224
G01 X25.1595 Y36.6193
G01 X25.1961 Y36.6152
G01 X25.2372 Y36.6095
G01 X25.2812 Y36.6026
G01 X25.3174 Y36.5959
G01 X25.3535 Y36.5882
G01 X25.3989 Y36.5772
G01 X25.4370 Y36.5673
G01 X25.4723 Y36.5571
G01 X25.5074 Y36.5459
G01 X25.5511 Y36.5307
G01 X25.5885 Y36.5169
G01 X25.6227 Y36.5033
G01 X25.6565 Y36.4888
G01 X25.6960 Y36.4705
G01 X25.7343 Y36.4519
G01 X25.7670 Y36.4350
G01 X25.7993 Y36.4172
G01 X25.8347 Y36.3965
G01 X25.8731 Y36.3730
G01 X25.9040 Y36.3529
G01 X25.9343 Y36.3321
G01 X25.9675 Y36.3079
G01 X26.0035 Y36.2808
G01 X26.0322 Y36.2578
G01 X26.0604 Y36.2341
G01 X26.0921 Y36.2059
G01 X26.1242 Y36.1763
G01 X26.1505 Y36.1505
G01 X26.1763 Y36.1242
G01 X26.2058 Y36.0922
G01 X26.2341 Y36.0604
G01 X26.2578 Y36.0322
G01 X26.2808 Y36.0035
G01 X26.3076 Y35.9680
G01 X26.3321 Y35.9343
G01 X26.3529 Y35.9040
G01 X26.3730 Y35.8731
G01 X26.3953 Y35.8366
G01 X26.4172 Y35.7993
G01 X26.4350 Y35.7670
G01 X26.4519 Y35.7343
G01 X26.4700 Y35.6970
G01 X26.4888 Y35.6565
G01 X26.5033 Y35.6227
G01 X26.5169 Y35.5885
G01 X26.5314 Y35.5491
G01 X26.5459 Y35.5074
G01 X26.5571 Y35.4723
G01 X26.5673 Y35.4370
G01 X26.5780 Y35.3958
G01 X26.5882 Y35.3535
G01 X26.5959 Y35.3174
G01 X26.6026 Y35.2812
G01 X26.6093 Y35.2388
G01 X26.6152 Y35.1961
G01 X26.6193 Y35.1595
G01 X26.6224 Y35.1228
G01 X26.6244 Y35.0907
G01 X26.6267 Y35.0368
G01 X26.6271 Y35.0046
G01 X26.6271 Y-0.0046
G01 X26.6267 Y-0.0368
G01 X26.6255 Y-0.0690
G01 X26.6224 Y-0.1228
G01 X26.6193 Y-0.1595
G01 X26.6152 Y-0.1961
G01 X26.6077 Y-0.2494
G01 X26.6026 Y-0.2812
G01 X26.5959 Y-0.3174
G01 X26.5882 Y-0.3535
G01 X26.5755 Y-0.4058
G01 X26.5673 Y-0.4370
G01 X26.5571 Y-0.4723
G01 X26.5459 Y-0.5074
G01 X26.5355 Y-0.5379
G01 X26.5169 Y-0.5885
G01 X26.5033 Y-0.6227
G01 X26.4888 Y-0.6565
G01 X26.4753 Y-0.6858
G01 X26.4519 Y-0.7343
G01 X26.4350 Y-0.7670
G01 X26.4172 Y-0.7993
G01 X26.3899 Y-0.8457
G01 X26.3730 Y-0.8731
G01 X26.3529 Y-0.9040
G01 X26.3321 Y-0.9343
G01 X26.3003 Y-0.9779
G01 X26.2808 Y-1.0035
G01 X26.2578 Y-1.0322
G01 X26.2341 Y-1.0604
G01 X26.2127 Y-1.0845
G01 X26.1763 Y-1.1242
G01 X26.1505 Y-1.1505
G01 X26.1242 Y-1.1763
G01 X26.1006 Y-1.1982
G01 X26.0604 Y-1.2341
G01 X26.0322 Y-1.2578
G01 X26.0035 Y-1.2808
G01 X25.9779 Y-1.3003
G01 X25.9343 Y-1.3321
G01 X25.9040 Y-1.3529
G01 X25.8731 Y-1.3730
G01 X25.8457 Y-1.3899
G01 X25.7993 Y-1.4172
G01 X25.7670 Y-1.4350
G01 X25.7343 Y-1.4519
G01 X25.6858 Y-1.4753
G01 X25.6565 Y-1.4888
G01 X25.6227 Y-1.5033
G01 X25.5885 Y-1.5169
G01 X25.5583 Y-1.5282
G01 X25.5074 Y-1.5459
G01 X25.4723 Y-1.5571
G01 X25.4370 Y-1.5673
G01 X25.4058 Y-1.5755
G01 X25.3535 Y-1.5882
G01 X25.3174 Y-1.5959
G01 X25.2812 Y-1.6026
G01 X25.2280 Y-1.6109
G01 X25.1961 Y-1.6152
G01 X25.1595 Y-1.6193
G01 X25.1228 Y-1.6224
G01 X25.0690 Y-1.6255
G01 X25.0368 Y-1.6267
G01 X25.0046 Y-1.6271
G01 X-0.0046 Y-1.6271
G01 X-0.0368 Y-1.6267
G01 X-0.0690 Y-1.6255
G01 X-0.1228 Y-1.6224
G01 X-0.1595 Y-1.6193
G01 X-0.1961 Y-1.6152
G01 X-0.2494 Y-1.6077
G01 X-0.2812 Y-1.6026
G01 X-0.3174 Y-1.5959
G01 X-0.3535 Y-1.5882
G01 X-0.4058 Y-1.5755
G01 X-0.4370 Y-1.5673
G01 X-0.4723 Y-1.5571
G01 X-0.5074 Y-1.5459
G01 X-0.5379 Y-1.5355
G01 X-0.5885 Y-1.5169
G01 X-0.6227 Y-1.5033
G01 X-0.6565 Y-1.4888
G01 X-0.7054 Y-1.4661
G01 X-0.7343 Y-1.4519
G01 X-0.7670 Y-1.4350
G01 X-0.7993 Y-1.4172
G01 X-0.8457 Y-1.3899
G01 X-0.8731 Y-1.3730
G01 X-0.9040 Y-1.3529
G01 X-0.9343 Y-1.3321
G01 X-0.9779 Y-1.3003
G01 X-1.0035 Y-1.2808
G01 X-1.0322 Y-1.2578
G01 X-1.0604 Y-1.2341
G01 X-1.1006 Y-1.1982
G01 X-1.1242 Y-1.1763
G01 X-1.1505 Y-1.1505
G01 X-1.1763 Y-1.1242
G01 X-1.2127 Y-1.0845
G01 X-1.2341 Y-1.0604
G01 X-1.2578 Y-1.0322
G01 X-1.2808 Y-1.0035
G01 X-1.3003 Y-0.9779
G01 X-1.3321 Y-0.9343
G01 X-1.3529 Y-0.9040
G01 X-1.3730 Y-0.8731
G01 X-1.3899 Y-0.8457
G01 X-1.4172 Y-0.7993
G01 X-1.4350 Y-0.7670
G01 X-1.4519 Y-0.7343
G01 X-1.4753 Y-0.6858
G01 X-1.4888 Y-0.6565
G01 X-1.5033 Y-0.6227
G01 X-1.5169 Y-0.5885
G01 X-1.5355 Y-0.5379
G01 X-1.5459 Y-0.5074
G01 X-1.5571 Y-0.4723
G01 X-1.5673 Y-0.4370
G01 X-1.5755 Y-0.4058
G01 X-1.5882 Y-0.3535
G01 X-1.5959 Y-0.3174
G01 X-1.6026 Y-0.2812
G01 X-1.6077 Y-0.2494
G01 X-1.6152 Y-0.1961
G01 X-1.6193 Y-0.1595
G01 X-1.6224 Y-0.1228
G01 X-1.6255 Y-0.0690
G01 X-1.6267 Y-0.0368
G01 X-1.6271 Y-0.0046
G01 X-1.6271 Y35.0046
G01 X-1.6267 Y35.0368
G01 X-1.6255 Y35.0690
G01 X-1.6224 Y35.1228
G01 X-1.6193 Y35.1595
G01 X-1.6152 Y35.1961
G01 X-1.6077 Y35.2494
G01 X-1.6026 Y35.2812
G01 X-1.5959 Y35.3174
G01 X-1.5882 Y35.3535
G01 X-1.5755 Y35.4058
G01 X-1.5673 Y35.4370
G01 X-1.5571 Y35.4723
G01 X-1.5459 Y35.5074
G01 X-1.5355 Y35.5379
G01 X-1.5169 Y35.5885
G01 X-1.5033 Y35.6227
G01 X-1.4888 Y35.6565
G01 X-1.4661 Y35.7054
G01 X-1.4519 Y35.7343
G01 X-1.4350 Y35.7670
G01 X-1.4172 Y35.7993
G01 X-1.3899 Y35.8457
G01 X-1.3730 Y35.8731
G01 X-1.3529 Y35.9040
G01 X-1.3321 Y35.9343
G01 X-1.3003 Y35.9779
G01 X-1.2808 Y36.0035
G01 X-1.2578 Y36.0322
G01 X-1.2341 Y36.0604
G01 X-1.1982 Y36.1006
G01 X-1.1763 Y36.1242
G01 X-1.1505 Y36.1505
G01 X-1.1242 Y36.1763
G01 X-1.0845 Y36.2127
G01 X-1.0604 Y36.2341
G01 X-1.0322 Y36.2578
G01 X-1.0035 Y36.2808
G01 X-0.9604 Y36.3132
G01 X-0.9343 Y36.3321
G01 X-0.9040 Y36.3529
G01 X-0.8731 Y36.3730
G01 X-0.8457 Y36.3899
G01 X-0.7993 Y36.4172
G01 X-0.7670 Y36.4350
G01 X-0.7343 Y36.4519
G01 X-0.6858 Y36.4753
G01 X-0.6565 Y36.4888
G01 X-0.6227 Y36.5033
G01 X-0.5885 Y36.5169
G01 X-0.5583 Y36.5282
G01 X-0.5074 Y36.5459
G01 X-0.4723 Y36.5571
G01 X-0.4370 Y36.5673
G01 X-0.4058 Y36.5755
G01 X-0.3535 Y36.5882
G01 X-0.3174 Y36.5959
G01 X-0.2812 Y36.6026
G01 X-0.2280 Y36.6109
G01 X-0.1961 Y36.6152
G01 X-0.1595 Y36.6193
G01 X-0.1228 Y36.6224
G01 X-0.0690 Y36.6255
G01 X-0.0368 Y36.6267
G01 X-0.0046 Y36.6271
G01 X25.0046 Y36.6271
G00 X25.0046 Y36.6271
G01 F60.00
G01 Z-1.8000
G01 F200.00
G01 X25.0368 Y36.6267
G01 X25.0907 Y36.6244
G01 X25.1228 Y36.6224
G01 X25.1595 Y36.6193
G01 X25.1961 Y36.6152
G01 X25.2372 Y36.6095
G01 X25.2812 Y36.6026
G01 X25.3174 Y36.5959
G01 X25.3535 Y36.5882
G01 X25.3989 Y36.5772
G01 X25.4370 Y36.5673
G01 X25.4723 Y36.5571
G01 X25.5074 Y36.5459
G01 X25.5511 Y36.5307
G01 X25.5885 Y36.5169
G01 X25.6227 Y36.5033
G01 X25.6565 Y36.4888
G01 X25.6960 Y36.4705
G01 X25.7343 Y36.4519
G01 X25.7670 Y36.4350
G01 X25.7993 Y36.4172
G01 X25.8347 Y36.3965
G01 X25.8731 Y36.3730
G01 X25.9040 Y36.3529
G01 X25.9343 Y36.3321
G01 X25.9675 Y36.3079
G01 X26.0035 Y36.2808
G01 X26.0322 Y36.2578
G01 X26.0604 Y36.2341
G01 X26.0921 Y36.2059
G01 X26.1242 Y36.1763
G01 X26.1505 Y36.1505
G01 X26.1763 Y36.1242
G01 X26.2058 Y36.0922
G01 X26.2341 Y36.0604
G01 X26.2578 Y36.0322
G01 X26.2808 Y36.0035
G01 X26.3076 Y35.9680
G01 X26.3321 Y35.9343
G01 X26.3529 Y35.9040
G01 X26.3730 Y35.8731
G01 X26.3953 Y35.8366
G01 X26.4172 Y35.7993
G01 X26.4350 Y35.7670
G01 X26.4519 Y35.7343
G01 X26.4700 Y35.6970
G01 X26.4888 Y35.6565
G01 X26.5033 Y35.6227
G01 X26.5169 Y35.5885
G01 X26.5314 Y35.5491
G01 X26.5459 Y35.5074
G01 X26.5571 Y35.4723
G01 X26.5673 Y35.4370
G01 X26.5780 Y35.3958
G01 X26.5882 Y35.3535
G01 X26.5959 Y35.3174
G01 X26.6026 Y35.2812
G01 X26.6093 Y35.2388
G01 X26.6152 Y35.1961
G01 X26.6193 Y35.1595
G01 X26.6224 Y35.1228
G01 X26.6244 Y35.0907
G01 X26.6267 Y35.0368
G01 X26.6271 Y35.0046
G01 X26.6271 Y-0.0046
G01 X26.6267 Y-0.0368
G01 X26.6255 Y-0.0690
G01 X26.6224 Y-0.1228
G01 X26.6193 Y-0.1595
G01 X26.6152 Y-0.1961
G01 X26.6077 Y-0.2494
G01 X26.6026 Y-0.2812
G01 X26.5959 Y-0.3174
G01 X26.5882 Y-0.3535
G01 X26.5755 Y-0.4058
G01 X26.5673 Y-0.4370
G01 X26.5571 Y-0.4723
G01 X26.5459 Y-0.5074
G01 X26.5355 Y-0.5379
G01 X26.5169 Y-0.5885
G01 X26.5033 Y-0.6227
G01 X26.4888 Y-0.6565
G01 X26.4753 Y-0.6858
G01 X26.4519 Y-0.7343
G01 X26.4350 Y-0.7670
G01 X26.4172 Y-0.7993
G01 X26.3899 Y-0.8457
G01 X26.3730 Y-0.8731
G01 X26.3529 Y-0.9040
G01 X26.3321 Y-0.9343
G01 X26.3003 Y-0.9779
G01 X26.2808 Y-1.0035
G01 X26.2578 Y-1.0322
G01 X26.2341 Y-1.0604
G01 X26.2127 Y-1.0845
G01 X26.1763 Y-1.1242
G01 X26.1505 Y-1.1505
G01 X26.1242 Y-1.1763
G01 X26.1006 Y-1.1982
G01 X26.0604 Y-1.2341
G01 X26.0322 Y-1.2578
G01 X26.0035 Y-1.2808
G01 X25.9779 Y-1.3003
G01 X25.9343 Y-1.3321
G01 X25.9040 Y-1.3529
G01 X25.8731 Y-1.3730
G01 X25.8457 Y-1.3899
G01 X25.7993 Y-1.4172
G01 X25.7670 Y-1.4350
G01 X25.7343 Y-1.4519
G01 X25.6858 Y-1.4753
G01 X25.6565 Y-1.4888
G01 X25.6227 Y-1.5033
G01 X25.5885 Y-1.5169
G01 X25.5583 Y-1.5282
G01 X25.5074 Y-1.5459
G01 X25.4723 Y-1.5571
G01 X25.4370 Y-1.5673
G01 X25.4058 Y-1.5755
G01 X25.3535 Y-1.5882
G01 X25.3174 Y-1.5959
G01 X25.2812 Y-1.6026
G01 X25.2280 Y-1.6109
G01 X25.1961 Y-1.6152
G01 X25.1595 Y-1.6193
G01 X25.1228 Y-1.6224
G01 X25.0690 Y-1.6255
G01 X25.0368 Y-1.6267
G01 X25.0046 Y-1.6271
G01 X-0.0046 Y-1.6271
G01 X-0.0368 Y-1.6267
G01 X-0.0690 Y-1.6255
G01 X-0.1228 Y-1.6224
G01 X-0.1595 Y-1.6193
G01 X-0.1961 Y-1.6152
G01 X-0.2494 Y-1.6077
G01 X-0.2812 Y-1.6026
G01 X-0.3174 Y-1.5959
G01 X-0.3535 Y-1.5882
G01 X-0.4058 Y-1.5755
G01 X-0.4370 Y-1.5673
G01 X-0.4723 Y-1.5571
G01 X-0.5074 Y-1.5459
G01 X-0.5379 Y-1.5355
G01 X-0.5885 Y-1.5169
G01 X-0.6227 Y-1.5033
G01 X-0.6565 Y-1.4888
G01 X-0.7054 Y-1.4661
G01 X-0.7343 Y-1.4519
G01 X-0.7670 Y-1.4350
G01 X-0.7993 Y-1.4172
G01 X-0.8457 Y-1.3899
G01 X-0.8731 Y-1.3730
G01 X-0.9040 Y-1.3529
G01 X-0.9343 Y-1.3321
G01 X-0.9779 Y-1.3003
G01 X-1.0035 Y-1.2808
G01 X-1.0322 Y-1.2578
G01 X-1.0604 Y-1.2341
G01 X-1.1006 Y-1.1982
G01 X-1.1242 Y-1.1763
G01 X-1.1505 Y-1.1505
G01 X-1.1763 Y-1.1242
G01 X-1.2127 Y-1.0845
G01 X-1.2341 Y-1.0604
G01 X-1.2578 Y-1.0322
G01 X-1.2808 Y-1.0035
G01 X-1.3003 Y-0.9779
G01 X-1.3321 Y-0.9343
G01 X-1.3529 Y-0.9040
G01 X-1.3730 Y-0.8731
G01 X-1.3899 Y-0.8457
G01 X-1.4172 Y-0.7993
G01 X-1.4350 Y-0.7670
G01 X-1.4519 Y-0.7343
G01 X-1.4753 Y-0.6858
G01 X-1.4888 Y-0.6565
G01 X-1.5033 Y-0.6227
G01 X-1.5169 Y-0.5885
G01 X-1.5355 Y-0.5379
G01 X-1.5459 Y-0.5074
G01 X-1.5571 Y-0.4723
G01 X-1.5673 Y-0.4370
G01 X-1.5755 Y-0.4058
G01 X-1.5882 Y-0.3535
G01 X-1.5959 Y-0.3174
G01 X-1.6026 Y-0.2812
G01 X-1.6077 Y-0.2494
G01 X-1.6152 Y-0.1961
G01 X-1.6193 Y-0.1595
G01 X-1.6224 Y-0.1228
G01 X-1.6255 Y-0.0690
G01 X-1.6267 Y-0.0368
G01 X-1.6271 Y-0.0046
G01 X-1.6271 Y35.0046
G01 X-1.6267 Y35.0368
G01 X-1.6255 Y35.0690
G01 X-1.6224 Y35.1228
G01 X-1.6193 Y35.1595
G01 X-1.6152 Y35.1961
G01 X-1.6077 Y35.2494
G01 X-1.6026 Y35.2812
G01 X-1.5959 Y35.3174
G01 X-1.5882 Y35.3535
G01 X-1.5755 Y35.4058
G01 X-1.5673 Y35.4370
G01 X-1.5571 Y35.4723
G01 X-1.5459 Y35.5074
G01 X-1.5355 Y35.5379
G01 X-1.5169 Y35.5885
G01 X-1.5033 Y35.6227
G01 X-1.4888 Y35.6565
G01 X-1.4661 Y35.7054
G01 X-1.4519 Y35.7343
G01 X-1.4350 Y35.7670
G01 X-1.4172 Y35.7993
G01 X-1.3899 Y35.8457
G01 X-1.3730 Y35.8731
G01 X-1.3529 Y35.9040
G01 X-1.3321 Y35.9343
G01 X-1.3003 Y35.9779
G01 X-1.2808 Y36.0035
G01 X-1.2578 Y36.0322
G01 X-1.2341 Y36.0604
G01 X-1.1982 Y36.1006
G01 X-1.1763 Y36.1242
G01 X-1.1505 Y36.1505
G01 X-1.1242 Y36.1763
G01 X-1.0845 Y36.2127
G01 X-1.0604 Y36.2341
G01 X-1.0322 Y36.2578
G01 X-1.0035 Y36.2808
G01 X-0.9604 Y36.3132
G01 X-0.9343 Y36.3321
G01 X-0.9040 Y36.3529
G01 X-0.8731 Y36.3730
G01 X-0.8457 Y36.3899
G01 X-0.7993 Y36.4172
G01 X-0.7670 Y36.4350
G01 X-0.7343 Y36.4519
G01 X-0.6858 Y36.4753
G01 X-0.6565 Y36.4888
G01 X-0.6227 Y36.5033
G01 X-0.5885 Y36.5169
G01 X-0.5583 Y36.5282
G01 X-0.5074 Y36.5459
G01 X-0.4723 Y36.5571
G01 X-0.4370 Y36.5673
G01 X-0.4058 Y36.5755
G01 X-0.3535 Y36.5882
G01 X-0.3174 Y36.5959
G01 X-0.2812 Y36.6026
G01 X-0.2280 Y36.6109
G01 X-0.1961 Y36.6152
G01 X-0.1595 Y36.6193
G01 X-0.1228 Y36.6224
G01 X-0.0690 Y36.6255
G01 X-0.0368 Y36.6267
G01 X-0.0046 Y36.6271
G01 X25.0046 Y36.6271
G00 Z2.0000
G00 X55.0046 Y36.6271
G01 F60.00
G01 Z-0.6000
G01 F200.00
G01 X55.0368 Y36.6267
G01 X55.0907 Y36.6244
G01 X55.1228 Y36.6224
G01 X55.1595 Y36.6193
G01 X55.1961 Y36.6152
G01 X55.2372 Y36.6095
G01 X55.2812 Y36.6026
G01 X55.3174 Y36.5959
G01 X55.3535 Y36.5882
G01 X55.3989 Y36.5772
G01 X55.4370 Y36.5673
G01 X55.4723 Y36.5571
G01 X55.5074 Y36.5459
G01 X55.5511 Y36.5307
G01 X55.5885 Y36.5169
G01 X55.6227 Y36.5033
G01 X55.6565 Y36.4888
G01 X55.6960 Y36.4705
G01 X55.7343 Y36.4519
G01 X55.7670 Y36.4350
G01 X55.7993 Y36.4172
G01 X55.8347 Y36.3965
G01 X55.8731 Y36.3730
G01 X55.9040 Y36.3529
G01 X55.9343 Y36.3321
G01 X55.9675 Y36.3079
G01 X56.0035 Y36.2808
G01 X56.0322 Y36.2578
G01 X56.0604 Y36.2341
G01 X56.0921 Y36.2059
G01 X56.1242 Y36.1763
G01 X56.1505 Y36.1505
G01 X56.1763 Y36.1242
G01 X56.2058 Y36.0922
G01 X56.2341 Y36.0604
G01 X56.2578 Y36.0322
G01 X56.2808 Y36.0035
G01 X56.3076 Y35.9680
G01 X56.3321 Y35.9343
G01 X56.3529 Y35.9040
G01 X56.3730 Y35.8731
G01 X56.3953 Y35.8366
G01 X56.4172 Y35.7993
G01 X56.4350 Y35.7670
G01 X56.4519 Y35.7343
G01 X56.4700 Y35.6970
G01 X56.4888 Y35.6565
G01 X56.5033 Y35.6227
G01 X56.5169 Y35.5885
G01 X56.5314 Y35.5491
G01 X56.5459 Y35.5074
G01 X56.5571 Y35.4723
G01 X56.5673 Y35.4370
G01 X56.5780 Y35.3958
G01 X56.5882 Y35.3535
G01 X56.5959 Y35.3174
G01 X56.6026 Y35.2812
G01 X56.6093 Y35.2388
G01 X56.6152 Y35.1961
G01 X56.6193 Y35.1595
G01 X56.6224 Y35.1228
G01 X56.6244 Y35.0907
G01 X56.6267 Y35.0368
G01 X56.6271 Y35.0046
G01 X56.6271 Y-0.0046
G01 X56.6267 Y-0.0368
G01 X56.6255 Y-0.0690
G01 X56.6224 Y-0.1228
G01 X56.6193 Y-0.1595
G01 X56.6152 Y-0.1961
G01 X56.6077 Y-0.2494
G01 X56.6026 Y-0.2812
G01 X56.5959 Y-0.3174
G01 X56.5882 Y-0.3535
G01 X56.5755 Y-0.4058
G01 X56.5673 Y-0.4370
G01 X56.5571 Y-0.4723
G01 X56.5459 Y-0.5074
G01 X56.5355 Y-0.5379
G01 X56.5169 Y-0.5885
G01 X56.5033 Y-0.6227
G01 X56.4888 Y-0.6565
G01 X56.4753 Y-0.6858
G01 X56.4519 Y-0.7343
G01 X56.4350 Y-0.7670
G01 X56.4172 Y-0.7993
G01 X56.3899 Y-0.8457
G01 X56.3730 Y-0.8731
G01 X56.3529 Y-0.9040
G01 X56.3321 Y-0.9343
G01 X56.3003 Y-0.9779
G01 X56.2808 Y-1.0035
G01 X56.2578 Y-1.0322
G01 X56.2341 Y-1.0604
G01 X56.2127 Y-1.0845
G01 X56.1763 Y-1.1242
G01 X56.1505 Y-1.1505
G01 X56.1242 Y-1.1763
G01 X56.1006 Y-1.1982
G01 X56.0604 Y-1.2341
G01 X56.0322 Y-1.2578
G01 X56.0035 Y-1.2808
G01 X55.9779 Y-1.3003
G01 X55.9343 Y-1.3321
G01 X55.9040 Y-1.3529
G01 X55.8731 Y-1.3730
G01 X55.8457 Y-1.3899
G01 X55.7993 Y-1.4172
G01 X55.7670 Y-1.4350
G01 X55.7343 Y-1.4519
G01 X55.6858 Y-1.4753
G01 X55.6565 Y-1.4888
G01 X55.6227 Y-1.5033
G01 X55.5885 Y-1.5169
G01 X55.5379 Y-1.5355
G01 X55.5074 Y-1.5459
G01 X55.4723 Y-1.5571
G01 X55.4370 Y-1.5673
G01 X55.4058 Y-1.5755
G01 X55.3535 Y-1.5882
G01 X55.3174 Y-1.5959
G01 X55.2812 Y-1.6026
G01 X55.2280 Y-1.6109
G01 X55.1961 Y-1.6152
G01 X55.1595 Y-1.6193
G01 X55.1228 Y-1.6224
G01 X55.0690 Y-1.6255
G01 X55.0368 Y-1.6267
G01 X55.0046 Y-1.6271
G01 X29.9954 Y-1.6271
G01 X29.9632 Y-1.6267
G01 X29.9310 Y-1.6255
G01 X29.8772 Y-1.6224
G01 X29.8405 Y-1.6193
G01 X29.8039 Y-1.6152
G01 X29.7506 Y-1.6077
G01 X29.7188 Y-1.6026
G01 X29.6826 Y-1.5959
G01 X29.6465 Y-1.5882
G01 X29.5942 Y-1.5755
G01 X29.5630 Y-1.5673
G01 X29.5277 Y-1.5571
G01 X29.4926 Y-1.5459
G01 X29.4621 Y-1.5355
G01 X29.4115 Y-1.5169
G01 X29.3773 Y-1.5033
G01 X29.3435 Y-1.4888
G01 X29.2946 Y-1.4661
G01 X29.2657 Y-1.4519
G01 X29.2330 Y-1.4350
G01 X29.2007 Y-1.4172
G01 X29.1543 Y-1.3899
G01 X29.1269 Y-1.3730
G01 X29.0960 Y-1.3529
G01 X29.0657 Y-1.3321
G01 X29.0221 Y-1.3003
G01 X28.9965 Y-1.2808
G01 X28.9678 Y-1.2578
G01 X28.9396 Y-1.2341
G01 X28.8994 Y-1.1982
G01 X28.8758 Y-1.1763
G01 X28.8495 Y-1.1505
G01 X28.8237 Y-1.1242
G01 X28.7873 Y-1.0845
G01 X28.7659 Y-1.0604
G01 X28.7422 Y-1.0322
G01 X28.7192 Y-1.0035
G01 X28.6868 Y-0.9604
G01 X28.6679 Y-0.9343
G01 X28.6471 Y-0.9040
G01 X28.6270 Y-0.8731
G01 X28.6101 Y-0.8457
G01 X28.5828 Y-0.7993
G01 X28.5650 Y-0.7670
G01 X28.5481 Y-0.7343
G01 X28.5247 Y-0.6858
G01 X28.5112 Y-0.6565
G01 X28.4967 Y-0.6227
G01 X28.4831 Y-0.5885
G01 X28.4645 Y-0.5379
G01 X28.4541 Y-0.5074
G01 X28.4429 Y-0.4723
G01 X28.4327 Y-0.4370
G01 X28.4245 Y-0.4058
G01 X28.4118 Y-0.3535
G01 X28.4041 Y-0.3174
G01 X28.3974 Y-0.2812
G01 X28.3923 Y-0.2494
G01 X28.3848 Y-0.1961
G01 X28.3807 Y-0.1595
G01 X28.3776 Y-0.1228
G01 X28.3745 Y-0.0690
G01 X28.3733 Y-0.0368
G01 X28.3729 Y-0.0046
G01 X28.3729 Y35.0046
G01 X28.3733 Y35.0368
G01 X28.3745 Y35.0690
G01 X28.3776 Y35.1228
G01 X28.3807 Y35.1595
G01 X28.3848 Y35.1961
G01 X28.3923 Y35.2494
G01 X28.3974 Y35.2812
G01 X28.4041 Y35.3174
G01 X28.4118 Y35.3535
G01 X28.4245 Y35.4058
G01 X28.4327 Y35.4370
G01 X28.4429 Y35.4723
G01 X28.4541 Y35.5074
G01 X28.4645 Y35.5379
G01 X28.4831 Y35.5885
G01 X28.4967 Y35.6227
G01 X28.5112 Y35.6565
G01 X28.5339 Y35.7054
G01 X28.5481 Y35.7343
G01 X28.5650 Y35.7670
G01 X28.5828 Y35.7993
G01 X28.6101 Y35.8457
G01 X28.6270 Y35.8731
G01 X28.6471 Y35.9040
G01 X28.6679 Y35.9343
G01 X28.6997 Y35.9779
G01 X28.7192 Y36.0035
G01 X28.7422 Y36.0322
G01 X28.7659 Y36.0604
G01 X28.8018 Y36.1006
G01 X28.8237 Y36.1242
G01 X28.8495 Y36.1505
G01 X28.8758 Y36.1763
G01 X28.9155 Y36.2127
G01 X28.9396 Y36.2341
G01 X28.9678 Y36.2578
G01 X28.9965 Y36.2808
G01 X29.0396 Y36.3132
G01 X29.0657 Y36.3321
G01 X29.0960 Y36.3529
G01 X29.1269 Y36.3730
G01 X29.1543 Y36.3899
G01 X29.2007 Y36.4172
G01 X29.2330 Y36.4350
G01 X29.2657 Y36.4519
G01 X29.3142 Y36.4753
G01 X29.3435 Y36.4888
G01 X29.3773 Y36.5033
G01 X29.4115 Y36.5169
G01 X29.4621 Y36.5355
G01 X29.4926 Y36.5459
G01 X29.5277 Y36.5571
G01 X29.5630 Y36.5673
G01 X29.5942 Y36.5755
G01 X29.6465 Y36.5882
G01 X29.6826 Y36.5959
G01 X29.7188 Y36.6026
G01 X29.7720 Y36.6109
G01 X29.8039 Y36.6152
G01 X29.8405 Y36.6193
G01 X29.8772 Y36.6224
G01 X29.9310 Y36.6255
G01 X29.9632 Y36.6267
G01 X29.9954 Y36.6271
G01 X55.0046 Y36.6271
G00 X55.0046 Y36.6271
G01 F60.00
G01 Z-1.2000
G01 F200.00
G01 X55.0368 Y36.6267
G01 X55.0907 Y36.6244
G01 X55.1228 Y36.6224
G01 X55.1595 Y36.6193
G01 X55.1961 Y36.6152
G01 X55.2372 Y36.6095
G01 X55.2812 Y36.6026
G01 X55.3174 Y36.5959
G01 X55.3535 Y36.5882
G01 X55.3989 Y36.5772
G01 X55.4370 Y36.5673
G01 X55.4723 Y36.5571
G01 X55.5074 Y36.5459
G01 X55.5511 Y36.5307
G01 X55.5885 Y36.5169
G01 X55.6227 Y36.5033
G01 X55.6565 Y36.4888
G01 X55.6960 Y36.4705
G01 X55.7343 Y36.4519
G01 X55.7670 Y36.4350
G01 X55.7993 Y36.4172
G01 X55.8347 Y36.3965
G01 X55.8731 Y36.3730
G01 X55.9040 Y36.3529
G01 X55.9343 Y36.3321
G01 X55.9675 Y36.3079
G01 X56.0035 Y36.2808
G01 X56.0322 Y36.2578
G01 X56.0604 Y36.2341
G01 X56.0921 Y36.2059
G01 X56.1242 Y36.1763
G01 X56.1505 Y36.1505
G01 X56.1763 Y36.1242
G01 X56.2058 Y36.0922
G01 X56.2341 Y36.0604
G01 X56.2578 Y36.0322
G01 X56.2808 Y36.0035
G01 X56.3076 Y35.9680
G01 X56.3321 Y35.9343
G01 X56.3529 Y35.9040
G01 X56.3730 Y35.8731
G01 X56.3953 Y35.8366
G01 X56.4172 Y35.7993
G01 X56.4350 Y35.7670
G01 X56.4519 Y35.7343
G01 X56.4700 Y35.6970
G01 X56.4888 Y35.6565
G01 X56.5033 Y35.6227
G01 X56.5169 Y35.5885
G01 X56.5314 Y35.5491
G01 X56.5459 Y35.5074
G01 X56.5571 Y35.4723
G01 X56.5673 Y35.4370
G01 X56.5780 Y35.3958
G01 X56.5882 Y35.3535
G01 X56.5959 Y35.3174
G01 X56.6026 Y35.2812
G01 X56.6093 Y35.2388
G01 X56.6152 Y35.1961
G01 X56.6193 Y35.1595
G01 X56.6224 Y35.1228
G01 X56.6244 Y35.0907
G01 X56.6267 Y35.0368
G01 X56.6271 Y35.0046
G01 X56.6271 Y-0.0046
G01 X56.6267 Y-0.0368
G01 X56.6255 Y-0.0690
G01 X56.6224 Y-0.1228
G01 X56.6193 Y-0.1595
G01 X56.6152 Y-0.1961
G01 X56.6077 Y-0.2494
G01 X56.6026 Y-0.2812
G01 X56.5959 Y-0.3174
G01 X56.5882 Y-0.3535
G01 X56.5755 Y-0.4058
G01 X56.5673 Y-0.4370
G01 X56.5571 Y-0.4723
G01 X56.5459 Y-0.5074
G01 X56.5355 Y-0.5379
G01 X56.5169 Y-0.5885
G01 X56.5033 Y-0.6227
G01 X56.4888 Y-0.6565
G01 X56.4753 Y-0.6858
G01 X56.4519 Y-0.7343
G01 X56.4350 Y-0.7670
G01 X56.4172 Y-0.7993
G01 X56.3899 Y-0.8457
G01 X56.3730 Y-0.8731
G01 X56.3529 Y-0.9040
G01 X56.3321 Y-0.9343
G01 X56.3003 Y-0.9779
G01 X56.2808 Y-1.0035
G01 X56.2578 Y-1.0322
G01 X56.2341 Y-1.0604
G01 X56.2127 Y-1.0845
G01 X56.1763 Y-1.1242
G01 X56.1505 Y-1.1505
G01 X56.1242 Y-1.1763
G01 X56.1006 Y-1.1982
G01 X56.0604 Y-1.2341
G01 X56.0322 Y-1.2578
G01 X56.0035 Y-1.2808
G01 X55.9779 Y-1.3003
G01 X55.9343 Y-1.3321
G01 X55.9040 Y-1.3529
G01 X55.8731 Y-1.3730
G01 X55.8457 Y-1.3899
G01 X55.7993 Y-1.4172
G01 X55.7670 Y-1.4350
G01 X55.7343 Y-1.4519
G01 X55.6858 Y-1.4753
G01 X55.6565 Y-1.4888
G01 X55.6227 Y-1.5033
G01 X55.5885 Y-1.5169
G01 X55.5379 Y-1.5355
G01 X55.5074 Y-1.5459
G01 X55.4723 Y-1.5571
G01 X55.4370 Y-1.5673
G01 X55.4058 Y-1.5755
G01 X55.3535 Y-1.5882
G01 X55.3174 Y-1.5959
G01 X55.2812 Y-1.6026
G01 X55.2280 Y-1.6109
G01 X55.1961 Y-1.6152
G01 X55.1595 Y-1.6193
G01 X55.1228 Y-1.6224
G01 X55.0690 Y-1.6255
G01 X55.0368 Y-1.6267
G01 X55.0046 Y-1.6271
G01 X29.9954 Y-1.6271
G01 X29.9632 Y-1.6267
G01 X29.9310 Y-1.6255
G01 X29.8772 Y-1.6224
G01 X29.8405 Y-1.6193
G01 X29.8039 Y-1.6152
G01 X29.7506 Y-1.6077
G01 X29.7188 Y-1.6026
G01 X29.6826 Y-1.5959
G01 X29.6465 Y-1.5882
G01 X29.5942 Y-1.5755
G01 X29.5630 Y-1.5673
G01 X29.5277 Y-1.5571
G01 X29.4926 Y-1.5459
G01 X29.4621 Y-1.5355
G01 X29.4115 Y-1.5169
G01 X29.3773 Y-1.5033
G01 X29.3435 Y-1.4888
G01 X29.2946 Y-1.4661
G01 X29.2657 Y-1.4519
G01 X29.2330 Y-1.4350
G01 X29.2007 Y-1.4172
G01 X29.1543 Y-1.3899
G01 X29.1269 Y-1.3730
G01 X29.0960 Y-1.3529
G01 X29.0657 Y-1.3321
G01 X29.0221 Y-1.3003
G01 X28.9965 Y-1.2808
G01 X28.9678 Y-1.2578
G01 X28.9396 Y-1.2341
G01 X28.8994 Y-1.1982
G01 X28.8758 Y-1.1763
G01 X28.8495 Y-1.1505
G01 X28.8237 Y-1.1242
G01 X28.7873 Y-1.0845
G01 X28.7659 Y-1.0604
G01 X28.7422 Y-1.0322
G01 X28.7192 Y-1.0035
G01 X28.6868 Y-0.9604
G01 X28.6679 Y-0.9343
G01 X28.6471 Y-0.9040
G01 X28.6270 Y-0.8731
G01 X28.6101 Y-0.8457
G01 X28.5828 Y-0.7993
G01 X28.5650 Y-0.7670
G01 X28.5481 Y-0.7343
G01 X28.5247 Y-0.6858
G01 X28.5112 Y-0.6565
G01 X28.4967 Y-0.6227
G01 X28.4831 Y-0.5885
G01 X28.4645 Y-0.5379
G01 X28.4541 Y-0.5074
G01 X28.4429 Y-0.4723
G01 X28.4327 Y-0.4370
G01 X28.4245 Y-0.4058
G01 X28.4118 Y-0.3535
G01 X28.4041 Y-0.3174
G01 X28.3974 Y-0.2812
G01 X28.3923 Y-0.2494
G01 X28.3848 Y-0.1961
G01 X28.3807 Y-0.1595
G01 X28.3776 Y-0.1228
G01 X28.3745 Y-0.0690
G01 X28.3733 Y-0.0368
G01 X28.3729 Y-0.0046
G01 X28.3729 Y35.0046
G01 X28.3733 Y35.0368
G01 X28.3745 Y35.0690
G01 X28.3776 Y35.1228
G01 X28.3807 Y35.1595
G01 X28.3848 Y35.1961
G01 X28.3923 Y35.2494
G01 X28.3974 Y35.2812
G01 X28.4041 Y35.3174
G01 X28.4118 Y35.3535
G01 X28.4245 Y35.4058
G01 X28.4327 Y35.4370
G01 X28.4429 Y35.4723
G01 X28.4541 Y35.5074
G01 X28.4645 Y35.5379
G01 X28.4831 Y35.5885
G01 X28.4967 Y35.6227
G01 X28.5112 Y35.6565
G01 X28.5339 Y35.7054
G01 X28.5481 Y35.7343
G01 X28.5650 Y35.7670
G01 X28.5828 Y35.7993
G01 X28.6101 Y35.8457
G01 X28.6270 Y35.8731
G01 X28.6471 Y35.9040
G01 X28.6679 Y35.9343
G01 X28.6997 Y35.9779
G01 X28.7192 Y36.0035
G01 X28.7422 Y36.0322
G01 X28.7659 Y36.0604
G01 X28.8018 Y36.1006
G01 X28.8237 Y36.1242
G01 X28.8495 Y36.1505
G01 X28.8758 Y36.1763
G01 X28.9155 Y36.2127
G01 X28.9396 Y36.2341
G01 X28.9678 Y36.2578
G01 X28.9965 Y36.2808
G01 X29.0396 Y36.3132
G01 X29.0657 Y36.3321
G01 X29.0960 Y36.3529
G01 X29.1269 Y36.3730
G01 X29.1543 Y36.3899
G01 X29.2007 Y36.4172
G01 X29.2330 Y36.4350
G01 X29.2657 Y36.4519
G01 X29.3142 Y36.4753
G01 X29.3435 Y36.4888
G01 X29.3773 Y36.5033
G01 X29.4115 Y36.5169
G01 X29.4621 Y36.5355
G01 X29.4926 Y36.5459
G01 X29.5277 Y36.5571
G01 X29.5630 Y36.5673
G01 X29.5942 Y36.5755
G01 X29.6465 Y36.5882
G01 X29.6826 Y36.5959
G01 X29.7188 Y36.6026
G01 X29.7720 Y36.6109
G01 X29.8039 Y36.6152
G01 X29.8405 Y36.6193
G01 X29.8772 Y36.6224
G01 X29.9310 Y36.6255
G01 X29.9632 Y36.6267
G01 X29.9954 Y36.6271
G01 X55.0046 Y36.6271
G00 X55.0046 Y36.6271
G01 F60.00
G01 Z-1.8000
G01 F200.00
G01 X55.0368 Y36.6267
G01 X55.0907 Y36.6244
G01 X55.1228 Y36.6224
G01 X55.1595 Y36.6193
G01 X55.1961 Y36.6152
G01 X55.2372 Y36.6095
G01 X55.2812 Y36.6026
G01 X55.3174 Y36.5959
G01 X55.3535 Y36.5882
G01 X55.3989 Y36.5772
G01 X55.4370 Y36.5673
G01 X55.4723 Y36.5571
G01 X55.5074 Y36.5459
G01 X55.5511 Y36.5307
G01 X55.5885 Y36.5169
G01 X55.6227 Y36.5033
G01 X55.6565 Y36.4888
G01 X55.6960 Y36.4705
G01 X55.7343 Y36.4519
G01 X55.7670 Y36.4350
G01 X55.7993 Y36.4172
G01 X55.8347 Y36.3965
G01 X55.8731 Y36.3730
G01 X55.9040 Y36.3529
G01 X55.9343 Y36.3321
G01 X55.9675 Y36.3079
G01 X56.0035 Y36.2808
G01 X56.0322 Y36.2578
G01 X56.0604 Y36.2341
G01 X56.0921 Y36.2059
G01 X56.1242 Y36.1763
G01 X56.1505 Y36.1505
G01 X56.1763 Y36.1242
G01 X56.2058 Y36.0922
G01 X56.2341 Y36.0604
G01 X56.2578 Y36.0322
G01 X56.2808 Y36.0035
G01 X56.3076 Y35.9680
G01 X56.3321 Y35.9343
G01 X56.3529 Y35.9040
G01 X56.3730 Y35.8731
G01 X56.3953 Y35.8366
G01 X56.4172 Y35.7993
G01 X56.4350 Y35.7670
G01 X56.4519 Y35.7343
G01 X56.4700 Y35.6970
G01 X56.4888 Y35.6565
G01 X56.5033 Y35.6227
G01 X56.5169 Y35.5885
G01 X56.5314 Y35.5491
G01 X56.5459 Y35.5074
G01 X56.5571 Y35.4723
G01 X56.5673 Y35.4370
G01 X56.5780 Y35.3958
G01 X56.5882 Y35.3535
G01 X56.5959 Y35.3174
G01 X56.6026 Y35.2812
G01 X56.6093 Y35.2388
G01 X56.6152 Y35.1961
G01 X56.6193 Y35.1595
G01 X56.6224 Y35.1228
G01 X56.6244 Y35.0907
G01 X56.6267 Y35.0368
G01 X56.6271 Y35.0046
G01 X56.6271 Y-0.0046
G01 X56.6267 Y-0.0368
G01 X56.6255 Y-0.0690
G01 X56.6224 Y-0.1228
G01 X56.6193 Y-0.1595
G01 X56.6152 Y-0.1961
G01 X56.6077 Y-0.2494
G01 X56.6026 Y-0.2812
G01 X56.5959 Y-0.3174
G01 X56.5882 Y-0.3535
G01 X56.5755 Y-0.4058
G01 X56.5673 Y-0.4370
G01 X56.5571 Y-0.4723
G01 X56.5459 Y-0.5074
G01 X56.5355 Y-0.5379
G01 X56.5169 Y-0.5885
G01 X56.5033 Y-0.6227
G01 X56.4888 Y-0.6565
G01 X56.4753 Y-0.6858
G01 X56.4519 Y-0.7343
G01 X56.4350 Y-0.7670
G01 X56.4172 Y-0.7993
G01 X56.3899 Y-0.8457
G01 X56.3730 Y-0.8731
G01 X56.3529 Y-0.9040
G01 X56.3321 Y-0.9343
G01 X56.3003 Y-0.9779
G01 X56.2808 Y-1.0035
G01 X56.2578 Y-1.0322
G01 X56.2341 Y-1.0604
G01 X56.2127 Y-1.0845
G01 X56.1763 Y-1.1242
G01 X56.1505 Y-1.1505
G01 X56.1242 Y-1.1763
G01 X56.1006 Y-1.1982
G01 X56.0604 Y-1.2341
G01 X56.0322 Y-1.2578
G01 X56.0035 Y-1.2808
G01 X55.9779 Y-1.3003
G01 X55.9343 Y-1.3321
G01 X55.9040 Y-1.3529
G01 X55.8731 Y-1.3730
G01 X55.8457 Y-1.3899
G01 X55.7993 Y-1.4172
G01 X55.7670 Y-1.4350
G01 X55.7343 Y-1.4519
G01 X55.6858 Y-1.4753
G01 X55.6565 Y-1.4888
G01 X55.6227 Y-1.5033
G01 X55.5885 Y-1.5169
G01 X55.5379 Y-1.5355
G01 X55.5074 Y-1.5459
G01 X55.4723 Y-1.5571
G01 X55.4370 Y-1.5673
G01 X55.4058 Y-1.5755
G01 X55.3535 Y-1.5882
G01 X55.3174 Y-1.5959
G01 X55.2812 Y-1.6026
G01 X55.2280 Y-1.6109
G01 X55.1961 Y-1.6152
G01 X55.1595 Y-1.6193
G01 X55.1228 Y-1.6224
G01 X55.0690 Y-1.6255
G01 X55.0368 Y-1.6267
G01 X55.0046 Y-1.6271
G01 X29.9954 Y-1.6271
G01 X29.9632 Y-1.6267
G01 X29.9310 Y-1.6255
G01 X29.8772 Y-1.6224
G01 X29.8405 Y-1.6193
G01 X29.8039 Y-1.6152
G01 X29.7506 Y-1.6077
G01 X29.7188 Y-1.6026
G01 X29.6826 Y-1.5959
G01 X29.6465 Y-1.5882
G01 X29.5942 Y-1.5755
G01 X29.5630 Y-1.5673
G01 X29.5277 Y-1.5571
G01 X29.4926 Y-1.5459
G01 X29.4621 Y-1.5355
G01 X29.4115 Y-1.5169
G01 X29.3773 Y-1.5033
G01 X29.3435 Y-1.4888
G01 X29.2946 Y-1.4661
G01 X29.2657 Y-1.4519
G01 X29.2330 Y-1.4350
G01 X29.2007 Y-1.4172
G01 X29.1543 Y-1.3899
G01 X29.1269 Y-1.3730
G01 X29.0960 Y-1.3529
G01 X29.0657 Y-1.3321
G01 X29.0221 Y-1.3003
G01 X28.9965 Y-1.2808
G01 X28.9678 Y-1.2578
G01 X28.9396 Y-1.2341
G01 X28.8994 Y-1.1982
G01 X28.8758 Y-1.1763
G01 X28.8495 Y-1.1505
G01 X28.8237 Y-1.1242
G01 X28.7873 Y-1.0845
G01 X28.7659 Y-1.0604
G01 X28.7422 Y-1.0322
G01 X28.7192 Y-1.0035
G01 X28.6868 Y-0.9604
G01 X28.6679 Y-0.9343
G01 X28.6471 Y-0.9040
G01 X28.6270 Y-0.8731
G01 X28.6101 Y-0.8457
G01 X28.5828 Y-0.7993
G01 X28.5650 Y-0.7670
G01 X28.5481 Y-0.7343
G01 X28.5247 Y-0.6858
G01 X28.5112 Y-0.6565
G01 X28.4967 Y-0.6227
G01 X28.4831 Y-0.5885
G01 X28.4645 Y-0.5379
G01 X28.4541 Y-0.5074
G01 X28.4429 Y-0.4723
G01 X28.4327 Y-0.4370
G01 X28.4245 Y-0.4058
G01 X28.4118 Y-0.3535
G01 X28.4041 Y-0.3174
G01 X28.3974 Y-0.2812
G01 X28.3923 Y-0.2494
G01 X28.3848 Y-0.1961
G01 X28.3807 Y-0.1595
G01 X28.3776 Y-0.1228
G01 X28.3745 Y-0.0690
G01 X28.3733 Y-0.0368
G01 X28.3729 Y-0.0046
G01 X28.3729 Y35.0046
G01 X28.3733 Y35.0368
G01 X28.3745 Y35.0690
G01 X28.3776 Y35.1228
G01 X28.3807 Y35.1595
G01 X28.3848 Y35.1961
G01 X28.3923 Y35.2494
G01 X28.3974 Y35.2812
G01 X28.4041 Y35.3174
G01 X28.4118 Y35.3535
G01 X28.4245 Y35.4058
G01 X28.4327 Y35.4370
G01 X28.4429 Y35.4723
G01 X28.4541 Y35.5074
G01 X28.4645 Y35.5379
G01 X28.4831 Y35.5885
G01 X28.4967 Y35.6227
G01 X28.5112 Y35.6565
G01 X28.5339 Y35.7054
G01 X28.5481 Y35.7343
G01 X28.5650 Y35.7670
G01 X28.5828 Y35.7993
G01 X28.6101 Y35.8457
G01 X28.6270 Y35.8731
G01 X28.6471 Y35.9040
G01 X28.6679 Y35.9343
G01 X28.6997 Y35.9779
G01 X28.7192 Y36.0035
G01 X28.7422 Y36.0322
G01 X28.7659 Y36.0604
G01 X28.8018 Y36.1006
G01 X28.8237 Y36.1242
G01 X28.8495 Y36.1505
G01 X28.8758 Y36.1763
G01 X28.9155 Y36.2127
G01 X28.9396 Y36.2341
G01 X28.9678 Y36.2578
G01 X28.9965 Y36.2808
G01 X29.0396 Y36.3132
G01 X29.0657 Y36.3321
G01 X29.0960 Y36.3529
G01 X29.1269 Y36.3730
G01 X29.1543 Y36.3899
G01 X29.2007 Y36.4172
G01 X29.2330 Y36.4350
G01 X29.2657 Y36.4519
G01 X29.3142 Y36.4753
G01 X29.3435 Y36.4888
G01 X29.3773 Y36.5033
G01 X29.4115 Y36.5169
G01 X29.4621 Y36.5355
G01 X29.4926 Y36.5459
G01 X29.5277 Y36.5571
G01 X29.5630 Y36.5673
G01 X29.5942 Y36.5755
G01 X29.6465 Y36.5882
G01 X29.6826 Y36.5959
G01 X29.7188 Y36.6026
G01 X29.7720 Y36.6109
G01 X29.8039 Y36.6152
G01 X29.8405 Y36.6193
G01 X29.8772 Y36.6224
G01 X29.9310 Y36.6255
G01 X29.9632 Y36.6267
G01 X29.9954 Y36.6271
G01 X55.0046 Y36.6271
G00 Z2.0000
G00 X-1.6271 Y65.0046
G01 F60.00
G01 Z-0.6000
G01 F200.00
G01 X-1.6267 Y65.0368
G01 X-1.6244 Y65.0907
G01 X-1.6224 Y65.1228
G01 X-1.6193 Y65.1595
G01 X-1.6152 Y65.1961
G01 X-1.6095 Y65.2372
G01 X-1.6026 Y65.2812
G01 X-1.5959 Y65.3174
G01 X-1.5882 Y65.3535
G01 X-1.5772 Y65.3989
G01 X-1.5673 Y65.4370
G01 X-1.5571 Y65.4723
G01 X-1.5459 Y65.5074
G01 X-1.5307 Y65.5511
G01 X-1.5169 Y65.5885
G01 X-1.5033 Y65.6227
G01 X-1.4888 Y65.6565
G01 X-1.4705 Y65.6960
G01 X-1.4519 Y65.7343
G01 X-1.4350 Y65.7670
G01 X-1.4172 Y65.7993
G01 X-1.3965 Y65.8347
G01 X-1.3730 Y65.8731
G01 X-1.3529 Y65.9040
G01 X-1.3321 Y65.9343
G01 X-1.3079 Y65.9675
G01 X-1.2808 Y66.0035
G01 X-1.2578 Y66.0322
G01 X-1.2341 Y66.0604
G01 X-1.2059 Y66.0921
G01 X-1.1763 Y66.1242
G01 X-1.1505 Y66.1505
G01 X-1.1242 Y66.1763
G01 X-1.0922 Y66.2058
G01 X-1.0604 Y66.2341
G01 X-1.0322 Y66.2578
G01 X-1.0035 Y66.2808
G01 X-0.9680 Y66.3076
G01 X-0.9343 Y66.3321
G01 X-0.9040 Y66.3529
G01 X-0.8731 Y66.3730
G01 X-0.8366 Y66.3953
G01 X-0.7993 Y66.4172
G01 X-0.7670 Y66.4350
G01 X-0.7343 Y66.4519
G01 X-0.6970 Y66.4700
G01 X-0.6565 Y66.4888
G01 X-0.6227 Y66.5033
G01 X-0.5885 Y66.5169
G01 X-0.5491 Y66.5314
G01 X-0.5074 Y66.5459
G01 X-0.4723 Y66.5571
G01 X-0.4370 Y66.5673
G01 X-0.3958 Y66.5780
G01 X-0.3535 Y66.5882
G01 X-0.3174 Y66.5959
G01 X-0.2812 Y66.6026
G01 X-0.2388 Y66.6093
G01 X-0.1961 Y66.6152
G01 X-0.1595 Y66.6193
G01 X-0.1228 Y66.6224
G01 X-0.0907 Y66.6244
G01 X-0.0368 Y66.6267
G01 X-0.0046 Y66.6271
G01 X35.0046 Y66.6271
G01 X35.0368 Y66.6267
G01 X35.0690 Y66.6255
G01 X35.1228 Y66.6224
G01 X35.1595 Y66.6193
G01 X35.1961 Y66.6152
G01 X35.2494 Y66.6077
G01 X35.2812 Y66.6026
G01 X35.3174 Y66.5959
G01 X35.3535 Y66.5882
G01 X35.4058 Y66.5755
G01 X35.4370 Y66.5673
G01 X35.4723 Y66.5571
G01 X35.5074 Y66.5459
G01 X35.5379 Y66.5355
G01 X35.5885 Y66.5169
G01 X35.6227 Y66.5033
G01 X35.6565 Y66.4888
G01 X35.7054 Y66.4661
G01 X35.7343 Y66.4519
G01 X35.7670 Y66.4350
G01 X35.7993 Y66.4172
G01 X35.8457 Y66.3899
G01 X35.8731 Y66.3730
G01 X35.9040 Y66.3529
G01 X35.9343 Y66.3321
G01 X35.9779 Y66.3003
G01 X36.0035 Y66.2808
G01 X36.0322 Y66.2578
G01 X36.0604 Y66.2341
G01 X36.0845 Y66.2127
G01 X36.1242 Y66.1763
G01 X36.1505 Y66.1505
G01 X36.1763 Y66.1242
G01 X36.1982 Y66.1006
G01 X36.2341 Y66.0604
G01 X36.2578 Y66.0322
G01 X36.2808 Y66.0035
G01 X36.3003 Y65.9779
G01 X36.3321 Y65.9343
G01 X36.3529 Y65.9040
G01 X36.3730 Y65.8731
G01 X36.3899 Y65.8457
G01 X36.4172 Y65.7993
G01 X36.4350 Y65.7670
G01 X36.4519 Y65.7343
G01 X36.4753 Y65.6858
G01 X36.4888 Y65.6565
G01 X36.5033 Y65.6227
G01 X36.5169 Y65.5885
G01 X36.5282 Y65.5583
G01 X36.5459 Y65.5074
G01 X36.5571 Y65.4723
G01 X36.5673 Y65.4370
G01 X36.5755 Y65.4058
G01 X36.5882 Y65.3535
G01 X36.5959 Y65.3174
G01 X36.6026 Y65.2812
G01 X36.6109 Y65.2280
G01 X36.6152 Y65.1961
G01 X36.6193 Y65.1595
G01 X36.6224 Y65.1228
G01 X36.6255 Y65.0690
G01 X36.6267 Y65.0368
G01 X36.6271 Y65.0046
G01 X36.6271 Y39.9954
G01 X36.6267 Y39.9632
G01 X36.6255 Y39.9310
G01 X36.6224 Y39.8772
G01 X36.6193 Y39.8405
G01 X36.6152 Y39.8039
G01 X36.6077 Y39.7506
G01 X36.6026 Y39.7188
G01 X36.5959 Y39.6826
G01 X36.5882 Y39.6465
G01 X36.5755 Y39.5942
G01 X36.5673 Y39.5630
G01 X36.5571 Y39.5277
G01 X36.5459 Y39.4926
G01 X36.5355 Y39.4621
G01 X36.5169 Y39.4115
G01 X36.5033 Y39.3773
G01 X36.4888 Y39.3435
G01 X36.4661 Y39.2946
G01 X36.4519 Y39.2657
G01 X36.4350 Y39.2330
G01 X36.4172 Y39.2007
G01 X36.3899 Y39.1543
G01 X36.3730 Y39.1269
G01 X36.3529 Y39.0960
G01 X36.3321 Y39.0657
G01 X36.3003 Y39.0221
G01 X36.2808 Y38.9965
G01 X36.2578 Y38.9678
G01 X36.2341 Y38.9396
G01 X36.1982 Y38.8994
G01 X36.1763 Y38.8758
G01 X36.1505 Y38.8495
G01 X36.1242 Y38.8237
G01 X36.0845 Y38.7873
G01 X36.0604 Y38.7659
G01 X36.0322 Y38.7422
G01 X36.0035 Y38.7192
G01 X35.9779 Y38.6997
G01 X35.9343 Y38.6679
G01 X35.9040 Y38.6471
G01 X35.8731 Y38.6270
G01 X35.8457 Y38.6101
G01 X35.7993 Y38.5828
G01 X35.7670 Y38.5650
G01 X35.7343 Y38.5481
G01 X35.6858 Y38.5247
G01 X35.6565 Y38.5112
G01 X35.6227 Y38.4967
G01 X35.5885 Y38.4831
G01 X35.5379 Y38.4645
G01 X35.5074 Y38.4541
G01 X35.4723 Y38.4429
G01 X35.4370 Y38.4327
G01 X35.4058 Y38.4245
G01 X35.3535 Y38.4118
G01 X35.3174 Y38.4041
G01 X35.2812 Y38.3974
G01 X35.2494 Y38.3923
G01 X35.1961 Y38.3848
G01 X35.1595 Y38.3807
G01 X35.1228 Y38.3776
G01 X35.0690 Y38.3745
G01 X35.0368 Y38.3733
G01 X35.0046 Y38.3729
G01 X-0.0046 Y38.3729
G01 X-0.0368 Y38.3733
G01 X-0.0690 Y38.3745
G01 X-0.1228 Y38.3776
G01 X-0.1595 Y38.3807
G01 X-0.1961 Y38.3848
G01 X-0.2494 Y38.3923
G01 X-0.2812 Y38.3974
G01 X-0.3174 Y38.4041
G01 X-0.3535 Y38.4118
G01 X-0.4058 Y38.4245
G01 X-0.4370 Y38.4327
G01 X-0.4723 Y38.4429
G01 X-0.5074 Y38.4541
G01 X-0.5379 Y38.4645
G01 X-0.5885 Y38.4831
G01 X-0.6227 Y38.4967
G01 X-0.6565 Y38.5112
G01 X-0.7054 Y38.5339
G01 X-0.7343 Y38.5481
G01 X-0.7670 Y38.5650
G01 X-0.7993 Y38.5828
G01 X-0.8457 Y38.6101
G01 X-0.8731 Y38.6270
G01 X-0.9040 Y38.6471
G01 X-0.9343 Y38.6679
G01 X-0.9779 Y38.6997
G01 X-1.0035 Y38.7192
G01 X-1.0322 Y38.7422
G01 X-1.0604 Y38.7659
G01 X-1.1006 Y38.8018
G01 X-1.1242 Y38.8237
G01 X-1.1505 Y38.8495
G01 X-1.1763 Y38.8758
G01 X-1.2127 Y38.9155
G01 X-1.2341 Y38.9396
G01 X-1.2578 Y38.9678
G01 X-1.2808 Y38.9965
G01 X-1.3132 Y39.0396
G01 X-1.3321 Y39.0657
G01 X-1.3529 Y39.0960
G01 X-1.3730 Y39.1269
G01 X-1.3899 Y39.1543
G01 X-1.4172 Y39.2007
G01 X-1.4350 Y39.2330
G01 X-1.4519 Y39.2657
G01 X-1.4753 Y39.3142
G01 X-1.4888 Y39.3435
G01 X-1.5033 Y39.3773
G01 X-1.5169 Y39.4115
G01 X-1.5282 Y39.4417
G01 X-1.5459 Y39.4926
G01 X-1.5571 Y39.5277
G01 X-1.5673 Y39.5630
G01 X-1.5755 Y39.5942
G01 X-1.5882 Y39.6465
G01 X-1.5959 Y39.6826
G01 X-1.6026 Y39.7188
G01 X-1.6109 Y39.7720
G01 X-1.6152 Y39.8039
G01 X-1.6193 Y39.8405
G01 X-1.6224 Y39.8772
G01 X-1.6255 Y39.9310
G01 X-1.6267 Y39.9632
G01 X-1.6271 Y39.9954
G01 X-1.6271 Y65.0046
G00 X-1.6271 Y65.0046
G01 F60.00
G01 Z-1.2000
G01 F200.00
G01 X-1.6267 Y65.0368
G01 X-1.6244 Y65.0907
G01 X-1.6224 Y65.1228
G01 X-1.6193 Y65.1595
G01 X-1.6152 Y65.1961
G01 X-1.6095 Y65.2372
G01 X-1.6026 Y65.2812
G01 X-1.5959 Y65.3174
G01 X-1.5882 Y65.3535
G01 X-1.5772 Y65.3989
G01 X-1.5673 Y65.4370
G01 X-1.5571 Y65.4723
G01 X-1.5459 Y65.5074
G01 X-1.5307 Y65.5511
G01 X-1.5169 Y65.5885
G01 X-1.5033 Y65.6227
G01 X-1.4888 Y65.6565
G01 X-1.4705 Y65.6960
G01 X-1.4519 Y65.7343
G01 X-1.4350 Y65.7670
G01 X-1.4172 Y65.7993
G01 X-1.3965 Y65.8347
G01 X-1.3730 Y65.8731
G01 X-1.3529 Y65.9040
G01 X-1.3321 Y65.9343
G01 X-1.3079 Y65.9675
G01 X-1.2808 Y66.0035
G01 X-1.2578 Y66.0322
G01 X-1.2341 Y66.0604
G01 X-1.2059 Y66.0921
G01 X-1.1763 Y66.1242
G01 X-1.1505 Y66.1505
G01 X-1.1242 Y66.1763
G01 X-1.0922 Y66.2058
G01 X-1.0604 Y66.2341
G01 X-1.0322 Y66.2578
G01 X-1.0035 Y66.2808
G01 X-0.9680 Y66.3076
G01 X-0.9343 Y66.3321
G01 X-0.9040 Y66.3529
G01 X-0.8731 Y66.3730
G01 X-0.8366 Y66.3953
G01 X-0.7993 Y66.4172
G01 X-0.7670 Y66.4350
G01 X-0.7343 Y66.4519
G01 X-0.6970 Y66.4700
G01 X-0.6565 Y66.4888
G01 X-0.6227 Y66.5033
G01 X-0.5885 Y66.5169
G01 X-0.5491 Y66.5314
G01 X-0.5074 Y66.5459
G01 X-0.4723 Y66.5571
G01 X-0.4370 Y66.5673
G01 X-0.3958 Y66.5780
G01 X-0.3535 Y66.5882
G01 X-0.3174 Y66.5959
G01 X-0.2812 Y66.6026
G01 X-0.2388 Y66.6093
G01 X-0.1961 Y66.6152
G01 X-0.1595 Y66.6193
G01 X-0.1228 Y66.6224
G01 X-0.0907 Y66.6244
G01 X-0.0368 Y66.6267
G01 X-0.0046 Y66.6271
G01 X35.0046 Y66.6271
G01 X35.0368 Y66.6267
G01 X35.0690 Y66.6255
G01 X35.1228 Y66.6224
G01 X35.1595 Y66.6193
G01 X35.1961 Y66.6152
G01 X35.2494 Y66.6077
G01 X35.2812 Y66.6026
G01 X35.3174 Y66.5959
G01 X35.3535 Y66.5882
G01 X35.4058 Y66.5755
G01 X35.4370 Y66.5673
G01 X35.4723 Y66.5571
G01 X35.5074 Y66.5459
G01 X35.5379 Y66.5355
G01 X35.5885 Y66.5169
G01 X35.6227 Y66.5033
G01 X35.6565 Y66.4888
G01 X35.7054 Y66.4661
G01 X35.7343 Y66.4519
G01 X35.7670 Y66.4350
G01 X35.7993 Y66.4172
G01 X35.8457 Y66.3899
G01 X35.8731 Y66.3730
G01 X35.9040 Y66.3529
G01 X35.9343 Y66.3321
G01 X35.9779 Y66.3003
G01 X36.0035 Y66.2808
G01 X36.0322 Y66.2578
G01 X36.0604 Y66.2341
G01 X36.0845 Y66.2127
G01 X36.1242 Y66.1763
G01 X36.1505 Y66.1505
G01 X36.1763 Y66.1242
G01 X36.1982 Y66.1006
G01 X36.2341 Y66.0604
G01 X36.2578 Y66.0322
G01 X36.2808 Y66.0035
G01 X36.3003 Y65.9779
G01 X36.3321 Y65.9343
G01 X36.3529 Y65.9040
G01 X36.3730 Y65.8731
G01 X36.3899 Y65.8457
G01 X36.4172 Y65.7993
G01 X36.4350 Y65.7670
G01 X36.4519 Y65.7343
G01 X36.4753 Y65.6858
G01 X36.4888 Y65.6565
G01 X36.5033 Y65.6227
G01 X36.5169 Y65.5885
G01 X36.5282 Y65.5583
G01 X36.5459 Y65.5074
G01 X36.5571 Y65.4723
G01 X36.5673 Y65.4370
G01 X36.5755 Y65.4058
G01 X36.5882 Y65.3535
G01 X36.5959 Y65.3174
G01 X36.6026 Y65.2812
G01 X36.6109 Y65.2280
G01 X36.6152 Y65.1961
G01 X36.6193 Y65.1595
G01 X36.6224 Y65.1228
G01 X36.6255 Y65.0690
G01 X36.6267 Y65.0368
G01 X36.6271 Y65.0046
G01 X36.6271 Y39.9954
G01 X36.6267 Y39.9632
G01 X36.6255 Y39.9310
G01 X36.6224 Y39.8772
G01 X36.6193 Y39.8405
G01 X36.6152 Y39.8039
G01 X36.6077 Y39.7506
G01 X36.6026 Y39.7188
G01 X36.5959 Y39.6826
G01 X36.5882 Y39.6465
G01 X36.5755 Y39.5942
G01 X36.5673 Y39.5630
G01 X36.5571 Y39.5277
G01 X36.5459 Y39.4926
G01 X36.5355 Y39.4621
G01 X36.5169 Y39.4115
G01 X36.5033 Y39.3773
G01 X36.4888 Y39.3435
G01 X36.4661 Y39.2946
G01 X36.4519 Y39.2657
G01 X36.4350 Y39.2330
G01 X36.4172 Y39.2007
G01 X36.3899 Y39.1543
G01 X36.3730 Y39.1269
G01 X36.3529 Y39.0960
G01 X36.3321 Y39.0657
G01 X36.3003 Y39.0221
G01 X36.2808 Y38.9965
G01 X36.2578 Y38.9678
G01 X36.2341 Y38.9396
G01 X36.1982 Y38.8994
G01 X36.1763 Y38.8758
G01 X36.1505 Y38.8495
G01 X36.1242 Y38.8237
G01 X36.0845 Y38.7873
G01 X36.0604 Y38.7659
G01 X36.0322 Y38.7422
G01 X36.0035 Y38.7192
G01 X35.9779 Y38.6997
G01 X35.9343 Y38.6679
G01 X35.9040 Y38.6471
G01 X35.8731 Y38.6270
G01 X35.8457 Y38.6101
G01 X35.7993 Y38.5828
G01 X35.7670 Y38.5650
G01 X35.7343 Y38.5481
G01 X35.6858 Y38.5247
G01 X35.6565 Y38.5112
G01 X35.6227 Y38.4967
G01 X35.5885 Y38.4831
G01 X35.5379 Y38.4645
G01 X35.5074 Y38.4541
G01 X35.4723 Y38.4429
G01 X35.4370 Y38.4327
G01 X35.4058 Y38.4245
G01 X35.3535 Y38.4118
G01 X35.3174 Y38.4041
G01 X35.2812 Y38.3974
G01 X35.2494 Y38.3923
G01 X35.1961 Y38.3848
G01 X35.1595 Y38.3807
G01 X35.1228 Y38.3776
G01 X35.0690 Y38.3745
G01 X35.0368 Y38.3733
G01 X35.0046 Y38.3729
G01 X-0.0046 Y38.3729
G01 X-0.0368 Y38.3733
G01 X-0.0690 Y38.3745
G01 X-0.1228 Y38.3776
G01 X-0.1595 Y38.3807
G01 X-0.1961 Y38.3848
G01 X-0.2494 Y38.3923
G01 X-0.2812 Y38.3974
G01 X-0.3174 Y38.4041
G01 X-0.3535 Y38.4118
G01 X-0.4058 Y38.4245
G01 X-0.4370 Y38.4327
G01 X-0.4723 Y38.4429
G01 X-0.5074 Y38.4541
G01 X-0.5379 Y38.4645
G01 X-0.5885 Y38.4831
G01 X-0.6227 Y38.4967
G01 X-0.6565 Y38.5112
G01 X-0.7054 Y38.5339
G01 X-0.7343 Y38.5481
G01 X-0.7670 Y38.5650
G01 X-0.7993 Y38.5828
G01 X-0.8457 Y38.6101
G01 X-0.8731 Y38.6270
G01 X-0.9040 Y38.6471
G01 X-0.9343 Y38.6679
G01 X-0.9779 Y38.6997
G01 X-1.0035 Y38.7192
G01 X-1.0322 Y38.7422
G01 X-1.0604 Y38.7659
G01 X-1.1006 Y38.8018
G01 X-1.1242 Y38.8237
G01 X-1.1505 Y38.8495
G01 X-1.1763 Y38.8758
G01 X-1.2127 Y38.9155
G01 X-1.2341 Y38.9396
G01 X-1.2578 Y38.9678
G01 X-1.2808 Y38.9965
G01 X-1.3132 Y39.0396
G01 X-1.3321 Y39.0657
G01 X-1.3529 Y39.0960
G01 X-1.3730 Y39.1269
G01 X-1.3899 Y39.1543
G01 X-1.4172 Y39.2007
G01 X-1.4350 Y39.2330
G01 X-1.4519 Y39.2657
G01 X-1.4753 Y39.3142
G01 X-1.4888 Y39.3435
G01 X-1.5033 Y39.3773
G01 X-1.5169 Y39.4115
G01 X-1.5282 Y39.4417
G01 X-1.5459 Y39.4926
G01 X-1.5571 Y39.5277
G01 X-1.5673 Y39.5630
G01 X-1.5755 Y39.5942
G01 X-1.5882 Y39.6465
G01 X-1.5959 Y39.6826
G01 X-1.6026 Y39.7188
G01 X-1.6109 Y39.7720
G01 X-1.6152 Y39.8039
G01 X-1.6193 Y39.8405
G01 X-1.6224 Y39.8772
G01 X-1.6255 Y39.9310
G01 X-1.6267 Y39.9632
G01 X-1.6271 Y39.9954
G01 X-1.6271 Y65.0046
G00 X-1.6271 Y65.0046
G01 F60.00
G01 Z-1.8000
G01 F200.00
G01 X-1.6267 Y65.0368
G01 X-1.6244 Y65.0907
G01 X-1.6224 Y65.1228
G01 X-1.6193 Y65.1595
G01 X-1.6152 Y65.1961
G01 X-1.6095 Y65.2372
G01 X-1.6026 Y65.2812
G01 X-1.5959 Y65.3174
G01 X-1.5882 Y65.3535
G01 X-1.5772 Y65.3989
G01 X-1.5673 Y65.4370
G01 X-1.5571 Y65.4723
G01 X-1.5459 Y65.5074
G01 X-1.5307 Y65.5511
G01 X-1.5169 Y65.5885
G01 X-1.5033 Y65.6227
G01 X-1.4888 Y65.6565
G01 X-1.4705 Y65.6960
G01 X-1.4519 Y65.7343
G01 X-1.4350 Y65.7670
G01 X-1.4172 Y65.7993
G01 X-1.3965 Y65.8347
G01 X-1.3730 Y65.8731
G01 X-1.3529 Y65.9040
G01 X-1.3321 Y65.9343
G01 X-1.3079 Y65.9675
G01 X-1.2808 Y66.0035
G01 X-1.2578 Y66.0322
G01 X-1.2341 Y66.0604
G01 X-1.2059 Y66.0921
G01 X-1.1763 Y66.1242
G01 X-1.1505 Y66.1505
G01 X-1.1242 Y66.1763
G01 X-1.0922 Y66.2058
G01 X-1.0604 Y66.2341
G01 X-1.0322 Y66.2578
G01 X-1.0035 Y66.2808
G01 X-0.9680 Y66.3076
G01 X-0.9343 Y66.3321
G01 X-0.9040 Y66.3529
G01 X-0.8731 Y66.3730
G01 X-0.8366 Y66.3953
G01 X-0.7993 Y66.4172
G01 X-0.7670 Y66.4350
G01 X-0.7343 Y66.4519
G01 X-0.6970 Y66.4700
G01 X-0.6565 Y66.4888
G01 X-0.6227 Y66.5033
G01 X-0.5885 Y66.5169
G01 X-0.5491 Y66.5314
G01 X-0.5074 Y66.5459
G01 X-0.4723 Y66.5571
G01 X-0.4370 Y66.5673
G01 X-0.3958 Y66.5780
G01 X-0.3535 Y66.5882
G01 X-0.3174 Y66.5959
G01 X-0.2812 Y66.6026
G01 X-0.2388 Y66.6093
G01 X-0.1961 Y66.6152
G01 X-0.1595 Y66.6193
G01 X-0.1228 Y66.6224
G01 X-0.0907 Y66.6244
G01 X-0.0368 Y66.6267
G01 X-0.0046 Y66.6271
G01 X35.0046 Y66.6271
G01 X35.0368 Y66.6267
G01 X35.0690 Y66.6255
G01 X35.1228 Y66.6224
G01 X35.1595 Y66.6193
G01 X35.1961 Y66.6152
G01 X35.2494 Y66.6077
G01 X35.2812 Y66.6026
G01 X35.3174 Y66.5959
G01 X35.3535 Y66.5882
G01 X35.4058 Y66.5755
G01 X35.4370 Y66.5673
G01 X35.4723 Y66.5571
G01 X35.5074 Y66.5459
G01 X35.5379 Y66.5355
G01 X35.5885 Y66.5169
G01 X35.6227 Y66.5033
G01 X35.6565 Y66.4888
G01 X35.7054 Y66.4661
G01 X35.7343 Y66.4519
G01 X35.7670 Y66.4350
G01 X35.7993 Y66.4172
G01 X35.8457 Y66.3899
G01 X35.8731 Y66.3730
G01 X35.9040 Y66.3529
G01 X35.9343 Y66.3321
G01 X35.9779 Y66.3003
G01 X36.0035 Y66.2808
G01 X36.0322 Y66.2578
G01 X36.0604 Y66.2341
G01 X36.0845 Y66.2127
G01 X36.1242 Y66.1763
G01 X36.1505 Y66.1505
G01 X36.1763 Y66.1242
G01 X36.1982 Y66.1006
G01 X36.2341 Y66.0604
G01 X36.2578 Y66.0322
G01 X36.2808 Y66.0035
G01 X36.3003 Y65.9779
G01 X36.3321 Y65.9343
G01 X36.3529 Y65.9040
G01 X36.3730 Y65.8731
G01 X36.3899 Y65.8457
G01 X36.4172 Y65.7993
G01 X36.4350 Y65.7670
G01 X36.4519 Y65.7343
G01 X36.4753 Y65.6858
G01 X36.4888 Y65.6565
G01 X36.5033 Y65.6227
G01 X36.5169 Y65.5885
G01 X36.5282 Y65.5583
G01 X36.5459 Y65.5074
G01 X36.5571 Y65.4723
G01 X36.5673 Y65.4370
G01 X36.5755 Y65.4058
G01 X36.5882 Y65.3535
G01 X36.5959 Y65.3174
G01 X36.6026 Y65.2812
G01 X36.6109 Y65.2280
G01 X36.6152 Y65.1961
G01 X36.6193 Y65.1595
G01 X36.6224 Y65.1228
G01 X36.6255 Y65.0690
G01 X36.6267 Y65.0368
G01 X36.6271 Y65.0046
G01 X36.6271 Y39.9954
G01 X36.6267 Y39.9632
G01 X36.6255 Y39.9310
G01 X36.6224 Y39.8772
G01 X36.6193 Y39.8405
G01 X36.6152 Y39.8039
G01 X36.6077 Y39.7506
G01 X36.6026 Y39.7188
G01 X36.5959 Y39.6826
G01 X36.5882 Y39.6465
G01 X36.5755 Y39.5942
G01 X36.5673 Y39.5630
G01 X36.5571 Y39.5277
G01 X36.5459 Y39.4926
G01 X36.5355 Y39.4621
G01 X36.5169 Y39.4115
G01 X36.5033 Y39.3773
G01 X36.4888 Y39.3435
G01 X36.4661 Y39.2946
G01 X36.4519 Y39.2657
G01 X36.4350 Y39.2330
G01 X36.4172 Y39.2007
G01 X36.3899 Y39.1543
G01 X36.3730 Y39.1269
G01 X36.3529 Y39.0960
G01 X36.3321 Y39.0657
G01 X36.3003 Y39.0221
G01 X36.2808 Y38.9965
G01 X36.2578 Y38.9678
G01 X36.2341 Y38.9396
G01 X36.1982 Y38.8994
G01 X36.1763 Y38.8758
G01 X36.1505 Y38.8495
G01 X36.1242 Y38.8237
G01 X36.0845 Y38.7873
G01 X36.0604 Y38.7659
G01 X36.0322 Y38.7422
G01 X36.0035 Y38.7192
G01 X35.9779 Y38.6997
G01 X35.9343 Y38.6679
G01 X35.9040 Y38.6471
G01 X35.8731 Y38.6270
G01 X35.8457 Y38.6101
G01 X35.7993 Y38.5828
G01 X35.7670 Y38.5650
G01 X35.7343 Y38.5481
G01 X35.6858 Y38.5247
G01 X35.6565 Y38.5112
G01 X35.6227 Y38.4967
G01 X35.5885 Y38.4831
G01 X35.5379 Y38.4645
G01 X35.5074 Y38.4541
G01 X35.4723 Y38.4429
G01 X35.4370 Y38.4327
G01 X35.4058 Y38.4245
G01 X35.3535 Y38.4118
G01 X35.3174 Y38.4041
G01 X35.2812 Y38.3974
G01 X35.2494 Y38.3923
G01 X35.1961 Y38.3848
G01 X35.1595 Y38.3807
G01 X35.1228 Y38.3776
G01 X35.0690 Y38.3745
G01 X35.0368 Y38.3733
G01 X35.0046 Y38.3729
G01 X-0.0046 Y38.3729
G01 X-0.0368 Y38.3733
G01 X-0.0690 Y38.3745
G01 X-0.1228 Y38.3776
G01 X-0.1595 Y38.3807
G01 X-0.1961 Y38.3848
G01 X-0.2494 Y38.3923
G01 X-0.2812 Y38.3974
G01 X-0.3174 Y38.4041
G01 X-0.3535 Y38.4118
G01 X-0.4058 Y38.4245
G01 X-0.4370 Y38.4327
G01 X-0.4723 Y38.4429
G01 X-0.5074 Y38.4541
G01 X-0.5379 Y38.4645
G01 X-0.5885 Y38.4831
G01 X-0.6227 Y38.4967
G01 X-0.6565 Y38.5112
G01 X-0.7054 Y38.5339
G01 X-0.7343 Y38.5481
G01 X-0.7670 Y38.5650
G01 X-0.7993 Y38.5828
G01 X-0.8457 Y38.6101
G01 X-0.8731 Y38.6270
G01 X-0.9040 Y38.6471
G01 X-0.9343 Y38.6679
G01 X-0.9779 Y38.6997
G01 X-1.0035 Y38.7192
G01 X-1.0322 Y38.7422
G01 X-1.0604 Y38.7659
G01 X-1.1006 Y38.8018
G01 X-1.1242 Y38.8237
G01 X-1.1505 Y38.8495
G01 X-1.1763 Y38.8758
G01 X-1.2127 Y38.9155
G01 X-1.2341 Y38.9396
G01 X-1.2578 Y38.9678
G01 X-1.2808 Y38.9965
G01 X-1.3132 Y39.0396
G01 X-1.3321 Y39.0657
G01 X-1.3529 Y39.0960
G01 X-1.3730 Y39.1269
G01 X-1.3899 Y39.1543
G01 X-1.4172 Y39.2007
G01 X-1.4350 Y39.2330
G01 X-1.4519 Y39.2657
G01 X-1.4753 Y39.3142
G01 X-1.4888 Y39.3435
G01 X-1.5033 Y39.3773
G01 X-1.5169 Y39.4115
G01 X-1.5282 Y39.4417
G01 X-1.5459 Y39.4926
G01 X-1.5571 Y39.5277
G01 X-1.5673 Y39.5630
G01 X-1.5755 Y39.5942
G01 X-1.5882 Y39.6465
G01 X-1.5959 Y39.6826
G01 X-1.6026 Y39.7188
G01 X-1.6109 Y39.7720
G01 X-1.6152 Y39.8039
G01 X-1.6193 Y39.8405
G01 X-1.6224 Y39.8772
G01 X-1.6255 Y39.9310
G01 X-1.6267 Y39.9632
G01 X-1.6271 Y39.9954
G01 X-1.6271 Y65.0046
G00 Z2.0000
M05
G00 Z2.0000
G00 Z5.00
G00 X0.0 Y0.0


