(G-CODE GENERATED BY FLATCAM v8.994 - www.flatcam.org - Version Date: 2020/11/7)

(Name: Combo_Gerber_1_iso_combined_cnc)
(Type: G-code from Geometry)
(Units: MM)

(Created on Friday, 18 February 2022 at 11:49)

(This preprocessor is the default preprocessor used by FlatCAM.)
(It is made to work with MACH3 compatible motion controllers.)

(TOOL DIAMETER: 0.1 mm)
(Feedrate_XY: 200.0 mm/min)
(Feedrate_Z: 60.0 mm/min)
(Feedrate rapids 1500.0 mm/min)

(Z_Cut: -0.0 mm)
(Z_Move: 2.0 mm)
(Z Start: None mm)
(Z End: 5.0 mm)
(X,Y End: 0.0000, 0.0000 mm)
(Steps per circle: 64)
(Preprocessor Geometry: default)

(X range:    0.2972 ...   53.7285  mm)
(Y range:    0.2972 ...   63.7285  mm)

(Spindle Speed: 12000.0 RPM)
G21
G90
G94

G01 F200.00

M5
G00 Z5.0000
G00 X0.0000 Y0.0000
T1
M6    
(MSG, Change to Tool Dia = 0.1000)
M0
G00 Z5.0000

M03 S12000.0
G01 F200.00
G00 X6.0384 Y3.9470
G01 F60.00
G01 Z-0.0000
G01 F200.00
G01 X6.0384 Y5.3470
G01 X6.0344 Y5.4291
G01 X6.0221 Y5.5129
G01 X6.0010 Y5.5962
G01 X5.9737 Y5.6724
G01 X5.9391 Y5.7457
G01 X5.8958 Y5.8184
G01 X5.8454 Y5.8865
G01 X5.7893 Y5.9483
G01 X5.7275 Y6.0044
G01 X5.6605 Y6.0541
G01 X5.5889 Y6.0970
G01 X5.5134 Y6.1327
G01 X5.4349 Y6.1608
G01 X5.3539 Y6.1811
G01 X5.2714 Y6.1933
G01 X5.1880 Y6.1974
G01 X5.1046 Y6.1933
G01 X5.0221 Y6.1811
G01 X4.9411 Y6.1608
G01 X4.8626 Y6.1327
G01 X4.7871 Y6.0970
G01 X4.7166 Y6.0548
G01 X4.6485 Y6.0044
G01 X4.5867 Y5.9483
G01 X4.5306 Y5.8865
G01 X4.4796 Y5.8174
G01 X4.4380 Y5.7479
G01 X4.4033 Y5.6747
G01 X4.3750 Y5.5962
G01 X4.3539 Y5.5129
G01 X4.3417 Y5.4304
G01 X4.3376 Y5.3470
G01 X4.3376 Y3.9470
G01 X4.3416 Y3.8649
G01 X4.3539 Y3.7811
G01 X4.3750 Y3.6978
G01 X4.4023 Y3.6216
G01 X4.4369 Y3.5483
G01 X4.4802 Y3.4756
G01 X4.5322 Y3.4057
G01 X4.5867 Y3.3457
G01 X4.6485 Y3.2896
G01 X4.7155 Y3.2399
G01 X4.7850 Y3.1982
G01 X4.8649 Y3.1605
G01 X4.9411 Y3.1332
G01 X5.0221 Y3.1130
G01 X5.1046 Y3.1007
G01 X5.1855 Y3.0967
G01 X5.2738 Y3.1010
G01 X5.3539 Y3.1130
G01 X5.4349 Y3.1332
G01 X5.5134 Y3.1613
G01 X5.5867 Y3.1959
G01 X5.6625 Y3.2413
G01 X5.7275 Y3.2896
G01 X5.7893 Y3.3457
G01 X5.8454 Y3.4075
G01 X5.8937 Y3.4725
G01 X5.9391 Y3.5483
G01 X5.9737 Y3.6216
G01 X6.0018 Y3.7002
G01 X6.0221 Y3.7811
G01 X6.0340 Y3.8612
G01 X6.0384 Y3.9470
G00 Z2.0000
G00 X6.1284 Y3.9470
G01 F60.00
G01 Z-0.0000
G01 F200.00
G01 X6.1284 Y5.3470
G01 X6.1242 Y5.4358
G01 X6.1230 Y5.4460
G01 X6.1103 Y5.5305
G01 X6.0897 Y5.6134
G01 X6.0858 Y5.6265
G01 X6.0568 Y5.7069
G01 X6.0204 Y5.7842
G01 X6.0140 Y5.7963
G01 X5.9699 Y5.8695
G01 X5.9149 Y5.9436
G01 X5.8530 Y6.0120
G01 X5.7846 Y6.0739
G01 X5.7105 Y6.1289
G01 X5.6313 Y6.1764
G01 X5.5479 Y6.2158
G01 X5.4610 Y6.2469
G01 X5.3715 Y6.2693
G01 X5.2802 Y6.2829
G01 X5.1880 Y6.2874
G01 X5.0958 Y6.2829
G01 X5.0045 Y6.2693
G01 X4.9150 Y6.2469
G01 X4.8281 Y6.2158
G01 X4.7447 Y6.1764
G01 X4.6655 Y6.1289
G01 X4.5914 Y6.0739
G01 X4.5230 Y6.0120
G01 X4.4611 Y5.9436
G01 X4.4100 Y5.8751
G01 X4.4024 Y5.8637
G01 X4.3586 Y5.7903
G01 X4.3220 Y5.7132
G01 X4.3167 Y5.7005
G01 X4.2902 Y5.6265
G01 X4.2863 Y5.6134
G01 X4.2657 Y5.5305
G01 X4.2521 Y5.4392
G01 X4.2476 Y5.3470
G01 X4.2476 Y3.9470
G01 X4.2518 Y3.8583
G01 X4.2530 Y3.8480
G01 X4.2657 Y3.7635
G01 X4.2863 Y3.6806
G01 X4.2902 Y3.6675
G01 X4.3192 Y3.5871
G01 X4.3556 Y3.5098
G01 X4.3620 Y3.4977
G01 X4.4061 Y3.4246
G01 X4.4568 Y3.3558
G01 X4.4655 Y3.3452
G01 X4.5230 Y3.2820
G01 X4.5914 Y3.2201
G01 X4.6655 Y3.1651
G01 X4.7387 Y3.1210
G01 X4.7508 Y3.1146
G01 X4.8218 Y3.0810
G01 X4.8345 Y3.0757
G01 X4.9150 Y3.0471
G01 X5.0045 Y3.0247
G01 X5.0958 Y3.0111
G01 X5.1811 Y3.0068
G01 X5.1949 Y3.0068
G01 X5.2733 Y3.0106
G01 X5.2870 Y3.0120
G01 X5.3715 Y3.0247
G01 X5.4610 Y3.0471
G01 X5.5479 Y3.0782
G01 X5.6252 Y3.1146
G01 X5.6373 Y3.1210
G01 X5.7047 Y3.1614
G01 X5.7161 Y3.1691
G01 X5.7846 Y3.2201
G01 X5.8530 Y3.2820
G01 X5.9149 Y3.3504
G01 X5.9660 Y3.4189
G01 X5.9736 Y3.4304
G01 X6.0140 Y3.4977
G01 X6.0204 Y3.5098
G01 X6.0568 Y3.5871
G01 X6.0879 Y3.6740
G01 X6.1103 Y3.7635
G01 X6.1230 Y3.8480
G01 X6.1244 Y3.8617
G01 X6.1284 Y3.9470
G00 Z2.0000
G00 X6.2184 Y3.9470
G01 F60.00
G01 Z-0.0000
G01 F200.00
G01 X6.2184 Y5.3470
G01 X6.2181 Y5.3583
G01 X6.2134 Y5.4480
G01 X6.2005 Y5.5369
G01 X6.1986 Y5.5480
G01 X6.1961 Y5.5590
G01 X6.1740 Y5.6461
G01 X6.1440 Y5.7308
G01 X6.1400 Y5.7413
G01 X6.1354 Y5.7516
G01 X6.0967 Y5.8327
G01 X6.0508 Y5.9099
G01 X6.0416 Y5.9241
G01 X5.9915 Y5.9918
G01 X5.9845 Y6.0007
G01 X5.9771 Y6.0092
G01 X5.9166 Y6.0756
G01 X5.8502 Y6.1361
G01 X5.8417 Y6.1435
G01 X5.8328 Y6.1505
G01 X5.7605 Y6.2037
G01 X5.6835 Y6.2502
G01 X5.6737 Y6.2557
G01 X5.5926 Y6.2944
G01 X5.5823 Y6.2990
G01 X5.5718 Y6.3030
G01 X5.4871 Y6.3330
G01 X5.4000 Y6.3551
G01 X5.3890 Y6.3576
G01 X5.3779 Y6.3595
G01 X5.2890 Y6.3724
G01 X5.1993 Y6.3771
G01 X5.1880 Y6.3774
G01 X5.1767 Y6.3771
G01 X5.0870 Y6.3724
G01 X4.9981 Y6.3595
G01 X4.9870 Y6.3576
G01 X4.9760 Y6.3551
G01 X4.8889 Y6.3330
G01 X4.8042 Y6.3030
G01 X4.7937 Y6.2990
G01 X4.7834 Y6.2944
G01 X4.7023 Y6.2557
G01 X4.6251 Y6.2098
G01 X4.6109 Y6.2006
G01 X4.5432 Y6.1505
G01 X4.5343 Y6.1435
G01 X4.4676 Y6.0834
G01 X4.4594 Y6.0756
G01 X4.4516 Y6.0674
G01 X4.3989 Y6.0092
G01 X4.3915 Y6.0007
G01 X4.3845 Y5.9918
G01 X4.3313 Y5.9195
G01 X4.2848 Y5.8425
G01 X4.2793 Y5.8327
G01 X4.2742 Y5.8226
G01 X4.2360 Y5.7413
G01 X4.2320 Y5.7308
G01 X4.2020 Y5.6461
G01 X4.1799 Y5.5590
G01 X4.1774 Y5.5480
G01 X4.1755 Y5.5369
G01 X4.1626 Y5.4480
G01 X4.1579 Y5.3583
G01 X4.1576 Y5.3470
G01 X4.1576 Y3.9470
G01 X4.1579 Y3.9357
G01 X4.1621 Y3.8516
G01 X4.1639 Y3.8348
G01 X4.1755 Y3.7571
G01 X4.1774 Y3.7460
G01 X4.1799 Y3.7350
G01 X4.2020 Y3.6479
G01 X4.2320 Y3.5632
G01 X4.2360 Y3.5527
G01 X4.2406 Y3.5424
G01 X4.2793 Y3.4613
G01 X4.3252 Y3.3841
G01 X4.3344 Y3.3699
G01 X4.3845 Y3.3022
G01 X4.3915 Y3.2933
G01 X4.4516 Y3.2266
G01 X4.4594 Y3.2184
G01 X4.4676 Y3.2106
G01 X4.5258 Y3.1579
G01 X4.5343 Y3.1505
G01 X4.5432 Y3.1436
G01 X4.6155 Y3.0903
G01 X4.6251 Y3.0842
G01 X4.7023 Y3.0383
G01 X4.7834 Y2.9996
G01 X4.7937 Y2.9950
G01 X4.8782 Y2.9645
G01 X4.8889 Y2.9610
G01 X4.8998 Y2.9580
G01 X4.9760 Y2.9389
G01 X4.9870 Y2.9364
G01 X4.9981 Y2.9345
G01 X5.0870 Y2.9216
G01 X5.1767 Y2.9169
G01 X5.1880 Y2.9166
G01 X5.2777 Y2.9207
G01 X5.2890 Y2.9216
G01 X5.3002 Y2.9230
G01 X5.3890 Y2.9364
G01 X5.4762 Y2.9580
G01 X5.4871 Y2.9610
G01 X5.5718 Y2.9910
G01 X5.5823 Y2.9950
G01 X5.6636 Y3.0332
G01 X5.6737 Y3.0383
G01 X5.6835 Y3.0438
G01 X5.7509 Y3.0842
G01 X5.7605 Y3.0903
G01 X5.7697 Y3.0968
G01 X5.8417 Y3.1505
G01 X5.8502 Y3.1579
G01 X5.9166 Y3.2184
G01 X5.9771 Y3.2848
G01 X5.9845 Y3.2933
G01 X6.0382 Y3.3653
G01 X6.0447 Y3.3746
G01 X6.0508 Y3.3841
G01 X6.0912 Y3.4515
G01 X6.0967 Y3.4613
G01 X6.1018 Y3.4714
G01 X6.1400 Y3.5527
G01 X6.1440 Y3.5632
G01 X6.1740 Y3.6479
G01 X6.1961 Y3.7350
G01 X6.1986 Y3.7460
G01 X6.2121 Y3.8348
G01 X6.2134 Y3.8460
G01 X6.2143 Y3.8573
G01 X6.2184 Y3.9470
G00 Z2.0000
G00 X7.1479 Y6.1160
G01 F60.00
G01 Z-0.0000
G01 F200.00
G01 X7.0915 Y6.0739
G01 X7.0232 Y6.0120
G01 X6.9612 Y5.9436
G01 X6.9102 Y5.8751
G01 X6.9043 Y5.8666
G01 X6.8588 Y5.7903
G01 X6.8193 Y5.7069
G01 X6.7882 Y5.6200
G01 X6.7673 Y5.5372
G01 X6.7652 Y5.5271
G01 X6.7523 Y5.4392
G01 X6.7477 Y5.3470
G01 X6.7477 Y3.9470
G01 X6.7523 Y3.8548
G01 X6.7646 Y3.7703
G01 X6.7665 Y3.7602
G01 X6.7882 Y3.6740
G01 X6.8193 Y3.5871
G01 X6.8588 Y3.5037
G01 X6.9062 Y3.4246
G01 X6.9612 Y3.3504
G01 X7.0232 Y3.2820
G01 X7.0915 Y3.2201
G01 X7.1657 Y3.1651
G01 X7.2448 Y3.1177
G01 X7.3283 Y3.0782
G01 X7.4151 Y3.0471
G01 X7.5047 Y3.0247
G01 X7.5960 Y3.0111
G01 X7.6881 Y3.0066
G01 X7.7803 Y3.0111
G01 X7.8648 Y3.0235
G01 X7.8750 Y3.0254
G01 X7.9611 Y3.0471
G01 X8.0480 Y3.0782
G01 X8.1314 Y3.1177
G01 X8.2048 Y3.1614
G01 X8.2162 Y3.1691
G01 X8.2793 Y3.2158
G01 X8.2899 Y3.2246
G01 X8.3531 Y3.2820
G01 X8.4151 Y3.3504
G01 X8.4700 Y3.4246
G01 X8.5141 Y3.4977
G01 X8.5206 Y3.5098
G01 X8.5542 Y3.5809
G01 X8.5594 Y3.5935
G01 X8.5880 Y3.6740
G01 X8.6105 Y3.7635
G01 X8.6240 Y3.8548
G01 X8.6284 Y3.9401
G01 X8.6285 Y5.3470
G01 X8.6240 Y5.4392
G01 X8.6111 Y5.5271
G01 X8.6090 Y5.5372
G01 X8.5880 Y5.6200
G01 X8.5569 Y5.7069
G01 X8.5175 Y5.7903
G01 X8.4719 Y5.8666
G01 X8.4661 Y5.8751
G01 X8.4151 Y5.9436
G01 X8.3531 Y6.0120
G01 X8.2847 Y6.0739
G01 X8.2283 Y6.1160
G01 X8.2283 Y10.6381
G01 X8.2257 Y10.6910
G01 X8.2191 Y10.7367
G01 X8.2164 Y10.7502
G01 X8.2069 Y10.7883
G01 X8.2040 Y10.7982
G01 X8.1897 Y10.8384
G01 X8.1844 Y10.8511
G01 X8.1645 Y10.8927
G01 X8.1410 Y10.9324
G01 X8.1333 Y10.9438
G01 X8.1057 Y10.9808
G01 X8.0701 Y11.0201
G01 X3.6855 Y15.4046
G01 X3.6855 Y31.3724
G01 X4.4054 Y32.0923
G01 X7.9134 Y32.0923
G01 X8.9912 Y31.0145
G01 X8.9850 Y30.9730
G01 X8.9839 Y30.9628
G01 X8.9796 Y30.8740
G01 X8.9797 Y29.4706
G01 X8.9842 Y29.3818
G01 X8.9965 Y29.2973
G01 X8.9992 Y29.2838
G01 X9.0183 Y29.2076
G01 X9.0212 Y29.1978
G01 X9.0512 Y29.1141
G01 X9.0876 Y29.0368
G01 X9.0941 Y29.0247
G01 X9.1381 Y28.9516
G01 X9.1931 Y28.8774
G01 X9.2503 Y28.8140
G01 X9.2600 Y28.8043
G01 X9.3234 Y28.7471
G01 X9.3920 Y28.6961
G01 X9.4034 Y28.6884
G01 X9.4767 Y28.6447
G01 X9.5602 Y28.6052
G01 X9.6470 Y28.5741
G01 X9.7299 Y28.5532
G01 X9.7433 Y28.5505
G01 X9.8210 Y28.5390
G01 X9.8347 Y28.5376
G01 X9.9200 Y28.5336
G01 X10.0054 Y28.5376
G01 X10.0190 Y28.5390
G01 X10.0967 Y28.5505
G01 X10.1102 Y28.5532
G01 X10.1930 Y28.5741
G01 X10.2799 Y28.6052
G01 X10.3633 Y28.6447
G01 X10.4367 Y28.6884
G01 X10.4481 Y28.6961
G01 X10.5112 Y28.7428
G01 X10.5218 Y28.7516
G01 X10.5850 Y28.8090
G01 X10.6470 Y28.8774
G01 X10.6980 Y28.9459
G01 X10.7056 Y28.9574
G01 X10.7494 Y29.0307
G01 X10.7888 Y29.1141
G01 X10.8199 Y29.2010
G01 X10.8424 Y29.2905
G01 X10.8559 Y29.3818
G01 X10.8604 Y29.4706
G01 X10.8604 Y30.8740
G01 X10.8564 Y30.9593
G01 X10.8555 Y30.9696
G01 X10.8424 Y31.0575
G01 X10.8199 Y31.1470
G01 X10.7888 Y31.2339
G01 X10.7494 Y31.3173
G01 X10.7019 Y31.3965
G01 X10.6470 Y31.4706
G01 X10.5850 Y31.5390
G01 X10.5192 Y31.5987
G01 X10.5112 Y31.6052
G01 X10.4425 Y31.6559
G01 X10.3633 Y31.7034
G01 X10.2799 Y31.7428
G01 X10.1995 Y31.7718
G01 X10.1864 Y31.7757
G01 X10.1035 Y31.7963
G01 X10.0190 Y31.8090
G01 X10.0054 Y31.8104
G01 X9.9269 Y31.8142
G01 X9.9132 Y31.8142
G01 X9.8279 Y31.8099
G01 X9.7372 Y31.7964
G01 X8.5167 Y33.0168
G01 X8.4799 Y33.0501
G01 X8.4429 Y33.0777
G01 X8.4315 Y33.0853
G01 X8.3918 Y33.1089
G01 X8.3502 Y33.1288
G01 X8.3375 Y33.1340
G01 X8.2973 Y33.1484
G01 X8.2874 Y33.1512
G01 X8.2493 Y33.1608
G01 X8.2358 Y33.1635
G01 X8.1901 Y33.1701
G01 X8.1372 Y33.1727
G01 X4.1817 Y33.1727
G01 X4.1356 Y33.1706
G01 X4.1253 Y33.1697
G01 X4.0763 Y33.1623
G01 X4.0315 Y33.1512
G01 X4.0183 Y33.1473
G01 X3.9749 Y33.1315
G01 X3.9270 Y33.1089
G01 X3.8873 Y33.0853
G01 X3.8759 Y33.0777
G01 X3.8444 Y33.0543
G01 X3.8363 Y33.0478
G01 X3.7997 Y33.0144
G01 X2.7634 Y31.9781
G01 X2.7278 Y31.9388
G01 X2.6962 Y31.8963
G01 X2.6689 Y31.8508
G01 X2.6490 Y31.8092
G01 X2.6450 Y31.7997
G01 X2.6306 Y31.7595
G01 X2.6266 Y31.7463
G01 X2.6155 Y31.7015
G01 X2.6086 Y31.6559
G01 X2.6074 Y31.6457
G01 X2.6051 Y31.5961
G01 X2.6051 Y15.1809
G01 X2.6072 Y15.1348
G01 X2.6081 Y15.1245
G01 X2.6155 Y15.0755
G01 X2.6284 Y15.0241
G01 X2.6463 Y14.9742
G01 X2.6658 Y14.9324
G01 X2.6723 Y14.9203
G01 X2.6943 Y14.8837
G01 X2.7001 Y14.8752
G01 X2.7278 Y14.8382
G01 X2.7610 Y14.8014
G01 X7.1479 Y10.4143
G01 X7.1479 Y6.1160
G00 Z2.0000
G00 X7.0579 Y6.1613
G01 F60.00
G01 Z-0.0000
G01 F200.00
G01 X7.0389 Y6.1470
G01 X7.0301 Y6.1399
G01 X6.9636 Y6.0795
G01 X6.9517 Y6.0674
G01 X6.8953 Y6.0050
G01 X6.8847 Y5.9918
G01 X6.8314 Y5.9195
G01 X6.8253 Y5.9099
G01 X6.7821 Y5.8377
G01 X6.7743 Y5.8226
G01 X6.7362 Y5.7413
G01 X6.7321 Y5.7308
G01 X6.7021 Y5.6461
G01 X6.6800 Y5.5590
G01 X6.6775 Y5.5480
G01 X6.6641 Y5.4592
G01 X6.6627 Y5.4480
G01 X6.6619 Y5.4367
G01 X6.6577 Y5.3470
G01 X6.6578 Y3.9414
G01 X6.6619 Y3.8573
G01 X6.6627 Y3.8460
G01 X6.6641 Y3.8348
G01 X6.6775 Y3.7460
G01 X6.6800 Y3.7350
G01 X6.7005 Y3.6533
G01 X6.7056 Y3.6372
G01 X6.7362 Y3.5527
G01 X6.7407 Y3.5424
G01 X6.7794 Y3.4613
G01 X6.8253 Y3.3841
G01 X6.8314 Y3.3746
G01 X6.8847 Y3.3022
G01 X6.8916 Y3.2933
G01 X6.8990 Y3.2848
G01 X6.9595 Y3.2184
G01 X7.0259 Y3.1579
G01 X7.0345 Y3.1505
G01 X7.0434 Y3.1436
G01 X7.1157 Y3.0903
G01 X7.1252 Y3.0842
G01 X7.2024 Y3.0383
G01 X7.2835 Y2.9996
G01 X7.2938 Y2.9950
G01 X7.3043 Y2.9910
G01 X7.3890 Y2.9610
G01 X7.4761 Y2.9389
G01 X7.4871 Y2.9364
G01 X7.4982 Y2.9345
G01 X7.5871 Y2.9216
G01 X7.6768 Y2.9169
G01 X7.6881 Y2.9166
G01 X7.6994 Y2.9169
G01 X7.7891 Y2.9216
G01 X7.8780 Y2.9345
G01 X7.8892 Y2.9364
G01 X7.9002 Y2.9389
G01 X7.9818 Y2.9594
G01 X7.9980 Y2.9645
G01 X8.0719 Y2.9910
G01 X8.0824 Y2.9950
G01 X8.0928 Y2.9996
G01 X8.1739 Y3.0383
G01 X8.2511 Y3.0842
G01 X8.2606 Y3.0903
G01 X8.2698 Y3.0968
G01 X8.3418 Y3.1505
G01 X8.4086 Y3.2106
G01 X8.4167 Y3.2184
G01 X8.4245 Y3.2266
G01 X8.4773 Y3.2848
G01 X8.4846 Y3.2933
G01 X8.4916 Y3.3022
G01 X8.5449 Y3.3746
G01 X8.5913 Y3.4515
G01 X8.5969 Y3.4613
G01 X8.6355 Y3.5424
G01 X8.6401 Y3.5527
G01 X8.6706 Y3.6372
G01 X8.6742 Y3.6479
G01 X8.6772 Y3.6588
G01 X8.6963 Y3.7350
G01 X8.6987 Y3.7460
G01 X8.7007 Y3.7571
G01 X8.7136 Y3.8460
G01 X8.7183 Y3.9357
G01 X8.7185 Y3.9470
G01 X8.7185 Y5.3470
G01 X8.7183 Y5.3583
G01 X8.7136 Y5.4480
G01 X8.7122 Y5.4592
G01 X8.6998 Y5.5425
G01 X8.6963 Y5.5590
G01 X8.6742 Y5.6461
G01 X8.6442 Y5.7308
G01 X8.6401 Y5.7413
G01 X8.6355 Y5.7516
G01 X8.5969 Y5.8327
G01 X8.5913 Y5.8425
G01 X8.5480 Y5.9147
G01 X8.5384 Y5.9287
G01 X8.4846 Y6.0007
G01 X8.4773 Y6.0092
G01 X8.4207 Y6.0716
G01 X8.4086 Y6.0834
G01 X8.3461 Y6.1399
G01 X8.3374 Y6.1470
G01 X8.3183 Y6.1613
G01 X8.3183 Y10.6381
G01 X8.3181 Y10.6494
G01 X8.3153 Y10.6999
G01 X8.3082 Y10.7499
G01 X8.3062 Y10.7610
G01 X8.3037 Y10.7721
G01 X8.2942 Y10.8102
G01 X8.2895 Y10.8264
G01 X8.2725 Y10.8740
G01 X8.2658 Y10.8896
G01 X8.2439 Y10.9352
G01 X8.2182 Y10.9787
G01 X8.2121 Y10.9882
G01 X8.2056 Y10.9975
G01 X8.1753 Y11.0379
G01 X8.1679 Y11.0464
G01 X8.1337 Y11.0837
G01 X3.7755 Y15.4419
G01 X3.7755 Y31.3351
G01 X4.4427 Y32.0023
G01 X7.8762 Y32.0023
G01 X8.8955 Y30.9829
G01 X8.8938 Y30.9637
G01 X8.8896 Y30.8740
G01 X8.8896 Y29.4740
G01 X8.8938 Y29.3843
G01 X8.8946 Y29.3730
G01 X8.8960 Y29.3618
G01 X8.9094 Y29.2730
G01 X8.9119 Y29.2620
G01 X8.9340 Y29.1749
G01 X8.9375 Y29.1642
G01 X8.9681 Y29.0797
G01 X9.0062 Y28.9984
G01 X9.0113 Y28.9883
G01 X9.0572 Y28.9111
G01 X9.0633 Y28.9016
G01 X9.0698 Y28.8923
G01 X9.1235 Y28.8203
G01 X9.1836 Y28.7536
G01 X9.1914 Y28.7454
G01 X9.1996 Y28.7376
G01 X9.2664 Y28.6775
G01 X9.3383 Y28.6238
G01 X9.3476 Y28.6173
G01 X9.4245 Y28.5708
G01 X9.4343 Y28.5653
G01 X9.4444 Y28.5602
G01 X9.5257 Y28.5220
G01 X9.6102 Y28.4915
G01 X9.6209 Y28.4880
G01 X9.6318 Y28.4850
G01 X9.7190 Y28.4634
G01 X9.8078 Y28.4500
G01 X9.8190 Y28.4486
G01 X9.8303 Y28.4477
G01 X9.9200 Y28.4436
G01 X10.0098 Y28.4477
G01 X10.0210 Y28.4486
G01 X10.0322 Y28.4500
G01 X10.1099 Y28.4615
G01 X10.1211 Y28.4634
G01 X10.1321 Y28.4659
G01 X10.2191 Y28.4880
G01 X10.3038 Y28.5180
G01 X10.3143 Y28.5220
G01 X10.3247 Y28.5266
G01 X10.4058 Y28.5653
G01 X10.4830 Y28.6112
G01 X10.4925 Y28.6173
G01 X10.5017 Y28.6238
G01 X10.5648 Y28.6706
G01 X10.5737 Y28.6775
G01 X10.5823 Y28.6849
G01 X10.6486 Y28.7454
G01 X10.6564 Y28.7536
G01 X10.7165 Y28.8203
G01 X10.7703 Y28.8923
G01 X10.7768 Y28.9016
G01 X10.7828 Y28.9111
G01 X10.8288 Y28.9883
G01 X10.8338 Y28.9984
G01 X10.8698 Y29.0745
G01 X10.8761 Y29.0902
G01 X10.9061 Y29.1749
G01 X10.9282 Y29.2620
G01 X10.9306 Y29.2730
G01 X10.9326 Y29.2841
G01 X10.9455 Y29.3730
G01 X10.9502 Y29.4627
G01 X10.9504 Y29.4740
G01 X10.9504 Y30.8740
G01 X10.9502 Y30.8853
G01 X10.9455 Y30.9750
G01 X10.9326 Y31.0639
G01 X10.9306 Y31.0750
G01 X10.9091 Y31.1622
G01 X10.9061 Y31.1731
G01 X10.8761 Y31.2578
G01 X10.8720 Y31.2683
G01 X10.8674 Y31.2786
G01 X10.8288 Y31.3597
G01 X10.8232 Y31.3695
G01 X10.7768 Y31.4465
G01 X10.7235 Y31.5188
G01 X10.7165 Y31.5277
G01 X10.7092 Y31.5362
G01 X10.6486 Y31.6026
G01 X10.6405 Y31.6104
G01 X10.5780 Y31.6669
G01 X10.5648 Y31.6775
G01 X10.4925 Y31.7307
G01 X10.4830 Y31.7368
G01 X10.4058 Y31.7827
G01 X10.3957 Y31.7878
G01 X10.3143 Y31.8260
G01 X10.2299 Y31.8565
G01 X10.2137 Y31.8616
G01 X10.1321 Y31.8821
G01 X10.1211 Y31.8846
G01 X10.0322 Y31.8981
G01 X10.0154 Y31.8999
G01 X9.9313 Y31.9041
G01 X9.9144 Y31.9043
G01 X9.8247 Y31.8999
G01 X9.8078 Y31.8981
G01 X9.7687 Y31.8922
G01 X8.5788 Y33.0820
G01 X8.5455 Y33.1122
G01 X8.5326 Y33.1231
G01 X8.4920 Y33.1533
G01 X8.4778 Y33.1625
G01 X8.4343 Y33.1883
G01 X8.3887 Y33.2101
G01 X8.3731 Y33.2168
G01 X8.3255 Y33.2338
G01 X8.3093 Y33.2385
G01 X8.2712 Y33.2481
G01 X8.2601 Y33.2506
G01 X8.2490 Y33.2525
G01 X8.1990 Y33.2596
G01 X8.1485 Y33.2624
G01 X8.1372 Y33.2627
G01 X4.1817 Y33.2627
G01 X4.1704 Y33.2624
G01 X4.1199 Y33.2596
G01 X4.1087 Y33.2583
G01 X4.0587 Y33.2506
G01 X4.0096 Y33.2385
G01 X3.9987 Y33.2355
G01 X3.9880 Y33.2320
G01 X3.9405 Y33.2147
G01 X3.8947 Y33.1933
G01 X3.8846 Y33.1883
G01 X3.8411 Y33.1625
G01 X3.8315 Y33.1565
G01 X3.8223 Y33.1500
G01 X3.7908 Y33.1266
G01 X3.7775 Y33.1160
G01 X3.7360 Y33.0781
G01 X2.6997 Y32.0418
G01 X2.6919 Y32.0336
G01 X2.6582 Y31.9959
G01 X2.6278 Y31.9555
G01 X2.6183 Y31.9415
G01 X2.5951 Y31.9030
G01 X2.5896 Y31.8932
G01 X2.5845 Y31.8831
G01 X2.5631 Y31.8373
G01 X2.5458 Y31.7898
G01 X2.5423 Y31.7791
G01 X2.5297 Y31.7301
G01 X2.5272 Y31.7191
G01 X2.5253 Y31.7080
G01 X2.5182 Y31.6579
G01 X2.5154 Y31.6074
G01 X2.5151 Y31.5961
G01 X2.5151 Y15.1809
G01 X2.5154 Y15.1696
G01 X2.5182 Y15.1191
G01 X2.5196 Y15.1079
G01 X2.5272 Y15.0579
G01 X2.5393 Y15.0088
G01 X2.5440 Y14.9926
G01 X2.5590 Y14.9503
G01 X2.5631 Y14.9397
G01 X2.5677 Y14.9294
G01 X2.5896 Y14.8838
G01 X2.5951 Y14.8740
G01 X2.6213 Y14.8308
G01 X2.6278 Y14.8215
G01 X2.6582 Y14.7811
G01 X2.6958 Y14.7393
G01 X7.0579 Y10.3771
G01 X7.0579 Y6.1613
G00 Z2.0000
G00 X9.1641 Y3.8334
G01 F60.00
G01 Z-0.0000
G01 F200.00
G01 X8.1081 Y2.7773
G01 X4.8209 Y2.7773
G01 X2.4735 Y5.1247
G01 X2.4735 Y31.9658
G01 X3.9502 Y33.4425
G01 X8.9656 Y33.4424
G01 X11.3992 Y31.0088
G01 X11.3951 Y30.9806
G01 X11.3940 Y30.9694
G01 X11.3898 Y30.8853
G01 X11.3895 Y30.8740
G01 X11.3896 Y29.4684
G01 X11.3936 Y29.3843
G01 X11.3945 Y29.3730
G01 X11.4074 Y29.2841
G01 X11.4093 Y29.2730
G01 X11.4118 Y29.2620
G01 X11.4339 Y29.1749
G01 X11.4639 Y29.0902
G01 X11.4679 Y29.0797
G01 X11.4725 Y29.0694
G01 X11.5112 Y28.9883
G01 X11.5571 Y28.9111
G01 X11.5631 Y28.9016
G01 X11.5696 Y28.8923
G01 X11.6234 Y28.8203
G01 X11.6835 Y28.7536
G01 X11.6913 Y28.7454
G01 X11.6995 Y28.7376
G01 X11.7577 Y28.6849
G01 X11.7662 Y28.6775
G01 X11.7751 Y28.6706
G01 X11.8474 Y28.6173
G01 X11.9243 Y28.5708
G01 X11.9342 Y28.5653
G01 X11.9442 Y28.5602
G01 X12.0256 Y28.5220
G01 X12.0361 Y28.5180
G01 X12.1208 Y28.4880
G01 X12.2079 Y28.4659
G01 X12.2189 Y28.4634
G01 X12.2300 Y28.4615
G01 X12.3077 Y28.4500
G01 X12.3245 Y28.4481
G01 X12.4086 Y28.4439
G01 X12.4199 Y28.4436
G01 X12.5096 Y28.4477
G01 X12.5209 Y28.4486
G01 X12.5321 Y28.4500
G01 X12.6098 Y28.4615
G01 X12.6209 Y28.4634
G01 X12.6319 Y28.4659
G01 X12.7190 Y28.4880
G01 X12.8037 Y28.5180
G01 X12.8142 Y28.5220
G01 X12.8245 Y28.5266
G01 X12.9056 Y28.5653
G01 X12.9828 Y28.6112
G01 X12.9923 Y28.6173
G01 X13.0016 Y28.6238
G01 X13.0647 Y28.6706
G01 X13.0736 Y28.6775
G01 X13.0821 Y28.6849
G01 X13.1485 Y28.7454
G01 X13.2090 Y28.8118
G01 X13.2164 Y28.8203
G01 X13.2233 Y28.8292
G01 X13.2766 Y28.9016
G01 X13.3231 Y28.9785
G01 X13.3286 Y28.9883
G01 X13.3337 Y28.9984
G01 X13.3719 Y29.0797
G01 X13.3759 Y29.0902
G01 X13.4059 Y29.1749
G01 X13.4280 Y29.2620
G01 X13.4305 Y29.2730
G01 X13.4324 Y29.2841
G01 X13.4453 Y29.3730
G01 X13.4462 Y29.3843
G01 X13.4502 Y29.4684
G01 X13.4503 Y30.8740
G01 X13.4500 Y30.8853
G01 X13.4453 Y30.9750
G01 X13.4439 Y30.9862
G01 X13.4315 Y31.0695
G01 X13.4280 Y31.0860
G01 X13.4059 Y31.1731
G01 X13.3759 Y31.2578
G01 X13.3719 Y31.2683
G01 X13.3673 Y31.2786
G01 X13.3337 Y31.3496
G01 X13.3286 Y31.3597
G01 X13.3231 Y31.3695
G01 X13.2766 Y31.4465
G01 X13.2701 Y31.4557
G01 X13.2164 Y31.5277
G01 X13.1563 Y31.5944
G01 X13.1485 Y31.6026
G01 X13.0821 Y31.6631
G01 X13.0736 Y31.6705
G01 X13.0647 Y31.6775
G01 X12.9923 Y31.7307
G01 X12.9828 Y31.7368
G01 X12.9056 Y31.7827
G01 X12.8245 Y31.8214
G01 X12.8142 Y31.8260
G01 X12.7297 Y31.8565
G01 X12.7190 Y31.8600
G01 X12.7081 Y31.8630
G01 X12.6209 Y31.8846
G01 X12.5321 Y31.8981
G01 X12.5153 Y31.8999
G01 X12.4312 Y31.9041
G01 X12.4142 Y31.9043
G01 X12.3245 Y31.8999
G01 X12.3133 Y31.8988
G01 X12.2944 Y31.8961
G01 X9.6682 Y34.5222
G01 X9.6264 Y34.5598
G01 X9.5860 Y34.5901
G01 X9.5720 Y34.5997
G01 X9.5335 Y34.6229
G01 X9.5187 Y34.6310
G01 X9.4730 Y34.6527
G01 X9.4572 Y34.6589
G01 X9.4095 Y34.6757
G01 X9.3606 Y34.6883
G01 X9.3496 Y34.6907
G01 X9.3384 Y34.6927
G01 X9.2884 Y34.6998
G01 X9.2379 Y34.7026
G01 X9.2266 Y34.7028
G01 X3.6892 Y34.7028
G01 X3.6779 Y34.7026
G01 X3.6274 Y34.6998
G01 X3.5718 Y34.6918
G01 X3.5552 Y34.6883
G01 X3.5171 Y34.6787
G01 X3.5062 Y34.6757
G01 X3.4955 Y34.6722
G01 X3.4480 Y34.6549
G01 X3.3971 Y34.6310
G01 X3.3823 Y34.6229
G01 X3.3486 Y34.6027
G01 X3.3344 Y34.5934
G01 X3.2894 Y34.5598
G01 X3.2517 Y34.5261
G01 X3.2435 Y34.5183
G01 X1.3977 Y32.6724
G01 X1.3899 Y32.6643
G01 X1.3562 Y32.6266
G01 X1.3492 Y32.6177
G01 X1.3193 Y32.5770
G01 X1.2931 Y32.5337
G01 X1.2875 Y32.5239
G01 X1.2657 Y32.4783
G01 X1.2590 Y32.4628
G01 X1.2438 Y32.4205
G01 X1.2403 Y32.4098
G01 X1.2373 Y32.3989
G01 X1.2277 Y32.3608
G01 X1.2242 Y32.3442
G01 X1.2175 Y32.2998
G01 X1.2157 Y32.2830
G01 X1.2131 Y32.2268
G01 X1.2131 Y4.8637
G01 X1.2134 Y4.8524
G01 X1.2162 Y4.8019
G01 X1.2242 Y4.7463
G01 X1.2277 Y4.7297
G01 X1.2373 Y4.6916
G01 X1.2403 Y4.6807
G01 X1.2438 Y4.6700
G01 X1.2611 Y4.6225
G01 X1.2825 Y4.5767
G01 X1.2875 Y4.5666
G01 X1.3133 Y4.5231
G01 X1.3193 Y4.5135
G01 X1.3258 Y4.5043
G01 X1.3562 Y4.4639
G01 X1.3938 Y4.4221
G01 X4.1142 Y1.7015
G01 X4.1224 Y1.6937
G01 X4.1601 Y1.6600
G01 X4.1690 Y1.6530
G01 X4.2097 Y1.6231
G01 X4.2530 Y1.5969
G01 X4.2628 Y1.5914
G01 X4.3135 Y1.5671
G01 X4.3292 Y1.5608
G01 X4.3769 Y1.5441
G01 X4.4259 Y1.5315
G01 X4.4369 Y1.5290
G01 X4.4480 Y1.5271
G01 X4.4981 Y1.5200
G01 X4.5486 Y1.5172
G01 X4.5599 Y1.5169
G01 X8.3691 Y1.5169
G01 X8.3804 Y1.5172
G01 X8.4309 Y1.5200
G01 X8.4809 Y1.5271
G01 X8.4920 Y1.5290
G01 X8.5031 Y1.5315
G01 X8.5520 Y1.5441
G01 X8.5997 Y1.5608
G01 X8.6103 Y1.5649
G01 X8.6206 Y1.5695
G01 X8.6662 Y1.5914
G01 X8.7145 Y1.6201
G01 X8.7285 Y1.6296
G01 X8.7600 Y1.6530
G01 X8.7689 Y1.6600
G01 X8.7774 Y1.6674
G01 X8.8147 Y1.7015
G01 X10.0413 Y2.9281
G01 X10.0758 Y2.9230
G01 X10.0926 Y2.9211
G01 X10.1767 Y2.9169
G01 X10.1936 Y2.9167
G01 X10.2777 Y2.9207
G01 X10.2890 Y2.9216
G01 X10.3002 Y2.9230
G01 X10.3835 Y2.9354
G01 X10.4000 Y2.9389
G01 X10.4762 Y2.9580
G01 X10.4871 Y2.9610
G01 X10.4978 Y2.9645
G01 X10.5823 Y2.9950
G01 X10.5926 Y2.9996
G01 X10.6687 Y3.0357
G01 X10.6835 Y3.0438
G01 X10.7509 Y3.0842
G01 X10.7604 Y3.0903
G01 X10.7697 Y3.0968
G01 X10.8417 Y3.1505
G01 X10.8502 Y3.1579
G01 X10.9166 Y3.2184
G01 X10.9771 Y3.2848
G01 X10.9845 Y3.2933
G01 X11.0382 Y3.3653
G01 X11.0447 Y3.3746
G01 X11.0508 Y3.3841
G01 X11.0912 Y3.4515
G01 X11.0967 Y3.4613
G01 X11.1018 Y3.4714
G01 X11.1400 Y3.5527
G01 X11.1440 Y3.5632
G01 X11.1740 Y3.6479
G01 X11.1770 Y3.6588
G01 X11.1986 Y3.7460
G01 X11.2120 Y3.8348
G01 X11.2134 Y3.8460
G01 X11.2143 Y3.8573
G01 X11.2184 Y3.9470
G01 X11.2184 Y5.3470
G01 X11.2143 Y5.4367
G01 X11.2128 Y5.4536
G01 X11.2005 Y5.5369
G01 X11.1986 Y5.5480
G01 X11.1770 Y5.6352
G01 X11.1740 Y5.6461
G01 X11.1705 Y5.6568
G01 X11.1440 Y5.7308
G01 X11.1400 Y5.7413
G01 X11.1354 Y5.7516
G01 X11.0967 Y5.8327
G01 X11.0508 Y5.9099
G01 X11.0447 Y5.9195
G01 X11.0382 Y5.9287
G01 X10.9845 Y6.0007
G01 X10.9771 Y6.0092
G01 X10.9166 Y6.0756
G01 X10.8502 Y6.1361
G01 X10.8417 Y6.1435
G01 X10.8328 Y6.1505
G01 X10.7604 Y6.2037
G01 X10.7509 Y6.2098
G01 X10.6737 Y6.2557
G01 X10.5926 Y6.2944
G01 X10.5823 Y6.2990
G01 X10.5718 Y6.3030
G01 X10.4871 Y6.3330
G01 X10.4762 Y6.3360
G01 X10.3890 Y6.3576
G01 X10.3002 Y6.3711
G01 X10.2890 Y6.3724
G01 X10.1993 Y6.3771
G01 X10.1880 Y6.3774
G01 X10.1767 Y6.3771
G01 X10.0870 Y6.3724
G01 X10.0758 Y6.3711
G01 X9.9870 Y6.3576
G01 X9.8998 Y6.3360
G01 X9.8889 Y6.3330
G01 X9.8042 Y6.3030
G01 X9.7937 Y6.2990
G01 X9.7834 Y6.2944
G01 X9.7023 Y6.2557
G01 X9.6251 Y6.2098
G01 X9.6155 Y6.2037
G01 X9.6063 Y6.1972
G01 X9.5343 Y6.1435
G01 X9.4676 Y6.0834
G01 X9.4594 Y6.0756
G01 X9.3989 Y6.0092
G01 X9.3915 Y6.0007
G01 X9.3845 Y5.9918
G01 X9.3312 Y5.9195
G01 X9.2848 Y5.8425
G01 X9.2793 Y5.8327
G01 X9.2742 Y5.8226
G01 X9.2360 Y5.7413
G01 X9.2055 Y5.6568
G01 X9.2020 Y5.6461
G01 X9.1989 Y5.6352
G01 X9.1774 Y5.5480
G01 X9.1639 Y5.4592
G01 X9.1621 Y5.4424
G01 X9.1579 Y5.3583
G01 X9.1576 Y5.3470
G01 X9.1576 Y3.9470
G01 X9.1617 Y3.8573
G01 X9.1626 Y3.8460
G01 X9.1641 Y3.8334
G00 Z2.0000
G00 X9.2598 Y3.8018
G01 F60.00
G01 Z-0.0000
G01 F200.00
G01 X8.1453 Y2.6873
G01 X4.7836 Y2.6873
G01 X2.3835 Y5.0874
G01 X2.3835 Y32.0031
G01 X3.9129 Y33.5325
G01 X9.0029 Y33.5324
G01 X11.4949 Y31.0404
G01 X11.4840 Y30.9662
G01 X11.4795 Y30.8740
G01 X11.4795 Y29.4706
G01 X11.4840 Y29.3818
G01 X11.4964 Y29.2973
G01 X11.4991 Y29.2838
G01 X11.5182 Y29.2076
G01 X11.5210 Y29.1978
G01 X11.5511 Y29.1141
G01 X11.5874 Y29.0368
G01 X11.5939 Y29.0247
G01 X11.6380 Y28.9516
G01 X11.6930 Y28.8774
G01 X11.7502 Y28.8140
G01 X11.7599 Y28.8043
G01 X11.8233 Y28.7471
G01 X11.8918 Y28.6961
G01 X11.9032 Y28.6884
G01 X11.9766 Y28.6447
G01 X12.0600 Y28.6052
G01 X12.1469 Y28.5741
G01 X12.2297 Y28.5532
G01 X12.2432 Y28.5505
G01 X12.3277 Y28.5381
G01 X12.4199 Y28.5336
G01 X12.5052 Y28.5376
G01 X12.5189 Y28.5390
G01 X12.5966 Y28.5505
G01 X12.6101 Y28.5532
G01 X12.6929 Y28.5741
G01 X12.7798 Y28.6052
G01 X12.8632 Y28.6447
G01 X12.9365 Y28.6884
G01 X12.9480 Y28.6961
G01 X13.0111 Y28.7428
G01 X13.0217 Y28.7516
G01 X13.0849 Y28.8090
G01 X13.1468 Y28.8774
G01 X13.2018 Y28.9516
G01 X13.2459 Y29.0247
G01 X13.2523 Y29.0368
G01 X13.2887 Y29.1141
G01 X13.3198 Y29.2010
G01 X13.3422 Y29.2905
G01 X13.3558 Y29.3818
G01 X13.3602 Y29.4706
G01 X13.3603 Y30.8740
G01 X13.3558 Y30.9662
G01 X13.3428 Y31.0541
G01 X13.3407 Y31.0642
G01 X13.3198 Y31.1470
G01 X13.2912 Y31.2275
G01 X13.2859 Y31.2402
G01 X13.2523 Y31.3112
G01 X13.2459 Y31.3233
G01 X13.2018 Y31.3965
G01 X13.1468 Y31.4706
G01 X13.0849 Y31.5390
G01 X13.0217 Y31.5965
G01 X13.0111 Y31.6052
G01 X12.9423 Y31.6559
G01 X12.8632 Y31.7034
G01 X12.7798 Y31.7428
G01 X12.6994 Y31.7718
G01 X12.6896 Y31.7749
G01 X12.6034 Y31.7963
G01 X12.5189 Y31.8090
G01 X12.5052 Y31.8104
G01 X12.4268 Y31.8142
G01 X12.4130 Y31.8142
G01 X12.3277 Y31.8099
G01 X12.2628 Y31.8004
G01 X9.6086 Y34.4546
G01 X9.5693 Y34.4902
G01 X9.5267 Y34.5218
G01 X9.4813 Y34.5491
G01 X9.4396 Y34.5689
G01 X9.4269 Y34.5742
G01 X9.3834 Y34.5896
G01 X9.3320 Y34.6025
G01 X9.2796 Y34.6102
G01 X9.2266 Y34.6128
G01 X3.6892 Y34.6128
G01 X3.6362 Y34.6102
G01 X3.5871 Y34.6031
G01 X3.5771 Y34.6010
G01 X3.5390 Y34.5914
G01 X3.5258 Y34.5874
G01 X3.4824 Y34.5717
G01 X3.4345 Y34.5491
G01 X3.3948 Y34.5255
G01 X3.3834 Y34.5179
G01 X3.3465 Y34.4902
G01 X3.3096 Y34.4570
G01 X1.4614 Y32.6088
G01 X1.4257 Y32.5695
G01 X1.3942 Y32.5269
G01 X1.3669 Y32.4815
G01 X1.3470 Y32.4398
G01 X1.3430 Y32.4304
G01 X1.3285 Y32.3902
G01 X1.3246 Y32.3770
G01 X1.3135 Y32.3322
G01 X1.3066 Y32.2866
G01 X1.3054 Y32.2764
G01 X1.3031 Y32.2268
G01 X1.3031 Y4.8637
G01 X1.3057 Y4.8107
G01 X1.3129 Y4.7617
G01 X1.3150 Y4.7516
G01 X1.3246 Y4.7135
G01 X1.3285 Y4.7003
G01 X1.3443 Y4.6569
G01 X1.3669 Y4.6090
G01 X1.3905 Y4.5694
G01 X1.3981 Y4.5579
G01 X1.4257 Y4.5210
G01 X1.4590 Y4.4842
G01 X4.1779 Y1.7652
G01 X4.2172 Y1.7296
G01 X4.2541 Y1.7019
G01 X4.2626 Y1.6961
G01 X4.2992 Y1.6741
G01 X4.3113 Y1.6676
G01 X4.3531 Y1.6481
G01 X4.4030 Y1.6302
G01 X4.4545 Y1.6173
G01 X4.5035 Y1.6099
G01 X4.5138 Y1.6090
G01 X4.5599 Y1.6069
G01 X8.3691 Y1.6069
G01 X8.4152 Y1.6090
G01 X8.4289 Y1.6104
G01 X8.4745 Y1.6173
G01 X8.5193 Y1.6284
G01 X8.5324 Y1.6324
G01 X8.5758 Y1.6481
G01 X8.6176 Y1.6676
G01 X8.6297 Y1.6741
G01 X8.6692 Y1.6980
G01 X8.7064 Y1.7253
G01 X8.7170 Y1.7340
G01 X8.7486 Y1.7628
G01 X10.0097 Y3.0238
G01 X10.0958 Y3.0111
G01 X10.1880 Y3.0066
G01 X10.2802 Y3.0111
G01 X10.3715 Y3.0247
G01 X10.4610 Y3.0471
G01 X10.5479 Y3.0782
G01 X10.6313 Y3.1177
G01 X10.7046 Y3.1614
G01 X10.7161 Y3.1691
G01 X10.7846 Y3.2201
G01 X10.8530 Y3.2820
G01 X10.9149 Y3.3504
G01 X10.9699 Y3.4246
G01 X11.0173 Y3.5037
G01 X11.0568 Y3.5871
G01 X11.0879 Y3.6740
G01 X11.1103 Y3.7635
G01 X11.1239 Y3.8548
G01 X11.1284 Y3.9470
G01 X11.1284 Y5.3470
G01 X11.1239 Y5.4392
G01 X11.1115 Y5.5237
G01 X11.1088 Y5.5372
G01 X11.0879 Y5.6200
G01 X11.0593 Y5.7005
G01 X11.0540 Y5.7132
G01 X11.0173 Y5.7903
G01 X10.9736 Y5.8637
G01 X10.9659 Y5.8751
G01 X10.9149 Y5.9436
G01 X10.8577 Y6.0070
G01 X10.8480 Y6.0167
G01 X10.7846 Y6.0739
G01 X10.7161 Y6.1250
G01 X10.7076 Y6.1308
G01 X10.6313 Y6.1764
G01 X10.5479 Y6.2158
G01 X10.4610 Y6.2469
G01 X10.3715 Y6.2693
G01 X10.2802 Y6.2829
G01 X10.1880 Y6.2874
G01 X10.0958 Y6.2829
G01 X10.0045 Y6.2693
G01 X9.9150 Y6.2469
G01 X9.8281 Y6.2158
G01 X9.7447 Y6.1764
G01 X9.6655 Y6.1289
G01 X9.5914 Y6.0739
G01 X9.5230 Y6.0120
G01 X9.4611 Y5.9436
G01 X9.4100 Y5.8751
G01 X9.4042 Y5.8666
G01 X9.3620 Y5.7963
G01 X9.3555 Y5.7842
G01 X9.3192 Y5.7069
G01 X9.2902 Y5.6265
G01 X9.2863 Y5.6134
G01 X9.2657 Y5.5305
G01 X9.2530 Y5.4460
G01 X9.2518 Y5.4358
G01 X9.2476 Y5.3470
G01 X9.2476 Y3.9470
G01 X9.2518 Y3.8583
G01 X9.2530 Y3.8480
G01 X9.2598 Y3.8018
G00 Z2.0000
G00 X12.8227 Y2.9263
G01 F60.00
G01 Z-0.0000
G01 F200.00
G01 X15.2712 Y0.4779
G01 X15.3130 Y0.4403
G01 X15.3219 Y0.4333
G01 X15.3626 Y0.4034
G01 X15.4059 Y0.3772
G01 X15.4157 Y0.3716
G01 X15.4258 Y0.3666
G01 X15.4716 Y0.3452
G01 X15.5191 Y0.3279
G01 X15.5298 Y0.3244
G01 X15.5407 Y0.3214
G01 X15.5898 Y0.3093
G01 X15.6009 Y0.3074
G01 X15.6510 Y0.3003
G01 X15.7015 Y0.2975
G01 X15.7128 Y0.2972
G01 X19.1730 Y0.2972
G01 X19.1843 Y0.2975
G01 X19.2348 Y0.3003
G01 X19.2904 Y0.3083
G01 X19.3070 Y0.3118
G01 X19.3450 Y0.3214
G01 X19.3559 Y0.3244
G01 X19.3666 Y0.3279
G01 X19.4142 Y0.3452
G01 X19.4600 Y0.3666
G01 X19.4701 Y0.3716
G01 X19.4799 Y0.3772
G01 X19.5231 Y0.4034
G01 X19.5639 Y0.4333
G01 X19.5728 Y0.4403
G01 X19.5813 Y0.4477
G01 X19.6186 Y0.4818
G01 X23.5479 Y4.4112
G01 X23.5818 Y4.4486
G01 X23.5924 Y4.4619
G01 X23.6223 Y4.5026
G01 X23.6514 Y4.5507
G01 X23.6592 Y4.5658
G01 X23.6805 Y4.6116
G01 X23.6978 Y4.6591
G01 X23.7014 Y4.6698
G01 X23.7044 Y4.6807
G01 X23.7164 Y4.7298
G01 X23.7241 Y4.7798
G01 X23.7255 Y4.7910
G01 X23.7263 Y4.8022
G01 X23.7285 Y4.8528
G01 X23.7285 Y30.1372
G01 X23.7282 Y30.1485
G01 X23.7255 Y30.1990
G01 X23.7183 Y30.2490
G01 X23.7164 Y30.2601
G01 X23.7044 Y30.3092
G01 X23.6997 Y30.3255
G01 X23.6846 Y30.3678
G01 X23.6805 Y30.3783
G01 X23.6760 Y30.3887
G01 X23.6541 Y30.4343
G01 X23.6485 Y30.4441
G01 X23.6223 Y30.4873
G01 X23.6158 Y30.4965
G01 X23.5855 Y30.5370
G01 X23.5479 Y30.5788
G01 X20.9719 Y33.1547
G01 X20.9345 Y33.1886
G01 X20.9213 Y33.1992
G01 X20.8805 Y33.2291
G01 X20.8324 Y33.2582
G01 X20.8174 Y33.2660
G01 X20.7715 Y33.2873
G01 X20.7240 Y33.3046
G01 X20.7133 Y33.3082
G01 X20.7024 Y33.3112
G01 X20.6533 Y33.3232
G01 X20.6033 Y33.3309
G01 X20.5865 Y33.3328
G01 X20.5360 Y33.3353
G01 X19.1559 Y33.3353
G01 X19.0998 Y33.3323
G01 X19.0886 Y33.3309
G01 X19.0386 Y33.3232
G01 X19.0276 Y33.3207
G01 X18.9786 Y33.3082
G01 X18.9309 Y33.2914
G01 X18.9204 Y33.2873
G01 X18.8746 Y33.2660
G01 X18.8645 Y33.2609
G01 X18.8547 Y33.2553
G01 X18.8114 Y33.2291
G01 X18.8022 Y33.2226
G01 X18.7618 Y33.1923
G01 X18.7200 Y33.1547
G01 X17.4675 Y31.9023
G01 X17.4312 Y31.9041
G01 X17.4142 Y31.9043
G01 X17.3245 Y31.8999
G01 X17.3077 Y31.8981
G01 X17.2244 Y31.8856
G01 X17.2078 Y31.8821
G01 X17.1208 Y31.8600
G01 X17.1101 Y31.8565
G01 X17.0308 Y31.8281
G01 X17.0152 Y31.8214
G01 X16.9342 Y31.7827
G01 X16.9243 Y31.7772
G01 X16.8474 Y31.7307
G01 X16.8382 Y31.7242
G01 X16.7662 Y31.6705
G01 X16.6995 Y31.6104
G01 X16.6913 Y31.6026
G01 X16.6835 Y31.5944
G01 X16.6234 Y31.5277
G01 X16.5696 Y31.4557
G01 X16.5631 Y31.4465
G01 X16.5571 Y31.4369
G01 X16.5167 Y31.3695
G01 X16.5111 Y31.3597
G01 X16.5061 Y31.3496
G01 X16.4679 Y31.2683
G01 X16.4639 Y31.2578
G01 X16.4338 Y31.1731
G01 X16.4118 Y31.0860
G01 X16.4093 Y31.0750
G01 X16.3958 Y30.9862
G01 X16.3944 Y30.9750
G01 X16.3936 Y30.9637
G01 X16.3895 Y30.8740
G01 X16.3895 Y29.4740
G01 X16.3898 Y29.4627
G01 X16.3940 Y29.3786
G01 X16.3958 Y29.3618
G01 X16.4073 Y29.2841
G01 X16.4093 Y29.2730
G01 X16.4118 Y29.2620
G01 X16.4338 Y29.1749
G01 X16.4639 Y29.0902
G01 X16.4679 Y29.0797
G01 X16.4725 Y29.0694
G01 X16.5111 Y28.9883
G01 X16.5571 Y28.9111
G01 X16.5631 Y28.9016
G01 X16.5696 Y28.8923
G01 X16.6234 Y28.8203
G01 X16.6835 Y28.7536
G01 X16.6913 Y28.7454
G01 X16.6995 Y28.7376
G01 X16.7662 Y28.6775
G01 X16.8382 Y28.6238
G01 X16.8474 Y28.6173
G01 X16.8570 Y28.6112
G01 X16.9342 Y28.5653
G01 X17.0152 Y28.5266
G01 X17.0256 Y28.5220
G01 X17.0361 Y28.5180
G01 X17.1208 Y28.4880
G01 X17.2078 Y28.4659
G01 X17.2189 Y28.4634
G01 X17.2300 Y28.4615
G01 X17.3189 Y28.4486
G01 X17.4086 Y28.4439
G01 X17.4199 Y28.4436
G01 X17.4312 Y28.4439
G01 X17.5209 Y28.4486
G01 X17.6098 Y28.4615
G01 X17.6209 Y28.4634
G01 X17.6319 Y28.4659
G01 X17.7081 Y28.4850
G01 X17.7190 Y28.4880
G01 X17.7297 Y28.4915
G01 X17.8142 Y28.5220
G01 X17.8955 Y28.5602
G01 X17.9056 Y28.5653
G01 X17.9154 Y28.5708
G01 X17.9923 Y28.6173
G01 X18.0647 Y28.6706
G01 X18.0736 Y28.6775
G01 X18.0821 Y28.6849
G01 X18.1485 Y28.7454
G01 X18.2090 Y28.8118
G01 X18.2164 Y28.8203
G01 X18.2701 Y28.8923
G01 X18.2766 Y28.9016
G01 X18.3230 Y28.9785
G01 X18.3286 Y28.9883
G01 X18.3337 Y28.9984
G01 X18.3718 Y29.0797
G01 X18.4024 Y29.1642
G01 X18.4059 Y29.1749
G01 X18.4089 Y29.1858
G01 X18.4305 Y29.2730
G01 X18.4439 Y29.3618
G01 X18.4453 Y29.3730
G01 X18.4461 Y29.3843
G01 X18.4503 Y29.4740
G01 X18.4503 Y30.8740
G01 X18.4500 Y30.8853
G01 X18.4453 Y30.9750
G01 X18.4324 Y31.0639
G01 X18.4291 Y31.0814
G01 X19.4226 Y32.0749
G01 X20.2693 Y32.0749
G01 X22.4681 Y29.8761
G01 X22.4681 Y5.1138
G01 X18.9120 Y1.5576
G01 X15.9738 Y1.5576
G01 X13.7102 Y3.8213
G01 X13.7129 Y3.8404
G01 X13.7140 Y3.8516
G01 X13.7182 Y3.9357
G01 X13.7185 Y3.9470
G01 X13.7185 Y5.3470
G01 X13.7182 Y5.3583
G01 X13.7140 Y5.4424
G01 X13.7122 Y5.4592
G01 X13.7007 Y5.5369
G01 X13.6987 Y5.5480
G01 X13.6962 Y5.5590
G01 X13.6742 Y5.6461
G01 X13.6441 Y5.7308
G01 X13.6401 Y5.7413
G01 X13.6355 Y5.7516
G01 X13.5969 Y5.8327
G01 X13.5509 Y5.9099
G01 X13.5449 Y5.9195
G01 X13.5384 Y5.9287
G01 X13.4846 Y6.0007
G01 X13.4245 Y6.0674
G01 X13.4167 Y6.0756
G01 X13.4085 Y6.0834
G01 X13.3418 Y6.1435
G01 X13.2698 Y6.1972
G01 X13.2606 Y6.2037
G01 X13.2510 Y6.2098
G01 X13.1738 Y6.2557
G01 X13.0928 Y6.2944
G01 X13.0824 Y6.2990
G01 X12.9979 Y6.3295
G01 X12.9872 Y6.3330
G01 X12.9763 Y6.3360
G01 X12.8891 Y6.3576
G01 X12.8003 Y6.3711
G01 X12.7891 Y6.3724
G01 X12.6994 Y6.3771
G01 X12.6881 Y6.3774
G01 X12.5984 Y6.3733
G01 X12.5871 Y6.3724
G01 X12.5759 Y6.3711
G01 X12.4982 Y6.3595
G01 X12.4816 Y6.3564
G01 X12.3999 Y6.3360
G01 X12.3890 Y6.3330
G01 X12.3783 Y6.3295
G01 X12.2938 Y6.2990
G01 X12.2125 Y6.2608
G01 X12.2024 Y6.2557
G01 X12.1926 Y6.2502
G01 X12.1157 Y6.2037
G01 X12.0433 Y6.1505
G01 X12.0344 Y6.1435
G01 X12.0259 Y6.1361
G01 X11.9595 Y6.0756
G01 X11.8990 Y6.0092
G01 X11.8916 Y6.0007
G01 X11.8847 Y5.9918
G01 X11.8314 Y5.9195
G01 X11.7850 Y5.8425
G01 X11.7794 Y5.8327
G01 X11.7743 Y5.8226
G01 X11.7362 Y5.7413
G01 X11.7321 Y5.7308
G01 X11.7038 Y5.6515
G01 X11.6991 Y5.6352
G01 X11.6800 Y5.5590
G01 X11.6775 Y5.5480
G01 X11.6756 Y5.5369
G01 X11.6627 Y5.4480
G01 X11.6619 Y5.4367
G01 X11.6578 Y5.3526
G01 X11.6577 Y3.9470
G01 X11.6580 Y3.9357
G01 X11.6627 Y3.8460
G01 X11.6756 Y3.7571
G01 X11.6775 Y3.7460
G01 X11.6991 Y3.6588
G01 X11.7021 Y3.6479
G01 X11.7056 Y3.6372
G01 X11.7362 Y3.5527
G01 X11.7407 Y3.5424
G01 X11.7794 Y3.4613
G01 X11.8253 Y3.3841
G01 X11.8314 Y3.3746
G01 X11.8379 Y3.3653
G01 X11.8916 Y3.2933
G01 X11.8990 Y3.2848
G01 X11.9595 Y3.2184
G01 X12.0259 Y3.1579
G01 X12.0388 Y3.1470
G01 X12.1064 Y3.0968
G01 X12.1157 Y3.0903
G01 X12.1252 Y3.0842
G01 X12.2024 Y3.0383
G01 X12.2835 Y2.9996
G01 X12.2938 Y2.9950
G01 X12.3783 Y2.9645
G01 X12.3944 Y2.9594
G01 X12.4761 Y2.9389
G01 X12.4871 Y2.9364
G01 X12.5759 Y2.9230
G01 X12.5927 Y2.9211
G01 X12.6768 Y2.9169
G01 X12.6938 Y2.9167
G01 X12.7835 Y2.9211
G01 X12.7947 Y2.9222
G01 X12.8227 Y2.9263
G00 Z2.0000
G00 X12.8543 Y3.0219
G01 F60.00
G01 Z-0.0000
G01 F200.00
G01 X15.3308 Y0.5455
G01 X15.3701 Y0.5098
G01 X15.4126 Y0.4783
G01 X15.4581 Y0.4510
G01 X15.5060 Y0.4284
G01 X15.5559 Y0.4105
G01 X15.6074 Y0.3976
G01 X15.6598 Y0.3898
G01 X15.7128 Y0.3872
G01 X19.1730 Y0.3872
G01 X19.2259 Y0.3898
G01 X19.2716 Y0.3964
G01 X19.2817 Y0.3983
G01 X19.3232 Y0.4087
G01 X19.3363 Y0.4126
G01 X19.3797 Y0.4284
G01 X19.4276 Y0.4510
G01 X19.4731 Y0.4783
G01 X19.5103 Y0.5056
G01 X19.5209 Y0.5143
G01 X19.5550 Y0.5455
G01 X23.4803 Y4.4708
G01 X23.5114 Y4.5048
G01 X23.5201 Y4.5155
G01 X23.5475 Y4.5526
G01 X23.5713 Y4.5921
G01 X23.5778 Y4.6042
G01 X23.5974 Y4.6460
G01 X23.6131 Y4.6894
G01 X23.6171 Y4.7026
G01 X23.6281 Y4.7474
G01 X23.6351 Y4.7930
G01 X23.6364 Y4.8067
G01 X23.6385 Y4.8528
G01 X23.6385 Y30.1372
G01 X23.6359 Y30.1901
G01 X23.6281 Y30.2426
G01 X23.6171 Y30.2874
G01 X23.6131 Y30.3005
G01 X23.5987 Y30.3407
G01 X23.5946 Y30.3502
G01 X23.5747 Y30.3918
G01 X23.5475 Y30.4373
G01 X23.5159 Y30.4799
G01 X23.4827 Y30.5167
G01 X20.9099 Y33.0895
G01 X20.8783 Y33.1182
G01 X20.8677 Y33.1269
G01 X20.8305 Y33.1543
G01 X20.7910 Y33.1781
G01 X20.7789 Y33.1846
G01 X20.7371 Y33.2042
G01 X20.6937 Y33.2199
G01 X20.6806 Y33.2239
G01 X20.6358 Y33.2349
G01 X20.5901 Y33.2419
G01 X20.5765 Y33.2432
G01 X20.5338 Y33.2453
G01 X19.1616 Y33.2453
G01 X19.1086 Y33.2427
G01 X19.0562 Y33.2349
G01 X19.0047 Y33.2221
G01 X18.9548 Y33.2042
G01 X18.9069 Y33.1815
G01 X18.8614 Y33.1543
G01 X18.8189 Y33.1227
G01 X18.7820 Y33.0895
G01 X17.5030 Y31.8105
G01 X17.4199 Y31.8144
G01 X17.3346 Y31.8104
G01 X17.3209 Y31.8090
G01 X17.2432 Y31.7975
G01 X17.2297 Y31.7948
G01 X17.1469 Y31.7739
G01 X17.0664 Y31.7453
G01 X17.0537 Y31.7400
G01 X16.9766 Y31.7034
G01 X16.8974 Y31.6559
G01 X16.8233 Y31.6009
G01 X16.7599 Y31.5437
G01 X16.7502 Y31.5340
G01 X16.6929 Y31.4706
G01 X16.6419 Y31.4021
G01 X16.6343 Y31.3907
G01 X16.5939 Y31.3233
G01 X16.5874 Y31.3112
G01 X16.5511 Y31.2339
G01 X16.5200 Y31.1470
G01 X16.4975 Y31.0575
G01 X16.4844 Y30.9696
G01 X16.4835 Y30.9593
G01 X16.4795 Y30.8740
G01 X16.4795 Y29.4740
G01 X16.4837 Y29.3853
G01 X16.4848 Y29.3750
G01 X16.4964 Y29.2973
G01 X16.4991 Y29.2838
G01 X16.5200 Y29.2010
G01 X16.5511 Y29.1141
G01 X16.5874 Y29.0368
G01 X16.5939 Y29.0247
G01 X16.6380 Y28.9516
G01 X16.6887 Y28.8828
G01 X16.6974 Y28.8722
G01 X16.7502 Y28.8140
G01 X16.7599 Y28.8043
G01 X16.8233 Y28.7471
G01 X16.8918 Y28.6961
G01 X16.9032 Y28.6884
G01 X16.9766 Y28.6447
G01 X17.0537 Y28.6080
G01 X17.0664 Y28.6027
G01 X17.1469 Y28.5741
G01 X17.2297 Y28.5532
G01 X17.2432 Y28.5505
G01 X17.3277 Y28.5381
G01 X17.4199 Y28.5336
G01 X17.5052 Y28.5376
G01 X17.5189 Y28.5390
G01 X17.6033 Y28.5517
G01 X17.6929 Y28.5741
G01 X17.7733 Y28.6027
G01 X17.7860 Y28.6080
G01 X17.8632 Y28.6447
G01 X17.9365 Y28.6884
G01 X17.9480 Y28.6961
G01 X18.0165 Y28.7471
G01 X18.0824 Y28.8066
G01 X18.0896 Y28.8140
G01 X18.1468 Y28.8774
G01 X18.1978 Y28.9459
G01 X18.2055 Y28.9574
G01 X18.2459 Y29.0247
G01 X18.2523 Y29.0368
G01 X18.2887 Y29.1141
G01 X18.3198 Y29.2010
G01 X18.3422 Y29.2905
G01 X18.3558 Y29.3818
G01 X18.3603 Y29.4740
G01 X18.3602 Y30.8774
G01 X18.3563 Y30.9593
G01 X18.3554 Y30.9696
G01 X18.3428 Y31.0541
G01 X18.3407 Y31.0642
G01 X18.3295 Y31.1091
G01 X19.3853 Y32.1649
G01 X20.3066 Y32.1649
G01 X22.5581 Y29.9134
G01 X22.5581 Y5.0765
G01 X18.9492 Y1.4676
G01 X15.9365 Y1.4676
G01 X13.6145 Y3.7896
G01 X13.6240 Y3.8548
G01 X13.6285 Y3.9470
G01 X13.6285 Y5.3470
G01 X13.6243 Y5.4358
G01 X13.6232 Y5.4460
G01 X13.6116 Y5.5237
G01 X13.6089 Y5.5372
G01 X13.5880 Y5.6200
G01 X13.5594 Y5.7005
G01 X13.5542 Y5.7132
G01 X13.5175 Y5.7903
G01 X13.4737 Y5.8637
G01 X13.4681 Y5.8723
G01 X13.4151 Y5.9436
G01 X13.3578 Y6.0070
G01 X13.3481 Y6.0167
G01 X13.2847 Y6.0739
G01 X13.2162 Y6.1250
G01 X13.2048 Y6.1326
G01 X13.1314 Y6.1764
G01 X13.0480 Y6.2158
G01 X12.9676 Y6.2448
G01 X12.9545 Y6.2487
G01 X12.8716 Y6.2693
G01 X12.7803 Y6.2829
G01 X12.6881 Y6.2874
G01 X12.6028 Y6.2834
G01 X12.5891 Y6.2820
G01 X12.5114 Y6.2705
G01 X12.5013 Y6.2686
G01 X12.4151 Y6.2469
G01 X12.3347 Y6.2183
G01 X12.3220 Y6.2130
G01 X12.2448 Y6.1764
G01 X12.1715 Y6.1326
G01 X12.1600 Y6.1250
G01 X12.0915 Y6.0739
G01 X12.0281 Y6.0167
G01 X12.0184 Y6.0070
G01 X11.9612 Y5.9436
G01 X11.9102 Y5.8751
G01 X11.9025 Y5.8637
G01 X11.8588 Y5.7903
G01 X11.8221 Y5.7132
G01 X11.8168 Y5.7005
G01 X11.7882 Y5.6200
G01 X11.7673 Y5.5372
G01 X11.7646 Y5.5237
G01 X11.7522 Y5.4392
G01 X11.7478 Y5.3504
G01 X11.7477 Y3.9470
G01 X11.7522 Y3.8548
G01 X11.7658 Y3.7635
G01 X11.7882 Y3.6740
G01 X11.8193 Y3.5871
G01 X11.8588 Y3.5037
G01 X11.9062 Y3.4246
G01 X11.9612 Y3.3504
G01 X12.0232 Y3.2820
G01 X12.0863 Y3.2246
G01 X12.0970 Y3.2158
G01 X12.1657 Y3.1651
G01 X12.2448 Y3.1177
G01 X12.3282 Y3.0782
G01 X12.4086 Y3.0493
G01 X12.4218 Y3.0453
G01 X12.5047 Y3.0247
G01 X12.5891 Y3.0120
G01 X12.6028 Y3.0106
G01 X12.6813 Y3.0068
G01 X12.6950 Y3.0068
G01 X12.7803 Y3.0111
G01 X12.8543 Y3.0219
G00 Z2.0000
G00 X15.3364 Y3.1103
G01 F60.00
G01 Z-0.0000
G01 F200.00
G01 X16.5209 Y1.9258
G01 X16.5527 Y1.8969
G01 X16.5891 Y1.8698
G01 X16.6249 Y1.8483
G01 X16.6692 Y1.8273
G01 X16.7086 Y1.8133
G01 X16.7514 Y1.8026
G01 X16.7951 Y1.7961
G01 X16.8392 Y1.7940
G01 X18.5423 Y1.7940
G01 X18.5852 Y1.7961
G01 X18.6289 Y1.8026
G01 X18.6717 Y1.8133
G01 X18.7133 Y1.8282
G01 X18.7533 Y1.8471
G01 X18.7912 Y1.8698
G01 X18.8266 Y1.8962
G01 X18.8585 Y1.9250
G01 X19.7627 Y2.8292
G01 X19.7915 Y2.8610
G01 X19.8164 Y2.8945
G01 X19.8405 Y2.9344
G01 X19.8594 Y2.9743
G01 X19.8735 Y3.0136
G01 X19.8853 Y3.0600
G01 X19.8915 Y3.1025
G01 X19.8937 Y3.1466
G01 X19.8936 Y13.1270
G01 X19.8915 Y13.1686
G01 X19.8855 Y13.2099
G01 X19.8735 Y13.2575
G01 X19.8594 Y13.2968
G01 X19.8405 Y13.3367
G01 X19.8178 Y13.3746
G01 X19.7930 Y13.4082
G01 X19.7618 Y13.4429
G01 X19.3401 Y13.8646
G01 X19.3445 Y13.8828
G01 X19.3562 Y13.9617
G01 X19.3604 Y14.0450
G01 X19.3562 Y14.1283
G01 X19.3445 Y14.2072
G01 X19.3401 Y14.2254
G01 X21.9837 Y16.8690
G01 X22.0125 Y16.9009
G01 X22.0388 Y16.9364
G01 X22.0615 Y16.9743
G01 X22.0804 Y17.0142
G01 X22.0953 Y17.0558
G01 X22.1060 Y17.0987
G01 X22.1125 Y17.1424
G01 X22.1147 Y17.1865
G01 X22.1147 Y28.4295
G01 X22.1122 Y28.4761
G01 X22.1060 Y28.5174
G01 X22.0959 Y28.5579
G01 X22.0804 Y28.6018
G01 X22.0615 Y28.6418
G01 X22.0401 Y28.6776
G01 X22.0109 Y28.7170
G01 X21.9828 Y28.7479
G01 X20.7704 Y29.9603
G01 X20.7704 Y30.8740
G01 X20.7665 Y30.9549
G01 X20.7535 Y31.0423
G01 X20.7338 Y31.1209
G01 X20.7061 Y31.1983
G01 X20.6700 Y31.2749
G01 X20.6257 Y31.3485
G01 X20.5774 Y31.4135
G01 X20.5230 Y31.4735
G01 X20.4595 Y31.5314
G01 X20.3904 Y31.5824
G01 X20.3209 Y31.6240
G01 X20.2477 Y31.6587
G01 X20.1669 Y31.6878
G01 X20.0847 Y31.7083
G01 X20.0034 Y31.7203
G01 X19.9200 Y31.7244
G01 X19.8366 Y31.7203
G01 X19.7565 Y31.7085
G01 X19.6708 Y31.6870
G01 X19.5946 Y31.6597
G01 X19.5191 Y31.6240
G01 X19.4475 Y31.5811
G01 X19.3824 Y31.5329
G01 X19.3170 Y31.4735
G01 X19.2626 Y31.4135
G01 X19.2129 Y31.3465
G01 X19.1700 Y31.2749
G01 X19.1348 Y31.2006
G01 X19.1062 Y31.1209
G01 X19.0859 Y31.0399
G01 X19.0737 Y30.9574
G01 X19.0696 Y30.8752
G01 X19.0696 Y29.4740
G01 X19.0736 Y29.3919
G01 X19.0859 Y29.3081
G01 X19.1070 Y29.2248
G01 X19.1343 Y29.1486
G01 X19.1689 Y29.0753
G01 X19.2129 Y29.0016
G01 X19.2642 Y28.9327
G01 X19.3187 Y28.8727
G01 X19.3787 Y28.8182
G01 X19.4475 Y28.7669
G01 X19.5191 Y28.7240
G01 X19.5946 Y28.6883
G01 X19.6708 Y28.6610
G01 X19.7565 Y28.6395
G01 X19.8366 Y28.6277
G01 X19.9200 Y28.6236
G01 X20.0034 Y28.6277
G01 X20.0847 Y28.6397
G01 X20.1669 Y28.6602
G01 X20.2431 Y28.6875
G01 X20.3220 Y28.7246
G01 X20.3925 Y28.7669
G01 X20.4585 Y28.8159
G01 X20.5204 Y28.8718
G01 X20.5515 Y28.9059
G01 X21.2143 Y28.2431
G01 X21.2143 Y17.3730
G01 X18.7034 Y14.8621
G01 X18.6852 Y14.8665
G01 X18.6063 Y14.8782
G01 X18.5230 Y14.8824
G01 X18.4409 Y14.8784
G01 X18.3596 Y14.8663
G01 X18.2799 Y14.8463
G01 X18.2025 Y14.8187
G01 X18.1283 Y14.7835
G01 X18.0578 Y14.7413
G01 X17.9918 Y14.6923
G01 X17.9309 Y14.6371
G01 X17.8757 Y14.5762
G01 X17.8267 Y14.5102
G01 X17.7845 Y14.4397
G01 X17.7493 Y14.3655
G01 X17.7217 Y14.2881
G01 X17.7017 Y14.2084
G01 X17.6896 Y14.1271
G01 X17.6857 Y14.0425
G01 X17.6896 Y13.9629
G01 X17.7013 Y13.8840
G01 X17.7217 Y13.8019
G01 X17.7493 Y13.7245
G01 X17.7857 Y13.6481
G01 X17.8267 Y13.5798
G01 X17.8742 Y13.5157
G01 X17.9309 Y13.4529
G01 X17.9918 Y13.3977
G01 X18.0598 Y13.3474
G01 X18.1283 Y13.3065
G01 X18.2003 Y13.2723
G01 X18.2799 Y13.2437
G01 X18.3620 Y13.2233
G01 X18.4409 Y13.2116
G01 X18.5205 Y13.2077
G01 X18.6051 Y13.2116
G01 X18.6852 Y13.2235
G01 X18.7034 Y13.2279
G01 X18.9933 Y12.9380
G01 X18.9933 Y3.3331
G01 X18.3546 Y2.6944
G01 X17.0257 Y2.6944
G01 X16.0055 Y3.7146
G01 X16.0220 Y3.7811
G01 X16.0340 Y3.8612
G01 X16.0384 Y3.9470
G01 X16.0384 Y5.3470
G01 X16.0343 Y5.4304
G01 X16.0225 Y5.5105
G01 X16.0018 Y5.5939
G01 X15.9736 Y5.6724
G01 X15.9380 Y5.7479
G01 X15.8944 Y5.8205
G01 X15.8453 Y5.8865
G01 X15.7884 Y5.9492
G01 X15.7265 Y6.0051
G01 X15.6614 Y6.0534
G01 X15.6382 Y6.0675
G01 X15.6382 Y11.9190
G01 X15.6360 Y11.9632
G01 X15.6290 Y12.0093
G01 X15.6188 Y12.0497
G01 X15.6048 Y12.0890
G01 X15.5850 Y12.1313
G01 X15.5623 Y12.1691
G01 X15.5375 Y12.2027
G01 X15.5063 Y12.2374
G01 X13.8791 Y13.8646
G01 X13.8835 Y13.8828
G01 X13.8955 Y13.9641
G01 X13.8994 Y14.0450
G01 X13.8954 Y14.1271
G01 X13.8833 Y14.2084
G01 X13.8640 Y14.2857
G01 X13.8357 Y14.3655
G01 X13.7993 Y14.4419
G01 X13.7583 Y14.5102
G01 X13.7093 Y14.5762
G01 X13.6541 Y14.6371
G01 X13.5951 Y14.6907
G01 X13.5262 Y14.7419
G01 X13.4546 Y14.7846
G01 X13.3825 Y14.8187
G01 X13.3074 Y14.8456
G01 X13.2254 Y14.8663
G01 X13.1441 Y14.8784
G01 X13.0620 Y14.8824
G01 X12.9775 Y14.8781
G01 X12.8986 Y14.8663
G01 X12.8213 Y14.8470
G01 X12.7415 Y14.8187
G01 X12.6651 Y14.7823
G01 X12.5968 Y14.7413
G01 X12.5327 Y14.6938
G01 X12.4699 Y14.6371
G01 X12.4147 Y14.5762
G01 X12.3644 Y14.5082
G01 X12.3235 Y14.4397
G01 X12.2893 Y14.3677
G01 X12.2607 Y14.2881
G01 X12.2405 Y14.2072
G01 X12.2285 Y14.1246
G01 X12.2246 Y14.0450
G01 X12.2285 Y13.9654
G01 X12.2407 Y13.8816
G01 X12.2607 Y13.8019
G01 X12.2883 Y13.7245
G01 X12.3247 Y13.6481
G01 X12.3657 Y13.5798
G01 X12.4132 Y13.5157
G01 X12.4699 Y13.4529
G01 X12.5308 Y13.3977
G01 X12.5988 Y13.3474
G01 X12.6673 Y13.3065
G01 X12.7393 Y13.2723
G01 X12.8189 Y13.2437
G01 X12.9010 Y13.2233
G01 X12.9799 Y13.2116
G01 X13.0595 Y13.2077
G01 X13.1441 Y13.2116
G01 X13.2242 Y13.2235
G01 X13.2424 Y13.2279
G01 X14.7378 Y11.7326
G01 X14.7378 Y6.0675
G01 X14.7145 Y6.0534
G01 X14.6494 Y6.0051
G01 X14.5875 Y5.9492
G01 X14.5306 Y5.8865
G01 X14.4816 Y5.8205
G01 X14.4380 Y5.7479
G01 X14.4023 Y5.6724
G01 X14.3742 Y5.5939
G01 X14.3537 Y5.5117
G01 X14.3417 Y5.4304
G01 X14.3376 Y5.3470
G01 X14.3376 Y3.9470
G01 X14.3416 Y3.8649
G01 X14.3539 Y3.7811
G01 X14.3742 Y3.7002
G01 X14.4023 Y3.6216
G01 X14.4380 Y3.5461
G01 X14.4809 Y3.4746
G01 X14.5306 Y3.4075
G01 X14.5867 Y3.3457
G01 X14.6504 Y3.2881
G01 X14.7155 Y3.2399
G01 X14.7871 Y3.1970
G01 X14.8625 Y3.1613
G01 X14.9435 Y3.1326
G01 X15.0221 Y3.1130
G01 X15.1071 Y3.1005
G01 X15.1904 Y3.0967
G01 X15.2713 Y3.1007
G01 X15.3364 Y3.1103
G00 Z2.0000
G00 X13.1807 Y13.0350
G01 F60.00
G01 Z-0.0000
G01 F200.00
G01 X14.5578 Y11.6580
G01 X14.5578 Y6.1613
G01 X14.5387 Y6.1470
G01 X14.5300 Y6.1399
G01 X14.4634 Y6.0795
G01 X14.4516 Y6.0674
G01 X14.3951 Y6.0050
G01 X14.3845 Y5.9918
G01 X14.3312 Y5.9195
G01 X14.3252 Y5.9099
G01 X14.2820 Y5.8377
G01 X14.2742 Y5.8226
G01 X14.2360 Y5.7413
G01 X14.2320 Y5.7308
G01 X14.2019 Y5.6461
G01 X14.1799 Y5.5590
G01 X14.1774 Y5.5480
G01 X14.1754 Y5.5369
G01 X14.1625 Y5.4480
G01 X14.1579 Y5.3583
G01 X14.1576 Y5.3470
G01 X14.1576 Y3.9470
G01 X14.1617 Y3.8573
G01 X14.1625 Y3.8460
G01 X14.1639 Y3.8348
G01 X14.1774 Y3.7460
G01 X14.1989 Y3.6588
G01 X14.2019 Y3.6479
G01 X14.2055 Y3.6372
G01 X14.2360 Y3.5527
G01 X14.2406 Y3.5424
G01 X14.2766 Y3.4663
G01 X14.2848 Y3.4515
G01 X14.3252 Y3.3841
G01 X14.3312 Y3.3746
G01 X14.3377 Y3.3653
G01 X14.3915 Y3.2933
G01 X14.3988 Y3.2848
G01 X14.4594 Y3.2184
G01 X14.5258 Y3.1579
G01 X14.5343 Y3.1505
G01 X14.5432 Y3.1436
G01 X14.6155 Y3.0903
G01 X14.6924 Y3.0438
G01 X14.7023 Y3.0383
G01 X14.7833 Y2.9996
G01 X14.7937 Y2.9950
G01 X14.8042 Y2.9910
G01 X14.8889 Y2.9610
G01 X14.8998 Y2.9580
G01 X14.9870 Y2.9364
G01 X15.0758 Y2.9230
G01 X15.0870 Y2.9216
G01 X15.0982 Y2.9207
G01 X15.1880 Y2.9166
G01 X15.2717 Y2.9204
G01 X16.3977 Y1.7946
G01 X16.4394 Y1.7570
G01 X16.4483 Y1.7501
G01 X16.4891 Y1.7202
G01 X16.5323 Y1.6939
G01 X16.5422 Y1.6884
G01 X16.5878 Y1.6665
G01 X16.6033 Y1.6598
G01 X16.6563 Y1.6411
G01 X16.6672 Y1.6381
G01 X16.7163 Y1.6261
G01 X16.7274 Y1.6241
G01 X16.7775 Y1.6170
G01 X16.8336 Y1.6140
G01 X18.5410 Y1.6140
G01 X18.5523 Y1.6142
G01 X18.6028 Y1.6170
G01 X18.6529 Y1.6241
G01 X18.6640 Y1.6261
G01 X18.6750 Y1.6285
G01 X18.7240 Y1.6411
G01 X18.7717 Y1.6579
G01 X18.7874 Y1.6642
G01 X18.8331 Y1.6858
G01 X18.8479 Y1.6939
G01 X18.8816 Y1.7141
G01 X18.8912 Y1.7202
G01 X18.9004 Y1.7267
G01 X18.9408 Y1.7570
G01 X18.9826 Y1.7946
G01 X19.8891 Y2.7010
G01 X19.9270 Y2.7425
G01 X19.9376 Y2.7557
G01 X19.9610 Y2.7873
G01 X19.9675 Y2.7965
G01 X19.9735 Y2.8060
G01 X19.9993 Y2.8496
G01 X20.0044 Y2.8596
G01 X20.0257 Y2.9055
G01 X20.0430 Y2.9530
G01 X20.0466 Y2.9637
G01 X20.0591 Y3.0127
G01 X20.0616 Y3.0237
G01 X20.0635 Y3.0348
G01 X20.0700 Y3.0792
G01 X20.0715 Y3.0961
G01 X20.0737 Y3.1466
G01 X20.0737 Y13.1245
G01 X20.0734 Y13.1358
G01 X20.0707 Y13.1863
G01 X20.0635 Y13.2363
G01 X20.0616 Y13.2475
G01 X20.0591 Y13.2585
G01 X20.0466 Y13.3074
G01 X20.0430 Y13.3182
G01 X20.0257 Y13.3657
G01 X20.0044 Y13.4115
G01 X19.9993 Y13.4216
G01 X19.9937 Y13.4314
G01 X19.9675 Y13.4746
G01 X19.9610 Y13.4839
G01 X19.9306 Y13.5243
G01 X19.8931 Y13.5661
G01 X19.5330 Y13.9263
G01 X19.5349 Y13.9397
G01 X19.5360 Y13.9509
G01 X19.5401 Y14.0337
G01 X19.5404 Y14.0450
G01 X19.5401 Y14.0563
G01 X19.5360 Y14.1391
G01 X19.5349 Y14.1503
G01 X19.5330 Y14.1637
G01 X22.1101 Y16.7409
G01 X22.1179 Y16.7490
G01 X22.1516 Y16.7867
G01 X22.1586 Y16.7956
G01 X22.1885 Y16.8364
G01 X22.1945 Y16.8459
G01 X22.2203 Y16.8894
G01 X22.2421 Y16.9350
G01 X22.2467 Y16.9453
G01 X22.2508 Y16.9558
G01 X22.2675 Y17.0035
G01 X22.2801 Y17.0525
G01 X22.2826 Y17.0635
G01 X22.2845 Y17.0747
G01 X22.2916 Y17.1247
G01 X22.2944 Y17.1752
G01 X22.2947 Y17.1865
G01 X22.2947 Y28.4295
G01 X22.2925 Y28.4800
G01 X22.2910 Y28.4969
G01 X22.2826 Y28.5525
G01 X22.2706 Y28.6016
G01 X22.2675 Y28.6125
G01 X22.2640 Y28.6232
G01 X22.2467 Y28.6707
G01 X22.2253 Y28.7165
G01 X22.2203 Y28.7266
G01 X22.1945 Y28.7701
G01 X22.1885 Y28.7797
G01 X22.1820 Y28.7889
G01 X22.1586 Y28.8204
G01 X22.1480 Y28.8336
G01 X22.1101 Y28.8751
G01 X20.9504 Y30.0348
G01 X20.9504 Y30.8740
G01 X20.9501 Y30.8853
G01 X20.9454 Y30.9750
G01 X20.9325 Y31.0639
G01 X20.9306 Y31.0750
G01 X20.9281 Y31.0860
G01 X20.9090 Y31.1622
G01 X20.9060 Y31.1731
G01 X20.9025 Y31.1838
G01 X20.8760 Y31.2578
G01 X20.8720 Y31.2683
G01 X20.8674 Y31.2786
G01 X20.8287 Y31.3597
G01 X20.7828 Y31.4369
G01 X20.7767 Y31.4465
G01 X20.7702 Y31.4557
G01 X20.7165 Y31.5277
G01 X20.6564 Y31.5944
G01 X20.6486 Y31.6026
G01 X20.6404 Y31.6104
G01 X20.5737 Y31.6705
G01 X20.5648 Y31.6775
G01 X20.4925 Y31.7307
G01 X20.4155 Y31.7772
G01 X20.4057 Y31.7827
G01 X20.3246 Y31.8214
G01 X20.3091 Y31.8281
G01 X20.2298 Y31.8565
G01 X20.2191 Y31.8600
G01 X20.2082 Y31.8630
G01 X20.1210 Y31.8846
G01 X20.0322 Y31.8981
G01 X20.0210 Y31.8994
G01 X19.9313 Y31.9041
G01 X19.9200 Y31.9044
G01 X19.9087 Y31.9041
G01 X19.8190 Y31.8994
G01 X19.7301 Y31.8865
G01 X19.7190 Y31.8846
G01 X19.7080 Y31.8821
G01 X19.6318 Y31.8630
G01 X19.6209 Y31.8600
G01 X19.6102 Y31.8565
G01 X19.5257 Y31.8260
G01 X19.4444 Y31.7878
G01 X19.4343 Y31.7827
G01 X19.4245 Y31.7772
G01 X19.3475 Y31.7307
G01 X19.3383 Y31.7242
G01 X19.2663 Y31.6705
G01 X19.2578 Y31.6631
G01 X19.1914 Y31.6026
G01 X19.1309 Y31.5362
G01 X19.1235 Y31.5277
G01 X19.1165 Y31.5188
G01 X19.0633 Y31.4465
G01 X19.0572 Y31.4369
G01 X19.0140 Y31.3647
G01 X19.0062 Y31.3496
G01 X18.9680 Y31.2683
G01 X18.9640 Y31.2578
G01 X18.9340 Y31.1731
G01 X18.9310 Y31.1622
G01 X18.9094 Y31.0750
G01 X18.8959 Y30.9862
G01 X18.8946 Y30.9750
G01 X18.8937 Y30.9637
G01 X18.8896 Y30.8740
G01 X18.8896 Y29.4740
G01 X18.8937 Y29.3843
G01 X18.8946 Y29.3730
G01 X18.8959 Y29.3618
G01 X18.9094 Y29.2730
G01 X18.9310 Y29.1858
G01 X18.9340 Y29.1749
G01 X18.9375 Y29.1642
G01 X18.9680 Y29.0797
G01 X19.0062 Y28.9984
G01 X19.0113 Y28.9883
G01 X19.0168 Y28.9785
G01 X19.0633 Y28.9016
G01 X19.0698 Y28.8923
G01 X19.1235 Y28.8203
G01 X19.1836 Y28.7536
G01 X19.1914 Y28.7454
G01 X19.1996 Y28.7376
G01 X19.2663 Y28.6775
G01 X19.3383 Y28.6238
G01 X19.3475 Y28.6173
G01 X19.3571 Y28.6112
G01 X19.4293 Y28.5680
G01 X19.4444 Y28.5602
G01 X19.5154 Y28.5266
G01 X19.5257 Y28.5220
G01 X19.5362 Y28.5180
G01 X19.6209 Y28.4880
G01 X19.6318 Y28.4850
G01 X19.7190 Y28.4634
G01 X19.8078 Y28.4500
G01 X19.8190 Y28.4486
G01 X19.8303 Y28.4477
G01 X19.9200 Y28.4436
G01 X19.9313 Y28.4439
G01 X20.0154 Y28.4481
G01 X20.0322 Y28.4500
G01 X20.1099 Y28.4615
G01 X20.1210 Y28.4634
G01 X20.1320 Y28.4659
G01 X20.2191 Y28.4880
G01 X20.2298 Y28.4915
G01 X20.3091 Y28.5199
G01 X20.3246 Y28.5266
G01 X20.3956 Y28.5602
G01 X20.4107 Y28.5680
G01 X20.4829 Y28.6112
G01 X20.4925 Y28.6173
G01 X20.5461 Y28.6567
G01 X21.0343 Y28.1685
G01 X21.0343 Y17.4475
G01 X18.6417 Y15.0550
G01 X18.6283 Y15.0569
G01 X18.6171 Y15.0580
G01 X18.5343 Y15.0621
G01 X18.5230 Y15.0624
G01 X18.4345 Y15.0583
G01 X18.4233 Y15.0575
G01 X18.4121 Y15.0561
G01 X18.3245 Y15.0429
G01 X18.2385 Y15.0216
G01 X18.2223 Y15.0169
G01 X18.1442 Y14.9890
G01 X18.1337 Y14.9850
G01 X18.0535 Y14.9473
G01 X18.0434 Y14.9423
G01 X18.0336 Y14.9367
G01 X17.9578 Y14.8909
G01 X17.8865 Y14.8384
G01 X17.8776 Y14.8315
G01 X17.8690 Y14.8241
G01 X17.8118 Y14.7722
G01 X17.8036 Y14.7644
G01 X17.7958 Y14.7562
G01 X17.7439 Y14.6990
G01 X17.7365 Y14.6904
G01 X17.7296 Y14.6815
G01 X17.6771 Y14.6102
G01 X17.6710 Y14.6007
G01 X17.6257 Y14.5246
G01 X17.5876 Y14.4447
G01 X17.5830 Y14.4343
G01 X17.5790 Y14.4238
G01 X17.5494 Y14.3403
G01 X17.5464 Y14.3295
G01 X17.5251 Y14.2435
G01 X17.5119 Y14.1559
G01 X17.5105 Y14.1447
G01 X17.5059 Y14.0563
G01 X17.5056 Y14.0450
G01 X17.5059 Y14.0337
G01 X17.5105 Y13.9453
G01 X17.5232 Y13.8576
G01 X17.5251 Y13.8465
G01 X17.5276 Y13.8355
G01 X17.5494 Y13.7497
G01 X17.5790 Y13.6662
G01 X17.5830 Y13.6557
G01 X17.6207 Y13.5755
G01 X17.6257 Y13.5654
G01 X17.6313 Y13.5556
G01 X17.6771 Y13.4798
G01 X17.7296 Y13.4085
G01 X17.7365 Y13.3996
G01 X17.7439 Y13.3910
G01 X17.7996 Y13.3296
G01 X17.8118 Y13.3178
G01 X17.8776 Y13.2585
G01 X17.9485 Y13.2056
G01 X17.9578 Y13.1991
G01 X17.9673 Y13.1930
G01 X18.0336 Y13.1533
G01 X18.0434 Y13.1477
G01 X18.0535 Y13.1427
G01 X18.1337 Y13.1050
G01 X18.2169 Y13.0750
G01 X18.2277 Y13.0714
G01 X18.2385 Y13.0684
G01 X18.3245 Y13.0471
G01 X18.3356 Y13.0452
G01 X18.4233 Y13.0325
G01 X18.5117 Y13.0279
G01 X18.5230 Y13.0276
G01 X18.5343 Y13.0279
G01 X18.6171 Y13.0320
G01 X18.6283 Y13.0331
G01 X18.6417 Y13.0350
G01 X18.8133 Y12.8635
G01 X18.8133 Y3.4077
G01 X18.2800 Y2.8744
G01 X17.1003 Y2.8744
G01 X16.2027 Y3.7719
G01 X16.2134 Y3.8460
G01 X16.2181 Y3.9357
G01 X16.2184 Y3.9470
G01 X16.2184 Y5.3470
G01 X16.2181 Y5.3583
G01 X16.2134 Y5.4480
G01 X16.2120 Y5.4592
G01 X16.1996 Y5.5425
G01 X16.1961 Y5.5590
G01 X16.1740 Y5.6461
G01 X16.1440 Y5.7308
G01 X16.1399 Y5.7413
G01 X16.1354 Y5.7516
G01 X16.0967 Y5.8327
G01 X16.0911 Y5.8425
G01 X16.0478 Y5.9147
G01 X16.0382 Y5.9287
G01 X15.9845 Y6.0007
G01 X15.9771 Y6.0092
G01 X15.9205 Y6.0716
G01 X15.9084 Y6.0834
G01 X15.8460 Y6.1399
G01 X15.8373 Y6.1470
G01 X15.8182 Y6.1613
G01 X15.8182 Y11.9190
G01 X15.8160 Y11.9695
G01 X15.8151 Y11.9808
G01 X15.8138 Y11.9920
G01 X15.8061 Y12.0420
G01 X15.7926 Y12.0965
G01 X15.7875 Y12.1127
G01 X15.7702 Y12.1602
G01 X15.7488 Y12.2060
G01 X15.7438 Y12.2161
G01 X15.7382 Y12.2259
G01 X15.7120 Y12.2692
G01 X15.6821 Y12.3099
G01 X15.6715 Y12.3231
G01 X15.6375 Y12.3606
G01 X14.0720 Y13.9263
G01 X14.0739 Y13.9397
G01 X14.0750 Y13.9509
G01 X14.0791 Y14.0337
G01 X14.0794 Y14.0450
G01 X14.0791 Y14.0563
G01 X14.0745 Y14.1447
G01 X14.0731 Y14.1559
G01 X14.0599 Y14.2435
G01 X14.0386 Y14.3295
G01 X14.0339 Y14.3457
G01 X14.0060 Y14.4238
G01 X14.0020 Y14.4343
G01 X13.9643 Y14.5145
G01 X13.9593 Y14.5246
G01 X13.9537 Y14.5344
G01 X13.9079 Y14.6102
G01 X13.8554 Y14.6815
G01 X13.8485 Y14.6904
G01 X13.8411 Y14.6990
G01 X13.7854 Y14.7604
G01 X13.7732 Y14.7722
G01 X13.7074 Y14.8315
G01 X13.6365 Y14.8844
G01 X13.6272 Y14.8909
G01 X13.6177 Y14.8970
G01 X13.5416 Y14.9423
G01 X13.4617 Y14.9804
G01 X13.4513 Y14.9850
G01 X13.4408 Y14.9890
G01 X13.3573 Y15.0186
G01 X13.2715 Y15.0404
G01 X13.2605 Y15.0429
G01 X13.2494 Y15.0448
G01 X13.1729 Y15.0561
G01 X13.1617 Y15.0575
G01 X13.1505 Y15.0583
G01 X13.0620 Y15.0624
G01 X12.9735 Y15.0583
G01 X12.9623 Y15.0575
G01 X12.9511 Y15.0561
G01 X12.8635 Y15.0429
G01 X12.7775 Y15.0216
G01 X12.7667 Y15.0186
G01 X12.7559 Y15.0150
G01 X12.6727 Y14.9850
G01 X12.6623 Y14.9804
G01 X12.5824 Y14.9423
G01 X12.5063 Y14.8970
G01 X12.4968 Y14.8909
G01 X12.4255 Y14.8384
G01 X12.4166 Y14.8315
G01 X12.3508 Y14.7722
G01 X12.3426 Y14.7644
G01 X12.3348 Y14.7562
G01 X12.2755 Y14.6904
G01 X12.2226 Y14.6195
G01 X12.2161 Y14.6102
G01 X12.2100 Y14.6007
G01 X12.1647 Y14.5246
G01 X12.1266 Y14.4447
G01 X12.1220 Y14.4343
G01 X12.0920 Y14.3511
G01 X12.0884 Y14.3403
G01 X12.0854 Y14.3295
G01 X12.0641 Y14.2435
G01 X12.0509 Y14.1559
G01 X12.0495 Y14.1447
G01 X12.0487 Y14.1335
G01 X12.0446 Y14.0450
G01 X12.0487 Y13.9565
G01 X12.0495 Y13.9453
G01 X12.0622 Y13.8576
G01 X12.0641 Y13.8465
G01 X12.0666 Y13.8355
G01 X12.0884 Y13.7497
G01 X12.0920 Y13.7389
G01 X12.1220 Y13.6557
G01 X12.1266 Y13.6453
G01 X12.1647 Y13.5654
G01 X12.2100 Y13.4893
G01 X12.2161 Y13.4798
G01 X12.2226 Y13.4705
G01 X12.2755 Y13.3996
G01 X12.3348 Y13.3338
G01 X12.3426 Y13.3256
G01 X12.4080 Y13.2659
G01 X12.4166 Y13.2585
G01 X12.4255 Y13.2516
G01 X12.4968 Y13.1991
G01 X12.5726 Y13.1533
G01 X12.5824 Y13.1477
G01 X12.5925 Y13.1427
G01 X12.6727 Y13.1050
G01 X12.7559 Y13.0750
G01 X12.7667 Y13.0714
G01 X12.7775 Y13.0684
G01 X12.8635 Y13.0471
G01 X12.8746 Y13.0452
G01 X12.9623 Y13.0325
G01 X13.0507 Y13.0279
G01 X13.0620 Y13.0276
G01 X13.0733 Y13.0279
G01 X13.1561 Y13.0320
G01 X13.1673 Y13.0331
G01 X13.1807 Y13.0350
G00 Z2.0000
G00 X13.2123 Y13.1307
G01 F60.00
G01 Z-0.0000
G01 F200.00
G01 X14.6478 Y11.6953
G01 X14.6478 Y6.1160
G01 X14.5914 Y6.0739
G01 X14.5280 Y6.0167
G01 X14.5183 Y6.0070
G01 X14.4655 Y5.9488
G01 X14.4568 Y5.9382
G01 X14.4061 Y5.8695
G01 X14.3620 Y5.7963
G01 X14.3555 Y5.7842
G01 X14.3192 Y5.7069
G01 X14.2881 Y5.6200
G01 X14.2656 Y5.5305
G01 X14.2525 Y5.4426
G01 X14.2516 Y5.4323
G01 X14.2476 Y5.3470
G01 X14.2476 Y3.9470
G01 X14.2516 Y3.8617
G01 X14.2529 Y3.8480
G01 X14.2656 Y3.7635
G01 X14.2881 Y3.6740
G01 X14.3192 Y3.5871
G01 X14.3570 Y3.5068
G01 X14.3620 Y3.4977
G01 X14.4024 Y3.4304
G01 X14.4100 Y3.4189
G01 X14.4610 Y3.3504
G01 X14.5230 Y3.2820
G01 X14.5862 Y3.2246
G01 X14.5968 Y3.2158
G01 X14.6655 Y3.1651
G01 X14.7447 Y3.1177
G01 X14.8281 Y3.0782
G01 X14.9085 Y3.0493
G01 X14.9216 Y3.0453
G01 X14.9978 Y3.0262
G01 X15.0079 Y3.0241
G01 X15.0958 Y3.0111
G01 X15.1845 Y3.0067
G01 X15.1948 Y3.0068
G01 X15.2767 Y3.0108
G01 X15.3048 Y3.0146
G01 X16.4597 Y1.8598
G01 X16.4965 Y1.8266
G01 X16.5391 Y1.7950
G01 X16.5846 Y1.7677
G01 X16.6262 Y1.7479
G01 X16.6357 Y1.7438
G01 X16.6824 Y1.7272
G01 X16.7339 Y1.7143
G01 X16.7863 Y1.7066
G01 X16.8358 Y1.7040
G01 X18.5410 Y1.7040
G01 X18.5940 Y1.7066
G01 X18.6397 Y1.7132
G01 X18.6531 Y1.7158
G01 X18.6979 Y1.7272
G01 X18.7414 Y1.7426
G01 X18.7540 Y1.7479
G01 X18.7926 Y1.7662
G01 X18.8017 Y1.7711
G01 X18.8354 Y1.7913
G01 X18.8468 Y1.7990
G01 X18.8837 Y1.8266
G01 X18.9206 Y1.8598
G01 X19.8255 Y2.7647
G01 X19.8566 Y2.7987
G01 X19.8632 Y2.8066
G01 X19.8887 Y2.8409
G01 X19.8963 Y2.8523
G01 X19.9199 Y2.8920
G01 X19.9426 Y2.9399
G01 X19.9604 Y2.9898
G01 X19.9718 Y3.0345
G01 X19.9745 Y3.0480
G01 X19.9807 Y3.0903
G01 X19.9816 Y3.1005
G01 X19.9837 Y3.1466
G01 X19.9835 Y13.1314
G01 X19.9811 Y13.1775
G01 X19.9745 Y13.2231
G01 X19.9718 Y13.2366
G01 X19.9604 Y13.2813
G01 X19.9426 Y13.3312
G01 X19.9230 Y13.3730
G01 X19.9165 Y13.3851
G01 X19.8963 Y13.4188
G01 X19.8907 Y13.4275
G01 X19.8611 Y13.4672
G01 X19.8279 Y13.5040
G01 X19.4373 Y13.8947
G01 X19.4459 Y13.9541
G01 X19.4504 Y14.0450
G01 X19.4459 Y14.1359
G01 X19.4373 Y14.1953
G01 X22.0489 Y16.8070
G01 X22.0821 Y16.8438
G01 X22.1136 Y16.8864
G01 X22.1409 Y16.9318
G01 X22.1608 Y16.9735
G01 X22.1660 Y16.9862
G01 X22.1804 Y17.0264
G01 X22.1833 Y17.0363
G01 X22.1928 Y17.0744
G01 X22.1949 Y17.0845
G01 X22.2012 Y17.1267
G01 X22.2026 Y17.1404
G01 X22.2047 Y17.1865
G01 X22.2047 Y28.4295
G01 X22.2026 Y28.4756
G01 X22.2017 Y28.4859
G01 X22.1943 Y28.5349
G01 X22.1833 Y28.5797
G01 X22.1793 Y28.5929
G01 X22.1636 Y28.6363
G01 X22.1409 Y28.6842
G01 X22.1173 Y28.7238
G01 X22.1097 Y28.7353
G01 X22.0842 Y28.7695
G01 X22.0776 Y28.7774
G01 X22.0465 Y28.8115
G01 X20.8604 Y29.9976
G01 X20.8604 Y30.8774
G01 X20.8559 Y30.9662
G01 X20.8435 Y31.0507
G01 X20.8408 Y31.0642
G01 X20.8217 Y31.1404
G01 X20.8189 Y31.1503
G01 X20.7888 Y31.2339
G01 X20.7524 Y31.3112
G01 X20.7460 Y31.3233
G01 X20.7056 Y31.3907
G01 X20.6980 Y31.4021
G01 X20.6469 Y31.4706
G01 X20.5897 Y31.5340
G01 X20.5800 Y31.5437
G01 X20.5166 Y31.6009
G01 X20.4425 Y31.6559
G01 X20.3633 Y31.7034
G01 X20.2862 Y31.7400
G01 X20.2767 Y31.7441
G01 X20.1930 Y31.7739
G01 X20.1035 Y31.7963
G01 X20.0122 Y31.8099
G01 X19.9200 Y31.8144
G01 X19.8278 Y31.8099
G01 X19.7365 Y31.7963
G01 X19.6470 Y31.7739
G01 X19.5665 Y31.7453
G01 X19.5538 Y31.7400
G01 X19.4828 Y31.7064
G01 X19.4707 Y31.7000
G01 X19.3975 Y31.6559
G01 X19.3288 Y31.6052
G01 X19.3182 Y31.5965
G01 X19.2550 Y31.5390
G01 X19.1931 Y31.4706
G01 X19.1381 Y31.3965
G01 X19.0906 Y31.3173
G01 X19.0512 Y31.2339
G01 X19.0201 Y31.1470
G01 X18.9977 Y31.0575
G01 X18.9850 Y30.9730
G01 X18.9836 Y30.9593
G01 X18.9796 Y30.8740
G01 X18.9796 Y29.4740
G01 X18.9836 Y29.3887
G01 X18.9850 Y29.3750
G01 X18.9977 Y29.2905
G01 X19.0183 Y29.2076
G01 X19.0222 Y29.1945
G01 X19.0512 Y29.1141
G01 X19.0876 Y29.0368
G01 X19.0940 Y29.0247
G01 X19.1381 Y28.9516
G01 X19.1931 Y28.8774
G01 X19.2503 Y28.8140
G01 X19.2600 Y28.8043
G01 X19.3234 Y28.7471
G01 X19.3919 Y28.6961
G01 X19.4033 Y28.6884
G01 X19.4737 Y28.6463
G01 X19.4828 Y28.6416
G01 X19.5538 Y28.6080
G01 X19.5665 Y28.6027
G01 X19.6470 Y28.5741
G01 X19.7365 Y28.5517
G01 X19.8278 Y28.5381
G01 X19.9131 Y28.5338
G01 X19.9269 Y28.5338
G01 X20.0053 Y28.5376
G01 X20.0156 Y28.5385
G01 X20.1035 Y28.5517
G01 X20.1864 Y28.5723
G01 X20.1995 Y28.5763
G01 X20.2735 Y28.6027
G01 X20.2830 Y28.6065
G01 X20.3633 Y28.6447
G01 X20.4396 Y28.6902
G01 X20.4481 Y28.6961
G01 X20.5139 Y28.7449
G01 X20.5218 Y28.7516
G01 X20.5515 Y28.7785
G01 X21.1243 Y28.2058
G01 X21.1243 Y17.4102
G01 X18.6733 Y14.9593
G01 X18.6139 Y14.9679
G01 X18.5299 Y14.9722
G01 X18.5161 Y14.9722
G01 X18.4355 Y14.9682
G01 X18.4253 Y14.9671
G01 X18.3421 Y14.9546
G01 X18.2538 Y14.9325
G01 X18.1681 Y14.9018
G01 X18.0920 Y14.8660
G01 X18.0798 Y14.8595
G01 X18.0078 Y14.8161
G01 X17.9401 Y14.7661
G01 X17.9295 Y14.7574
G01 X17.8722 Y14.7055
G01 X17.8625 Y14.6958
G01 X17.8106 Y14.6385
G01 X17.8019 Y14.6279
G01 X17.7519 Y14.5602
G01 X17.7051 Y14.4822
G01 X17.6690 Y14.4062
G01 X17.6637 Y14.3935
G01 X17.6355 Y14.3142
G01 X17.6134 Y14.2259
G01 X17.6001 Y14.1359
G01 X17.5958 Y14.0519
G01 X17.5958 Y14.0381
G01 X17.6001 Y13.9541
G01 X17.6122 Y13.8708
G01 X17.6149 Y13.8574
G01 X17.6355 Y13.7758
G01 X17.6662 Y13.6901
G01 X17.7020 Y13.6140
G01 X17.7085 Y13.6018
G01 X17.7519 Y13.5298
G01 X17.8019 Y13.4621
G01 X17.8106 Y13.4515
G01 X17.8648 Y13.3917
G01 X17.8722 Y13.3845
G01 X17.9347 Y13.3281
G01 X18.0021 Y13.2779
G01 X18.0136 Y13.2702
G01 X18.0858 Y13.2271
G01 X18.1618 Y13.1910
G01 X18.1745 Y13.1857
G01 X18.2505 Y13.1586
G01 X18.2604 Y13.1557
G01 X18.3421 Y13.1354
G01 X18.4253 Y13.1229
G01 X18.4355 Y13.1218
G01 X18.5161 Y13.1178
G01 X18.5299 Y13.1178
G01 X18.6139 Y13.1221
G01 X18.6733 Y13.1307
G01 X18.9033 Y12.9008
G01 X18.9033 Y3.3704
G01 X18.3173 Y2.7844
G01 X17.0630 Y2.7844
G01 X16.1051 Y3.7422
G01 X16.1109 Y3.7669
G01 X16.1235 Y3.8514
G01 X16.1244 Y3.8617
G01 X16.1284 Y3.9470
G01 X16.1284 Y5.3470
G01 X16.1239 Y5.4392
G01 X16.1115 Y5.5237
G01 X16.1088 Y5.5372
G01 X16.0879 Y5.6200
G01 X16.0568 Y5.7069
G01 X16.0173 Y5.7903
G01 X15.9718 Y5.8666
G01 X15.9659 Y5.8751
G01 X15.9149 Y5.9436
G01 X15.8529 Y6.0120
G01 X15.7846 Y6.0739
G01 X15.7282 Y6.1160
G01 X15.7282 Y11.9190
G01 X15.7261 Y11.9651
G01 X15.7247 Y11.9788
G01 X15.7178 Y12.0244
G01 X15.7059 Y12.0725
G01 X15.7028 Y12.0824
G01 X15.6871 Y12.1258
G01 X15.6675 Y12.1675
G01 X15.6610 Y12.1797
G01 X15.6371 Y12.2191
G01 X15.6098 Y12.2563
G01 X15.6011 Y12.2669
G01 X15.5724 Y12.2986
G01 X13.9763 Y13.8947
G01 X13.9849 Y13.9541
G01 X13.9892 Y14.0381
G01 X13.9892 Y14.0519
G01 X13.9852 Y14.1325
G01 X13.9841 Y14.1427
G01 X13.9716 Y14.2259
G01 X13.9513 Y14.3076
G01 X13.9484 Y14.3175
G01 X13.9213 Y14.3935
G01 X13.9160 Y14.4062
G01 X13.8799 Y14.4822
G01 X13.8368 Y14.5544
G01 X13.8291 Y14.5659
G01 X13.7789 Y14.6333
G01 X13.7178 Y14.7008
G01 X13.6503 Y14.7619
G01 X13.5829 Y14.8121
G01 X13.5714 Y14.8198
G01 X13.4992 Y14.8629
G01 X13.4232 Y14.8990
G01 X13.4105 Y14.9043
G01 X13.3312 Y14.9325
G01 X13.2429 Y14.9546
G01 X13.1597 Y14.9671
G01 X13.1460 Y14.9684
G01 X13.0620 Y14.9724
G01 X12.9780 Y14.9684
G01 X12.9643 Y14.9671
G01 X12.8845 Y14.9552
G01 X12.8744 Y14.9531
G01 X12.7928 Y14.9325
G01 X12.7071 Y14.9018
G01 X12.6248 Y14.8629
G01 X12.5468 Y14.8161
G01 X12.4737 Y14.7619
G01 X12.4062 Y14.7008
G01 X12.3451 Y14.6333
G01 X12.2909 Y14.5602
G01 X12.2441 Y14.4822
G01 X12.2052 Y14.3999
G01 X12.1745 Y14.3142
G01 X12.1524 Y14.2259
G01 X12.1391 Y14.1359
G01 X12.1346 Y14.0450
G01 X12.1391 Y13.9541
G01 X12.1518 Y13.8675
G01 X12.1539 Y13.8574
G01 X12.1745 Y13.7758
G01 X12.2052 Y13.6901
G01 X12.2441 Y13.6078
G01 X12.2909 Y13.5298
G01 X12.3451 Y13.4567
G01 X12.4062 Y13.3892
G01 X12.4737 Y13.3281
G01 X12.5439 Y13.2758
G01 X12.5526 Y13.2702
G01 X12.6248 Y13.2271
G01 X12.7071 Y13.1882
G01 X12.7928 Y13.1575
G01 X12.8777 Y13.1361
G01 X12.8878 Y13.1342
G01 X12.9711 Y13.1221
G01 X13.0586 Y13.1176
G01 X13.0689 Y13.1178
G01 X13.1495 Y13.1218
G01 X13.1597 Y13.1229
G01 X13.2123 Y13.1307
G00 Z2.0000
G00 X13.8494 Y19.9624
G01 F60.00
G01 Z-0.0000
G01 F200.00
G01 X12.2746 Y19.9624
G01 X12.2649 Y19.9614
G01 X12.2555 Y19.9586
G01 X12.2500 Y19.9559
G01 X12.2458 Y19.9533
G01 X12.2384 Y19.9469
G01 X12.2330 Y19.9402
G01 X12.2284 Y19.9315
G01 X12.2256 Y19.9222
G01 X12.2246 Y19.9124
G01 X12.2246 Y18.3376
G01 X12.2256 Y18.3279
G01 X12.2268 Y18.3231
G01 X12.2289 Y18.3173
G01 X12.2337 Y18.3088
G01 X12.2401 Y18.3014
G01 X12.2479 Y18.2954
G01 X12.2566 Y18.2910
G01 X12.2661 Y18.2883
G01 X12.2746 Y18.2876
G01 X13.8494 Y18.2876
G01 X13.8555 Y18.2880
G01 X13.8604 Y18.2888
G01 X13.8674 Y18.2910
G01 X13.8751 Y18.2947
G01 X13.8821 Y18.2997
G01 X13.8873 Y18.3050
G01 X13.8923 Y18.3119
G01 X13.8956 Y18.3185
G01 X13.8979 Y18.3255
G01 X13.8992 Y18.3327
G01 X13.8994 Y18.6748
G01 X16.2902 Y18.6748
G01 X16.2902 Y12.5053
G01 X16.2925 Y12.4599
G01 X16.2989 Y12.4174
G01 X16.3090 Y12.3769
G01 X16.3245 Y12.3330
G01 X16.3434 Y12.2930
G01 X16.3648 Y12.2572
G01 X16.3932 Y12.2187
G01 X16.4221 Y12.1869
G01 X17.2379 Y11.3711
G01 X17.2379 Y6.0675
G01 X17.2146 Y6.0534
G01 X17.1496 Y6.0051
G01 X17.0877 Y5.9492
G01 X17.0307 Y5.8865
G01 X16.9817 Y5.8205
G01 X16.9381 Y5.7479
G01 X16.9024 Y5.6724
G01 X16.8743 Y5.5939
G01 X16.8538 Y5.5117
G01 X16.8418 Y5.4304
G01 X16.8377 Y5.3470
G01 X16.8377 Y3.9470
G01 X16.8418 Y3.8637
G01 X16.8541 Y3.7811
G01 X16.8743 Y3.7002
G01 X16.9024 Y3.6216
G01 X16.9393 Y3.5440
G01 X16.9824 Y3.4725
G01 X17.0307 Y3.4075
G01 X17.0851 Y3.3475
G01 X17.1486 Y3.2896
G01 X17.2136 Y3.2413
G01 X17.2872 Y3.1970
G01 X17.3627 Y3.1613
G01 X17.4413 Y3.1332
G01 X17.5222 Y3.1130
G01 X17.6048 Y3.1007
G01 X17.6881 Y3.0966
G01 X17.7715 Y3.1007
G01 X17.8564 Y3.1135
G01 X17.9350 Y3.1332
G01 X18.0113 Y3.1605
G01 X18.0890 Y3.1970
G01 X18.1626 Y3.2413
G01 X18.2276 Y3.2896
G01 X18.2877 Y3.3440
G01 X18.3455 Y3.4075
G01 X18.3965 Y3.4766
G01 X18.4381 Y3.5461
G01 X18.4728 Y3.6193
G01 X18.5019 Y3.7002
G01 X18.5226 Y3.7835
G01 X18.5344 Y3.8637
G01 X18.5385 Y3.9458
G01 X18.5384 Y5.3495
G01 X18.5341 Y5.4328
G01 X18.5222 Y5.5129
G01 X18.5025 Y5.5915
G01 X18.4738 Y5.6724
G01 X18.4375 Y5.7490
G01 X18.3938 Y5.8215
G01 X18.3455 Y5.8865
G01 X18.2903 Y5.9474
G01 X18.2266 Y6.0051
G01 X18.1616 Y6.0534
G01 X18.1383 Y6.0675
G01 X18.1383 Y11.5576
G01 X18.1361 Y11.6017
G01 X18.1299 Y11.6442
G01 X18.1182 Y11.6906
G01 X18.1040 Y11.7299
G01 X18.0863 Y11.7676
G01 X18.0624 Y11.8077
G01 X18.0345 Y11.8450
G01 X18.0064 Y11.8759
G01 X17.1906 Y12.6917
G01 X17.1906 Y18.6748
G01 X17.6856 Y18.6748
G01 X17.6859 Y18.3327
G01 X17.6874 Y18.3243
G01 X17.6904 Y18.3162
G01 X17.6940 Y18.3098
G01 X17.6994 Y18.3031
G01 X17.7048 Y18.2982
G01 X17.7120 Y18.2935
G01 X17.7188 Y18.2905
G01 X17.7271 Y18.2883
G01 X17.7356 Y18.2876
G01 X19.3104 Y18.2876
G01 X19.3165 Y18.2880
G01 X19.3237 Y18.2894
G01 X19.3295 Y18.2914
G01 X19.3350 Y18.2941
G01 X19.3402 Y18.2974
G01 X19.3458 Y18.3023
G01 X19.3498 Y18.3068
G01 X19.3533 Y18.3119
G01 X19.3561 Y18.3173
G01 X19.3582 Y18.3231
G01 X19.3599 Y18.3303
G01 X19.3604 Y18.3364
G01 X19.3604 Y19.9124
G01 X19.3600 Y19.9185
G01 X19.3589 Y19.9245
G01 X19.3561 Y19.9327
G01 X19.3520 Y19.9402
G01 X19.3474 Y19.9460
G01 X19.3412 Y19.9518
G01 X19.3350 Y19.9559
G01 X19.3272 Y19.9595
G01 X19.3202 Y19.9614
G01 X19.3116 Y19.9624
G01 X17.7356 Y19.9624
G01 X17.7259 Y19.9614
G01 X17.7188 Y19.9595
G01 X17.7110 Y19.9559
G01 X17.7048 Y19.9518
G01 X17.6986 Y19.9460
G01 X17.6934 Y19.9391
G01 X17.6899 Y19.9327
G01 X17.6874 Y19.9257
G01 X17.6859 Y19.9173
G01 X17.6856 Y19.5752
G01 X13.8994 Y19.5752
G01 X13.8994 Y19.9124
G01 X13.8990 Y19.9185
G01 X13.8972 Y19.9269
G01 X13.8935 Y19.9360
G01 X13.8881 Y19.9441
G01 X13.8821 Y19.9503
G01 X13.8751 Y19.9553
G01 X13.8662 Y19.9595
G01 X13.8579 Y19.9617
G01 X13.8494 Y19.9624
G00 Z2.0000
G00 X13.8494 Y20.0524
G01 F60.00
G01 Z-0.0000
G01 F200.00
G01 X12.2712 Y20.0524
G01 X12.2575 Y20.0513
G01 X12.2473 Y20.0497
G01 X12.2340 Y20.0464
G01 X12.2210 Y20.0417
G01 X12.2086 Y20.0359
G01 X12.1968 Y20.0288
G01 X12.1858 Y20.0206
G01 X12.1756 Y20.0114
G01 X12.1664 Y20.0012
G01 X12.1582 Y19.9902
G01 X12.1511 Y19.9784
G01 X12.1453 Y19.9660
G01 X12.1406 Y19.9530
G01 X12.1380 Y19.9431
G01 X12.1357 Y19.9295
G01 X12.1347 Y19.9158
G01 X12.1346 Y18.3376
G01 X12.1350 Y18.3273
G01 X12.1357 Y18.3205
G01 X12.1380 Y18.3069
G01 X12.1406 Y18.2970
G01 X12.1440 Y18.2872
G01 X12.1496 Y18.2747
G01 X12.1545 Y18.2656
G01 X12.1601 Y18.2570
G01 X12.1686 Y18.2462
G01 X12.1756 Y18.2386
G01 X12.1832 Y18.2316
G01 X12.1912 Y18.2252
G01 X12.2026 Y18.2175
G01 X12.2117 Y18.2126
G01 X12.2210 Y18.2083
G01 X12.2307 Y18.2047
G01 X12.2406 Y18.2018
G01 X12.2507 Y18.1997
G01 X12.2643 Y18.1980
G01 X12.2746 Y18.1976
G01 X13.8494 Y18.1976
G01 X13.8597 Y18.1980
G01 X13.8699 Y18.1991
G01 X13.8801 Y18.2010
G01 X13.8900 Y18.2036
G01 X13.8998 Y18.2070
G01 X13.9093 Y18.2111
G01 X13.9184 Y18.2158
G01 X13.9272 Y18.2212
G01 X13.9355 Y18.2272
G01 X13.9434 Y18.2339
G01 X13.9508 Y18.2411
G01 X13.9576 Y18.2488
G01 X13.9639 Y18.2570
G01 X13.9695 Y18.2656
G01 X13.9745 Y18.2747
G01 X13.9787 Y18.2840
G01 X13.9823 Y18.2937
G01 X13.9852 Y18.3036
G01 X13.9873 Y18.3137
G01 X13.9887 Y18.3239
G01 X13.9894 Y18.3342
G01 X13.9894 Y18.5848
G01 X16.2002 Y18.5848
G01 X16.2002 Y12.5053
G01 X16.2023 Y12.4592
G01 X16.2032 Y12.4489
G01 X16.2106 Y12.3999
G01 X16.2217 Y12.3551
G01 X16.2256 Y12.3419
G01 X16.2414 Y12.2985
G01 X16.2640 Y12.2506
G01 X16.2876 Y12.2109
G01 X16.2952 Y12.1995
G01 X16.3186 Y12.1680
G01 X16.3251 Y12.1599
G01 X16.3585 Y12.1233
G01 X17.1479 Y11.3338
G01 X17.1479 Y6.1160
G01 X17.0915 Y6.0739
G01 X17.0231 Y6.0120
G01 X16.9612 Y5.9436
G01 X16.9102 Y5.8751
G01 X16.9043 Y5.8666
G01 X16.8588 Y5.7903
G01 X16.8193 Y5.7069
G01 X16.7882 Y5.6200
G01 X16.7673 Y5.5372
G01 X16.7652 Y5.5271
G01 X16.7522 Y5.4392
G01 X16.7477 Y5.3470
G01 X16.7477 Y3.9470
G01 X16.7522 Y3.8548
G01 X16.7658 Y3.7635
G01 X16.7882 Y3.6740
G01 X16.8193 Y3.5871
G01 X16.8557 Y3.5098
G01 X16.8621 Y3.4977
G01 X16.9025 Y3.4304
G01 X16.9102 Y3.4189
G01 X16.9612 Y3.3504
G01 X17.0184 Y3.2870
G01 X17.0281 Y3.2773
G01 X17.0915 Y3.2201
G01 X17.1600 Y3.1691
G01 X17.1715 Y3.1614
G01 X17.2448 Y3.1177
G01 X17.3282 Y3.0782
G01 X17.4151 Y3.0471
G01 X17.5046 Y3.0247
G01 X17.5959 Y3.0111
G01 X17.6881 Y3.0066
G01 X17.7803 Y3.0111
G01 X17.8648 Y3.0235
G01 X17.8749 Y3.0254
G01 X17.9545 Y3.0453
G01 X17.9676 Y3.0493
G01 X18.0480 Y3.0782
G01 X18.1253 Y3.1146
G01 X18.1374 Y3.1210
G01 X18.2106 Y3.1651
G01 X18.2793 Y3.2158
G01 X18.2899 Y3.2246
G01 X18.3531 Y3.2820
G01 X18.4106 Y3.3452
G01 X18.4193 Y3.3558
G01 X18.4700 Y3.4246
G01 X18.5141 Y3.4977
G01 X18.5206 Y3.5098
G01 X18.5569 Y3.5871
G01 X18.5870 Y3.6708
G01 X18.5898 Y3.6806
G01 X18.6089 Y3.7568
G01 X18.6116 Y3.7703
G01 X18.6240 Y3.8548
G01 X18.6285 Y3.9436
G01 X18.6283 Y5.3539
G01 X18.6245 Y5.4323
G01 X18.6231 Y5.4460
G01 X18.6104 Y5.5305
G01 X18.5898 Y5.6134
G01 X18.5859 Y5.6265
G01 X18.5569 Y5.7069
G01 X18.5175 Y5.7903
G01 X18.4700 Y5.8695
G01 X18.4193 Y5.9382
G01 X18.4106 Y5.9488
G01 X18.3578 Y6.0070
G01 X18.3481 Y6.0167
G01 X18.2847 Y6.0739
G01 X18.2283 Y6.1160
G01 X18.2283 Y11.5576
G01 X18.2257 Y11.6105
G01 X18.2186 Y11.6596
G01 X18.2164 Y11.6697
G01 X18.2050 Y11.7144
G01 X18.1897 Y11.7579
G01 X18.1844 Y11.7706
G01 X18.1645 Y11.8122
G01 X18.1409 Y11.8519
G01 X18.1333 Y11.8633
G01 X18.1099 Y11.8949
G01 X18.1035 Y11.9029
G01 X18.0701 Y11.9396
G01 X17.2806 Y12.7290
G01 X17.2806 Y18.5848
G01 X17.5956 Y18.5848
G01 X17.5957 Y18.3342
G01 X17.5963 Y18.3239
G01 X17.5977 Y18.3137
G01 X17.5998 Y18.3036
G01 X17.6016 Y18.2970
G01 X17.6050 Y18.2872
G01 X17.6091 Y18.2778
G01 X17.6138 Y18.2686
G01 X17.6173 Y18.2627
G01 X17.6232 Y18.2542
G01 X17.6274 Y18.2488
G01 X17.6342 Y18.2411
G01 X17.6416 Y18.2339
G01 X17.6495 Y18.2272
G01 X17.6578 Y18.2212
G01 X17.6666 Y18.2158
G01 X17.6758 Y18.2111
G01 X17.6852 Y18.2070
G01 X17.6950 Y18.2036
G01 X17.7016 Y18.2018
G01 X17.7117 Y18.1997
G01 X17.7219 Y18.1983
G01 X17.7356 Y18.1976
G01 X19.3104 Y18.1976
G01 X19.3207 Y18.1980
G01 X19.3309 Y18.1991
G01 X19.3411 Y18.2010
G01 X19.3477 Y18.2027
G01 X19.3576 Y18.2058
G01 X19.3671 Y18.2096
G01 X19.3764 Y18.2141
G01 X19.3853 Y18.2193
G01 X19.3910 Y18.2231
G01 X19.3992 Y18.2294
G01 X19.4044 Y18.2339
G01 X19.4118 Y18.2411
G01 X19.4164 Y18.2462
G01 X19.4228 Y18.2542
G01 X19.4287 Y18.2627
G01 X19.4322 Y18.2686
G01 X19.4355 Y18.2747
G01 X19.4397 Y18.2840
G01 X19.4422 Y18.2904
G01 X19.4453 Y18.3003
G01 X19.4477 Y18.3103
G01 X19.4489 Y18.3171
G01 X19.4500 Y18.3273
G01 X19.4504 Y18.3342
G01 X19.4504 Y19.9124
G01 X19.4502 Y19.9193
G01 X19.4493 Y19.9295
G01 X19.4470 Y19.9431
G01 X19.4444 Y19.9530
G01 X19.4397 Y19.9660
G01 X19.4355 Y19.9753
G01 X19.4305 Y19.9844
G01 X19.4249 Y19.9930
G01 X19.4186 Y20.0012
G01 X19.4094 Y20.0114
G01 X19.4018 Y20.0184
G01 X19.3938 Y20.0248
G01 X19.3824 Y20.0325
G01 X19.3733 Y20.0375
G01 X19.3640 Y20.0417
G01 X19.3543 Y20.0453
G01 X19.3411 Y20.0490
G01 X19.3309 Y20.0509
G01 X19.3207 Y20.0520
G01 X19.3104 Y20.0524
G01 X17.7287 Y20.0522
G01 X17.7185 Y20.0513
G01 X17.7083 Y20.0497
G01 X17.6983 Y20.0473
G01 X17.6884 Y20.0442
G01 X17.6789 Y20.0404
G01 X17.6696 Y20.0359
G01 X17.6578 Y20.0288
G01 X17.6495 Y20.0228
G01 X17.6416 Y20.0161
G01 X17.6342 Y20.0089
G01 X17.6274 Y20.0012
G01 X17.6211 Y19.9930
G01 X17.6155 Y19.9844
G01 X17.6106 Y19.9753
G01 X17.6063 Y19.9660
G01 X17.6027 Y19.9563
G01 X17.5998 Y19.9464
G01 X17.5977 Y19.9363
G01 X17.5963 Y19.9261
G01 X17.5957 Y19.9158
G01 X17.5956 Y19.6652
G01 X13.9894 Y19.6652
G01 X13.9894 Y19.9158
G01 X13.9887 Y19.9261
G01 X13.9873 Y19.9363
G01 X13.9852 Y19.9464
G01 X13.9812 Y19.9596
G01 X13.9774 Y19.9691
G01 X13.9729 Y19.9784
G01 X13.9677 Y19.9873
G01 X13.9598 Y19.9985
G01 X13.9531 Y20.0064
G01 X13.9459 Y20.0138
G01 X13.9382 Y20.0206
G01 X13.9300 Y20.0269
G01 X13.9214 Y20.0325
G01 X13.9123 Y20.0375
G01 X13.9030 Y20.0417
G01 X13.8933 Y20.0453
G01 X13.8834 Y20.0482
G01 X13.8733 Y20.0503
G01 X13.8597 Y20.0520
G01 X13.8494 Y20.0524
G00 Z2.0000
G00 X13.8494 Y20.1424
G01 F60.00
G01 Z-0.0000
G01 F200.00
G01 X12.2746 Y20.1424
G01 X12.2633 Y20.1421
G01 X12.2521 Y20.1413
G01 X12.2409 Y20.1399
G01 X12.2242 Y20.1368
G01 X12.2133 Y20.1341
G01 X12.2025 Y20.1308
G01 X12.1918 Y20.1270
G01 X12.1814 Y20.1227
G01 X12.1712 Y20.1178
G01 X12.1612 Y20.1125
G01 X12.1516 Y20.1067
G01 X12.1422 Y20.1004
G01 X12.1331 Y20.0937
G01 X12.1244 Y20.0866
G01 X12.1160 Y20.0790
G01 X12.1080 Y20.0710
G01 X12.1005 Y20.0626
G01 X12.0933 Y20.0539
G01 X12.0834 Y20.0402
G01 X12.0773 Y20.0306
G01 X12.0718 Y20.0208
G01 X12.0667 Y20.0107
G01 X12.0621 Y20.0004
G01 X12.0581 Y19.9899
G01 X12.0545 Y19.9792
G01 X12.0502 Y19.9628
G01 X12.0480 Y19.9517
G01 X12.0463 Y19.9406
G01 X12.0452 Y19.9293
G01 X12.0447 Y19.9180
G01 X12.0446 Y18.3376
G01 X12.0449 Y18.3263
G01 X12.0457 Y18.3151
G01 X12.0471 Y18.3039
G01 X12.0502 Y18.2872
G01 X12.0545 Y18.2708
G01 X12.0600 Y18.2548
G01 X12.0667 Y18.2393
G01 X12.0745 Y18.2242
G01 X12.0803 Y18.2146
G01 X12.0866 Y18.2052
G01 X12.0968 Y18.1917
G01 X12.1080 Y18.1790
G01 X12.1202 Y18.1672
G01 X12.1287 Y18.1598
G01 X12.1376 Y18.1529
G01 X12.1516 Y18.1433
G01 X12.1662 Y18.1348
G01 X12.1814 Y18.1273
G01 X12.1971 Y18.1211
G01 X12.2133 Y18.1159
G01 X12.2297 Y18.1120
G01 X12.2409 Y18.1101
G01 X12.2521 Y18.1087
G01 X12.2633 Y18.1079
G01 X12.2746 Y18.1076
G01 X13.8494 Y18.1076
G01 X13.8607 Y18.1079
G01 X13.8776 Y18.1093
G01 X13.8887 Y18.1110
G01 X13.9053 Y18.1145
G01 X13.9162 Y18.1175
G01 X13.9322 Y18.1230
G01 X13.9426 Y18.1273
G01 X13.9528 Y18.1322
G01 X13.9676 Y18.1403
G01 X13.9818 Y18.1496
G01 X13.9909 Y18.1563
G01 X14.0039 Y18.1672
G01 X14.0120 Y18.1750
G01 X14.0236 Y18.1874
G01 X14.0341 Y18.2006
G01 X14.0437 Y18.2146
G01 X14.0495 Y18.2242
G01 X14.0573 Y18.2393
G01 X14.0619 Y18.2496
G01 X14.0660 Y18.2601
G01 X14.0695 Y18.2708
G01 X14.0725 Y18.2817
G01 X14.0750 Y18.2927
G01 X14.0769 Y18.3039
G01 X14.0783 Y18.3151
G01 X14.0791 Y18.3263
G01 X14.0794 Y18.3376
G01 X14.0794 Y18.4948
G01 X16.1102 Y18.4948
G01 X16.1102 Y12.5053
G01 X16.1124 Y12.4547
G01 X16.1139 Y12.4379
G01 X16.1223 Y12.3823
G01 X16.1344 Y12.3332
G01 X16.1374 Y12.3223
G01 X16.1409 Y12.3116
G01 X16.1582 Y12.2641
G01 X16.1796 Y12.2183
G01 X16.1846 Y12.2082
G01 X16.1902 Y12.1984
G01 X16.2164 Y12.1551
G01 X16.2229 Y12.1459
G01 X16.2533 Y12.1055
G01 X16.2607 Y12.0969
G01 X16.2948 Y12.0596
G01 X17.0579 Y11.2965
G01 X17.0579 Y6.1613
G01 X17.0388 Y6.1470
G01 X17.0301 Y6.1399
G01 X16.9677 Y6.0834
G01 X16.9556 Y6.0716
G01 X16.8990 Y6.0092
G01 X16.8916 Y6.0007
G01 X16.8379 Y5.9287
G01 X16.8283 Y5.9147
G01 X16.7849 Y5.8425
G01 X16.7794 Y5.8327
G01 X16.7407 Y5.7516
G01 X16.7361 Y5.7413
G01 X16.7056 Y5.6568
G01 X16.7021 Y5.6461
G01 X16.6800 Y5.5590
G01 X16.6765 Y5.5425
G01 X16.6641 Y5.4592
G01 X16.6627 Y5.4480
G01 X16.6580 Y5.3583
G01 X16.6577 Y5.3470
G01 X16.6577 Y3.9470
G01 X16.6618 Y3.8573
G01 X16.6633 Y3.8404
G01 X16.6756 Y3.7571
G01 X16.6775 Y3.7460
G01 X16.6800 Y3.7350
G01 X16.7021 Y3.6479
G01 X16.7056 Y3.6372
G01 X16.7361 Y3.5527
G01 X16.7743 Y3.4714
G01 X16.7794 Y3.4613
G01 X16.7849 Y3.4515
G01 X16.8253 Y3.3841
G01 X16.8314 Y3.3746
G01 X16.8379 Y3.3653
G01 X16.8916 Y3.2933
G01 X16.9517 Y3.2266
G01 X16.9595 Y3.2184
G01 X16.9677 Y3.2106
G01 X17.0344 Y3.1505
G01 X17.1064 Y3.0968
G01 X17.1157 Y3.0903
G01 X17.1252 Y3.0842
G01 X17.2024 Y3.0383
G01 X17.2835 Y2.9996
G01 X17.2938 Y2.9950
G01 X17.3783 Y2.9645
G01 X17.3890 Y2.9610
G01 X17.3999 Y2.9580
G01 X17.4871 Y2.9364
G01 X17.5759 Y2.9230
G01 X17.5871 Y2.9216
G01 X17.5984 Y2.9207
G01 X17.6881 Y2.9166
G01 X17.6994 Y2.9169
G01 X17.7891 Y2.9216
G01 X17.8780 Y2.9345
G01 X17.8947 Y2.9376
G01 X17.9763 Y2.9580
G01 X17.9872 Y2.9610
G01 X17.9979 Y2.9645
G01 X18.0824 Y2.9950
G01 X18.1638 Y3.0332
G01 X18.1738 Y3.0383
G01 X18.1837 Y3.0438
G01 X18.2606 Y3.0903
G01 X18.3329 Y3.1436
G01 X18.3418 Y3.1505
G01 X18.3503 Y3.1579
G01 X18.4167 Y3.2184
G01 X18.4772 Y3.2848
G01 X18.4846 Y3.2933
G01 X18.4916 Y3.3022
G01 X18.5449 Y3.3746
G01 X18.5913 Y3.4515
G01 X18.5968 Y3.4613
G01 X18.6019 Y3.4714
G01 X18.6401 Y3.5527
G01 X18.6441 Y3.5632
G01 X18.6724 Y3.6425
G01 X18.6772 Y3.6588
G01 X18.6962 Y3.7350
G01 X18.6987 Y3.7460
G01 X18.7006 Y3.7571
G01 X18.7135 Y3.8460
G01 X18.7144 Y3.8573
G01 X18.7184 Y3.9414
G01 X18.7184 Y5.3526
G01 X18.7144 Y5.4367
G01 X18.7135 Y5.4480
G01 X18.7006 Y5.5369
G01 X18.6987 Y5.5480
G01 X18.6962 Y5.5590
G01 X18.6741 Y5.6461
G01 X18.6441 Y5.7308
G01 X18.6401 Y5.7413
G01 X18.6355 Y5.7516
G01 X18.5994 Y5.8277
G01 X18.5913 Y5.8425
G01 X18.5449 Y5.9195
G01 X18.4916 Y5.9918
G01 X18.4810 Y6.0050
G01 X18.4245 Y6.0674
G01 X18.4127 Y6.0795
G01 X18.3461 Y6.1399
G01 X18.3374 Y6.1470
G01 X18.3183 Y6.1613
G01 X18.3183 Y11.5576
G01 X18.3180 Y11.5689
G01 X18.3153 Y11.6194
G01 X18.3072 Y11.6750
G01 X18.3037 Y11.6915
G01 X18.2912 Y11.7405
G01 X18.2744 Y11.7882
G01 X18.2703 Y11.7987
G01 X18.2658 Y11.8091
G01 X18.2439 Y11.8547
G01 X18.2152 Y11.9030
G01 X18.2056 Y11.9169
G01 X18.1822 Y11.9485
G01 X18.1716 Y11.9617
G01 X18.1337 Y12.0032
G01 X17.3706 Y12.7663
G01 X17.3706 Y18.4948
G01 X17.5056 Y18.4948
G01 X17.5056 Y18.3376
G01 X17.5059 Y18.3263
G01 X17.5067 Y18.3151
G01 X17.5081 Y18.3039
G01 X17.5100 Y18.2927
G01 X17.5139 Y18.2763
G01 X17.5172 Y18.2655
G01 X17.5210 Y18.2548
G01 X17.5253 Y18.2444
G01 X17.5302 Y18.2342
G01 X17.5355 Y18.2242
G01 X17.5413 Y18.2146
G01 X17.5476 Y18.2052
G01 X17.5578 Y18.1917
G01 X17.5652 Y18.1832
G01 X17.5770 Y18.1710
G01 X17.5897 Y18.1598
G01 X17.5986 Y18.1529
G01 X17.6078 Y18.1464
G01 X17.6222 Y18.1375
G01 X17.6322 Y18.1322
G01 X17.6424 Y18.1273
G01 X17.6581 Y18.1211
G01 X17.6688 Y18.1175
G01 X17.6852 Y18.1132
G01 X17.6963 Y18.1110
G01 X17.7075 Y18.1093
G01 X17.7187 Y18.1082
G01 X17.7356 Y18.1076
G01 X19.3160 Y18.1077
G01 X19.3329 Y18.1087
G01 X19.3497 Y18.1110
G01 X19.3608 Y18.1132
G01 X19.3772 Y18.1175
G01 X19.3932 Y18.1230
G01 X19.4087 Y18.1297
G01 X19.4238 Y18.1375
G01 X19.4382 Y18.1464
G01 X19.4474 Y18.1529
G01 X19.4563 Y18.1598
G01 X19.4649 Y18.1672
G01 X19.4770 Y18.1790
G01 X19.4882 Y18.1917
G01 X19.4951 Y18.2006
G01 X19.5016 Y18.2098
G01 X19.5105 Y18.2242
G01 X19.5158 Y18.2342
G01 X19.5229 Y18.2496
G01 X19.5270 Y18.2601
G01 X19.5305 Y18.2708
G01 X19.5348 Y18.2872
G01 X19.5370 Y18.2983
G01 X19.5387 Y18.3095
G01 X19.5401 Y18.3263
G01 X19.5404 Y18.3376
G01 X19.5404 Y19.9124
G01 X19.5398 Y19.9293
G01 X19.5387 Y19.9406
G01 X19.5370 Y19.9517
G01 X19.5348 Y19.9628
G01 X19.5305 Y19.9792
G01 X19.5250 Y19.9952
G01 X19.5183 Y20.0107
G01 X19.5105 Y20.0258
G01 X19.5016 Y20.0402
G01 X19.4917 Y20.0539
G01 X19.4808 Y20.0669
G01 X19.4730 Y20.0750
G01 X19.4649 Y20.0828
G01 X19.4519 Y20.0937
G01 X19.4382 Y20.1036
G01 X19.4238 Y20.1125
G01 X19.4138 Y20.1178
G01 X19.4036 Y20.1227
G01 X19.3879 Y20.1290
G01 X19.3717 Y20.1341
G01 X19.3553 Y20.1380
G01 X19.3441 Y20.1399
G01 X19.3329 Y20.1413
G01 X19.3217 Y20.1421
G01 X19.3104 Y20.1424
G01 X17.7356 Y20.1424
G01 X17.7243 Y20.1421
G01 X17.7075 Y20.1407
G01 X17.6963 Y20.1390
G01 X17.6852 Y20.1368
G01 X17.6688 Y20.1325
G01 X17.6528 Y20.1270
G01 X17.6373 Y20.1203
G01 X17.6272 Y20.1152
G01 X17.6126 Y20.1067
G01 X17.5986 Y20.0971
G01 X17.5897 Y20.0902
G01 X17.5812 Y20.0828
G01 X17.5690 Y20.0710
G01 X17.5578 Y20.0583
G01 X17.5509 Y20.0494
G01 X17.5444 Y20.0402
G01 X17.5355 Y20.0258
G01 X17.5302 Y20.0158
G01 X17.5253 Y20.0056
G01 X17.5191 Y19.9899
G01 X17.5155 Y19.9792
G01 X17.5125 Y19.9683
G01 X17.5100 Y19.9573
G01 X17.5081 Y19.9461
G01 X17.5067 Y19.9349
G01 X17.5059 Y19.9237
G01 X17.5056 Y19.9124
G01 X17.5056 Y19.7552
G01 X14.0794 Y19.7552
G01 X14.0794 Y19.9124
G01 X14.0788 Y19.9293
G01 X14.0777 Y19.9406
G01 X14.0750 Y19.9573
G01 X14.0725 Y19.9683
G01 X14.0695 Y19.9792
G01 X14.0660 Y19.9899
G01 X14.0619 Y20.0004
G01 X14.0573 Y20.0107
G01 X14.0522 Y20.0208
G01 X14.0467 Y20.0306
G01 X14.0406 Y20.0402
G01 X14.0307 Y20.0539
G01 X14.0198 Y20.0669
G01 X14.0120 Y20.0750
G01 X13.9996 Y20.0866
G01 X13.9864 Y20.0971
G01 X13.9772 Y20.1036
G01 X13.9628 Y20.1125
G01 X13.9477 Y20.1203
G01 X13.9322 Y20.1270
G01 X13.9162 Y20.1325
G01 X13.9053 Y20.1355
G01 X13.8943 Y20.1380
G01 X13.8776 Y20.1407
G01 X13.8663 Y20.1418
G01 X13.8494 Y20.1424
G00 Z2.0000
G00 X13.8896 Y30.8740
G01 F60.00
G01 Z-0.0000
G01 F200.00
G01 X13.8896 Y29.4740
G01 X13.8899 Y29.4627
G01 X13.8946 Y29.3730
G01 X13.9075 Y29.2841
G01 X13.9094 Y29.2730
G01 X13.9119 Y29.2620
G01 X13.9340 Y29.1749
G01 X13.9640 Y29.0902
G01 X13.9681 Y29.0797
G01 X13.9726 Y29.0694
G01 X14.0113 Y28.9883
G01 X14.0572 Y28.9111
G01 X14.0665 Y28.8969
G01 X14.1166 Y28.8292
G01 X14.1235 Y28.8203
G01 X14.1836 Y28.7536
G01 X14.1914 Y28.7454
G01 X14.1996 Y28.7376
G01 X14.2663 Y28.6775
G01 X14.3383 Y28.6238
G01 X14.3476 Y28.6173
G01 X14.3571 Y28.6112
G01 X14.4343 Y28.5653
G01 X14.5154 Y28.5266
G01 X14.5257 Y28.5220
G01 X14.6102 Y28.4915
G01 X14.6209 Y28.4880
G01 X14.6318 Y28.4850
G01 X14.7190 Y28.4634
G01 X14.8078 Y28.4500
G01 X14.8190 Y28.4486
G01 X14.8303 Y28.4477
G01 X14.9200 Y28.4436
G01 X14.9313 Y28.4439
G01 X15.0210 Y28.4486
G01 X15.1099 Y28.4615
G01 X15.1210 Y28.4634
G01 X15.2082 Y28.4850
G01 X15.2191 Y28.4880
G01 X15.3038 Y28.5180
G01 X15.3143 Y28.5220
G01 X15.3247 Y28.5266
G01 X15.4057 Y28.5653
G01 X15.4829 Y28.6112
G01 X15.4971 Y28.6205
G01 X15.5648 Y28.6706
G01 X15.5737 Y28.6775
G01 X15.6404 Y28.7376
G01 X15.6486 Y28.7454
G01 X15.6564 Y28.7536
G01 X15.7165 Y28.8203
G01 X15.7703 Y28.8923
G01 X15.7768 Y28.9016
G01 X15.7828 Y28.9111
G01 X15.8232 Y28.9785
G01 X15.8288 Y28.9883
G01 X15.8338 Y28.9984
G01 X15.8720 Y29.0797
G01 X15.9025 Y29.1642
G01 X15.9061 Y29.1749
G01 X15.9091 Y29.1858
G01 X15.9306 Y29.2730
G01 X15.9326 Y29.2841
G01 X15.9455 Y29.3730
G01 X15.9501 Y29.4627
G01 X15.9504 Y29.4740
G01 X15.9504 Y30.8740
G01 X15.9501 Y30.8853
G01 X15.9459 Y30.9694
G01 X15.9441 Y30.9862
G01 X15.9326 Y31.0639
G01 X15.9306 Y31.0750
G01 X15.9281 Y31.0860
G01 X15.9061 Y31.1731
G01 X15.8760 Y31.2578
G01 X15.8720 Y31.2683
G01 X15.8674 Y31.2786
G01 X15.8288 Y31.3597
G01 X15.7828 Y31.4369
G01 X15.7736 Y31.4511
G01 X15.7235 Y31.5188
G01 X15.7165 Y31.5277
G01 X15.6564 Y31.5944
G01 X15.6486 Y31.6026
G01 X15.6404 Y31.6104
G01 X15.5822 Y31.6631
G01 X15.5737 Y31.6705
G01 X15.5648 Y31.6775
G01 X15.4925 Y31.7307
G01 X15.4829 Y31.7368
G01 X15.4057 Y31.7827
G01 X15.3957 Y31.7878
G01 X15.3143 Y31.8260
G01 X15.2298 Y31.8565
G01 X15.2191 Y31.8600
G01 X15.2082 Y31.8630
G01 X15.1321 Y31.8821
G01 X15.1210 Y31.8846
G01 X15.1099 Y31.8865
G01 X15.0210 Y31.8994
G01 X15.0098 Y31.9003
G01 X14.9200 Y31.9044
G01 X14.9087 Y31.9041
G01 X14.8190 Y31.8994
G01 X14.7301 Y31.8865
G01 X14.7190 Y31.8846
G01 X14.7080 Y31.8821
G01 X14.6209 Y31.8600
G01 X14.5362 Y31.8300
G01 X14.5257 Y31.8260
G01 X14.4444 Y31.7878
G01 X14.4343 Y31.7827
G01 X14.4245 Y31.7772
G01 X14.3571 Y31.7368
G01 X14.3476 Y31.7307
G01 X14.3383 Y31.7242
G01 X14.2663 Y31.6705
G01 X14.2578 Y31.6631
G01 X14.1914 Y31.6026
G01 X14.1836 Y31.5944
G01 X14.1235 Y31.5277
G01 X14.0698 Y31.4557
G01 X14.0633 Y31.4465
G01 X14.0572 Y31.4369
G01 X14.0169 Y31.3695
G01 X14.0113 Y31.3597
G01 X14.0062 Y31.3496
G01 X13.9681 Y31.2683
G01 X13.9640 Y31.2578
G01 X13.9340 Y31.1731
G01 X13.9119 Y31.0860
G01 X13.9094 Y31.0750
G01 X13.8960 Y30.9862
G01 X13.8946 Y30.9750
G01 X13.8938 Y30.9637
G01 X13.8896 Y30.8740
G00 Z2.0000
G00 X13.9796 Y30.8740
G01 F60.00
G01 Z-0.0000
G01 F200.00
G01 X13.9796 Y29.4740
G01 X13.9839 Y29.3853
G01 X13.9850 Y29.3750
G01 X13.9977 Y29.2905
G01 X14.0183 Y29.2076
G01 X14.0223 Y29.1945
G01 X14.0512 Y29.1141
G01 X14.0876 Y29.0368
G01 X14.0940 Y29.0247
G01 X14.1381 Y28.9516
G01 X14.1931 Y28.8774
G01 X14.2551 Y28.8090
G01 X14.3234 Y28.7471
G01 X14.3976 Y28.6921
G01 X14.4767 Y28.6447
G01 X14.5601 Y28.6052
G01 X14.6470 Y28.5741
G01 X14.7366 Y28.5517
G01 X14.8278 Y28.5381
G01 X14.9200 Y28.5336
G01 X15.0122 Y28.5381
G01 X15.1035 Y28.5517
G01 X15.1930 Y28.5741
G01 X15.2799 Y28.6052
G01 X15.3633 Y28.6447
G01 X15.4425 Y28.6921
G01 X15.5166 Y28.7471
G01 X15.5850 Y28.8090
G01 X15.6470 Y28.8774
G01 X15.6980 Y28.9459
G01 X15.7056 Y28.9574
G01 X15.7494 Y29.0307
G01 X15.7861 Y29.1079
G01 X15.7913 Y29.1205
G01 X15.8178 Y29.1945
G01 X15.8218 Y29.2076
G01 X15.8424 Y29.2905
G01 X15.8559 Y29.3818
G01 X15.8604 Y29.4740
G01 X15.8604 Y30.8740
G01 X15.8562 Y30.9628
G01 X15.8551 Y30.9730
G01 X15.8424 Y31.0575
G01 X15.8218 Y31.1404
G01 X15.8178 Y31.1535
G01 X15.7888 Y31.2339
G01 X15.7525 Y31.3112
G01 X15.7460 Y31.3233
G01 X15.7019 Y31.3965
G01 X15.6470 Y31.4706
G01 X15.5897 Y31.5340
G01 X15.5800 Y31.5437
G01 X15.5218 Y31.5965
G01 X15.5112 Y31.6052
G01 X15.4425 Y31.6559
G01 X15.3633 Y31.7034
G01 X15.2799 Y31.7428
G01 X15.1995 Y31.7718
G01 X15.1864 Y31.7757
G01 X15.1102 Y31.7948
G01 X15.0967 Y31.7975
G01 X15.0122 Y31.8099
G01 X14.9200 Y31.8144
G01 X14.8278 Y31.8099
G01 X14.7433 Y31.7975
G01 X14.7299 Y31.7948
G01 X14.6470 Y31.7739
G01 X14.5601 Y31.7428
G01 X14.4829 Y31.7064
G01 X14.4707 Y31.7000
G01 X14.4034 Y31.6596
G01 X14.3919 Y31.6520
G01 X14.3234 Y31.6009
G01 X14.2551 Y31.5390
G01 X14.1931 Y31.4706
G01 X14.1421 Y31.4021
G01 X14.1344 Y31.3907
G01 X14.0940 Y31.3233
G01 X14.0876 Y31.3112
G01 X14.0512 Y31.2339
G01 X14.0201 Y31.1470
G01 X13.9977 Y31.0575
G01 X13.9850 Y30.9730
G01 X13.9836 Y30.9593
G01 X13.9796 Y30.8740
G00 Z2.0000
G00 X14.0696 Y30.8740
G01 F60.00
G01 Z-0.0000
G01 F200.00
G01 X14.0696 Y29.4740
G01 X14.0736 Y29.3919
G01 X14.0860 Y29.3081
G01 X14.1070 Y29.2248
G01 X14.1344 Y29.1486
G01 X14.1689 Y29.0753
G01 X14.2123 Y29.0026
G01 X14.2627 Y28.9345
G01 X14.3187 Y28.8727
G01 X14.3805 Y28.8166
G01 X14.4476 Y28.7669
G01 X14.5191 Y28.7240
G01 X14.5946 Y28.6883
G01 X14.6732 Y28.6602
G01 X14.7541 Y28.6400
G01 X14.8367 Y28.6277
G01 X14.9200 Y28.6236
G01 X15.0034 Y28.6277
G01 X15.0859 Y28.6400
G01 X15.1669 Y28.6602
G01 X15.2455 Y28.6883
G01 X15.3209 Y28.7240
G01 X15.3914 Y28.7663
G01 X15.4595 Y28.8166
G01 X15.5213 Y28.8727
G01 X15.5774 Y28.9345
G01 X15.6284 Y29.0036
G01 X15.6700 Y29.0731
G01 X15.7047 Y29.1463
G01 X15.7330 Y29.2248
G01 X15.7541 Y29.3081
G01 X15.7663 Y29.3907
G01 X15.7704 Y29.4740
G01 X15.7704 Y30.8740
G01 X15.7664 Y30.9561
G01 X15.7541 Y31.0399
G01 X15.7330 Y31.1232
G01 X15.7057 Y31.1994
G01 X15.6711 Y31.2727
G01 X15.6278 Y31.3454
G01 X15.5758 Y31.4153
G01 X15.5213 Y31.4753
G01 X15.4595 Y31.5314
G01 X15.3925 Y31.5811
G01 X15.3230 Y31.6228
G01 X15.2432 Y31.6606
G01 X15.1669 Y31.6878
G01 X15.0859 Y31.7081
G01 X15.0034 Y31.7203
G01 X14.9225 Y31.7243
G01 X14.8342 Y31.7200
G01 X14.7541 Y31.7081
G01 X14.6732 Y31.6878
G01 X14.5946 Y31.6597
G01 X14.5213 Y31.6251
G01 X14.4456 Y31.5797
G01 X14.3805 Y31.5314
G01 X14.3187 Y31.4753
G01 X14.2627 Y31.4135
G01 X14.2144 Y31.3485
G01 X14.1689 Y31.2727
G01 X14.1344 Y31.1994
G01 X14.1062 Y31.1209
G01 X14.0860 Y31.0399
G01 X14.0740 Y30.9598
G01 X14.0696 Y30.8740
G00 Z2.0000
G00 X12.2331 Y31.7029
G01 F60.00
G01 Z-0.0000
G01 F200.00
G01 X9.5441 Y34.3918
G01 X9.5122 Y34.4207
G01 X9.4767 Y34.4470
G01 X9.4388 Y34.4697
G01 X9.4011 Y34.4876
G01 X9.3549 Y34.5041
G01 X9.3144 Y34.5142
G01 X9.2683 Y34.5209
G01 X9.2266 Y34.5228
G01 X3.6892 Y34.5228
G01 X3.6426 Y34.5204
G01 X3.6013 Y34.5142
G01 X3.5596 Y34.5038
G01 X3.5169 Y34.4886
G01 X3.4748 Y34.4685
G01 X3.4390 Y34.4470
G01 X3.4055 Y34.4222
G01 X3.3717 Y34.3918
G01 X1.5250 Y32.5452
G01 X1.4938 Y32.5105
G01 X1.4690 Y32.4769
G01 X1.4475 Y32.4412
G01 X1.4274 Y32.3991
G01 X1.4119 Y32.3552
G01 X1.4018 Y32.3147
G01 X1.3956 Y32.2734
G01 X1.3931 Y32.2268
G01 X1.3931 Y4.8637
G01 X1.3953 Y4.8195
G01 X1.4018 Y4.7758
G01 X1.4125 Y4.7330
G01 X1.4274 Y4.6914
G01 X1.4452 Y4.6536
G01 X1.4704 Y4.6115
G01 X1.4953 Y4.5781
G01 X1.5250 Y4.5453
G01 X4.2424 Y1.8279
G01 X4.2762 Y1.7976
G01 X4.3097 Y1.7728
G01 X4.3455 Y1.7513
G01 X4.3876 Y1.7312
G01 X4.4315 Y1.7157
G01 X4.4720 Y1.7056
G01 X4.5133 Y1.6994
G01 X4.5599 Y1.6969
G01 X8.3691 Y1.6969
G01 X8.4157 Y1.6994
G01 X8.4569 Y1.7056
G01 X8.4974 Y1.7157
G01 X8.5414 Y1.7312
G01 X8.5824 Y1.7507
G01 X8.6192 Y1.7728
G01 X8.6528 Y1.7976
G01 X8.6874 Y1.8288
G01 X9.9817 Y3.1230
G01 X10.0233 Y3.1127
G01 X10.1059 Y3.1006
G01 X10.1880 Y3.0966
G01 X10.2701 Y3.1006
G01 X10.3563 Y3.1135
G01 X10.4348 Y3.1332
G01 X10.5123 Y3.1609
G01 X10.5910 Y3.1982
G01 X10.6604 Y3.2399
G01 X10.7275 Y3.2896
G01 X10.7910 Y3.3475
G01 X10.8454 Y3.4075
G01 X10.8951 Y3.4746
G01 X10.9391 Y3.5483
G01 X10.9737 Y3.6216
G01 X11.0010 Y3.6978
G01 X11.0220 Y3.7811
G01 X11.0344 Y3.8649
G01 X11.0384 Y3.9470
G01 X11.0384 Y5.3470
G01 X11.0344 Y5.4291
G01 X11.0215 Y5.5153
G01 X11.0018 Y5.5939
G01 X10.9737 Y5.6724
G01 X10.9368 Y5.7500
G01 X10.8951 Y5.8195
G01 X10.8469 Y5.8846
G01 X10.7893 Y5.9483
G01 X10.7255 Y6.0059
G01 X10.6604 Y6.0541
G01 X10.5910 Y6.0958
G01 X10.5111 Y6.1336
G01 X10.4348 Y6.1608
G01 X10.3563 Y6.1805
G01 X10.2713 Y6.1933
G01 X10.1855 Y6.1973
G01 X10.1046 Y6.1933
G01 X10.0221 Y6.1811
G01 X9.9411 Y6.1608
G01 X9.8648 Y6.1336
G01 X9.7871 Y6.0970
G01 X9.7155 Y6.0541
G01 X9.6504 Y6.0059
G01 X9.5867 Y5.9483
G01 X9.5306 Y5.8865
G01 X9.4823 Y5.8215
G01 X9.4369 Y5.7457
G01 X9.4023 Y5.6724
G01 X9.3742 Y5.5939
G01 X9.3539 Y5.5129
G01 X9.3417 Y5.4304
G01 X9.3376 Y5.3470
G01 X9.3376 Y3.9470
G01 X9.3417 Y3.8637
G01 X9.3535 Y3.7835
G01 X9.3564 Y3.7711
G01 X8.1826 Y2.5973
G01 X4.7463 Y2.5973
G01 X2.2935 Y5.0501
G01 X2.2935 Y32.0404
G01 X3.8756 Y33.6225
G01 X9.0401 Y33.6224
G01 X11.5932 Y31.0694
G01 X11.5856 Y31.0387
G01 X11.5737 Y30.9586
G01 X11.5695 Y30.8752
G01 X11.5695 Y29.4728
G01 X11.5736 Y29.3907
G01 X11.5858 Y29.3081
G01 X11.6061 Y29.2272
G01 X11.6338 Y29.1497
G01 X11.6711 Y29.0710
G01 X11.7128 Y29.0016
G01 X11.7625 Y28.9345
G01 X11.8186 Y28.8727
G01 X11.8785 Y28.8182
G01 X11.9495 Y28.7656
G01 X12.0190 Y28.7240
G01 X12.0945 Y28.6883
G01 X12.1730 Y28.6602
G01 X12.2516 Y28.6405
G01 X12.3390 Y28.6275
G01 X12.4199 Y28.6236
G01 X12.5032 Y28.6277
G01 X12.5882 Y28.6405
G01 X12.6667 Y28.6602
G01 X12.7453 Y28.6883
G01 X12.8208 Y28.7240
G01 X12.8903 Y28.7656
G01 X12.9594 Y28.8166
G01 X13.0212 Y28.8727
G01 X13.0757 Y28.9327
G01 X13.1270 Y29.0016
G01 X13.1710 Y29.0753
G01 X13.2056 Y29.1486
G01 X13.2333 Y29.2260
G01 X13.2544 Y29.3105
G01 X13.2662 Y29.3907
G01 X13.2703 Y29.4728
G01 X13.2703 Y30.8740
G01 X13.2662 Y30.9574
G01 X13.2539 Y31.0399
G01 X13.2337 Y31.1209
G01 X13.2056 Y31.1994
G01 X13.1687 Y31.2770
G01 X13.1270 Y31.3465
G01 X13.0788 Y31.4116
G01 X13.0229 Y31.4735
G01 X12.9594 Y31.5314
G01 X12.8934 Y31.5804
G01 X12.8208 Y31.6240
G01 X12.7453 Y31.6597
G01 X12.6667 Y31.6878
G01 X12.5846 Y31.7083
G01 X12.5032 Y31.7203
G01 X12.4187 Y31.7244
G01 X12.3353 Y31.7202
G01 X12.2552 Y31.7083
G01 X12.2331 Y31.7029
G00 Z2.0000
G00 X9.7094 Y31.6969
G01 F60.00
G01 Z-0.0000
G01 F200.00
G01 X8.4547 Y32.9517
G01 X8.4209 Y32.9820
G01 X8.3873 Y33.0068
G01 X8.3516 Y33.0283
G01 X8.3095 Y33.0484
G01 X8.2655 Y33.0639
G01 X8.2250 Y33.0740
G01 X8.1838 Y33.0802
G01 X8.1372 Y33.0827
G01 X4.1817 Y33.0827
G01 X4.1375 Y33.0805
G01 X4.0938 Y33.0740
G01 X4.0510 Y33.0633
G01 X4.0094 Y33.0484
G01 X3.9694 Y33.0295
G01 X3.9315 Y33.0068
G01 X3.8961 Y32.9805
G01 X3.8642 Y32.9517
G01 X2.8270 Y31.9145
G01 X2.7989 Y31.8836
G01 X2.7697 Y31.8442
G01 X2.7483 Y31.8084
G01 X2.7294 Y31.7684
G01 X2.7145 Y31.7268
G01 X2.7043 Y31.6864
G01 X2.6972 Y31.6391
G01 X2.6951 Y31.5961
G01 X2.6951 Y15.1809
G01 X2.6973 Y15.1368
G01 X2.7036 Y15.0943
G01 X2.7153 Y15.0479
G01 X2.7294 Y15.0086
G01 X2.7483 Y14.9687
G01 X2.7710 Y14.9308
G01 X2.7958 Y14.8972
G01 X2.8270 Y14.8626
G01 X7.2379 Y10.4516
G01 X7.2379 Y6.0675
G01 X7.2147 Y6.0534
G01 X7.1496 Y6.0051
G01 X7.0877 Y5.9492
G01 X7.0308 Y5.8865
G01 X6.9817 Y5.8205
G01 X6.9381 Y5.7479
G01 X6.9025 Y5.6724
G01 X6.8743 Y5.5939
G01 X6.8538 Y5.5117
G01 X6.8418 Y5.4304
G01 X6.8377 Y5.3470
G01 X6.8377 Y3.9470
G01 X6.8416 Y3.8661
G01 X6.8546 Y3.7787
G01 X6.8743 Y3.7002
G01 X6.9035 Y3.6193
G01 X6.9381 Y3.5461
G01 X6.9810 Y3.4746
G01 X7.0308 Y3.4075
G01 X7.0868 Y3.3457
G01 X7.1486 Y3.2896
G01 X7.2157 Y3.2399
G01 X7.2873 Y3.1970
G01 X7.3605 Y3.1623
G01 X7.4436 Y3.1326
G01 X7.5222 Y3.1130
G01 X7.6060 Y3.1006
