(G-CODE GENERATED BY FLATCAM v8.994 - www.flatcam.org - Version Date: 2020/11/7)

(Name: Gerber_TopLayer.GTL_iso_combined_cnc)
(Type: G-code from Geometry)
(Units: MM)

(Created on Saturday, 05 February 2022 at 21:14)

(This preprocessor is used with MACH3 with probing height.)

(TOOL DIAMETER: 0.2 mm)
(Feedrate_XY: 250.0 mm/min)
(Feedrate_Z: 60.0 mm/min)
(Feedrate rapids 1500.0 mm/min)

(Z_Cut: -0.1866 mm)
(Z_Move: 2.0 mm)
(Z Start: None mm)
(Z End: 5.0 mm)
(X,Y End: None mm)
(Steps per circle: 64)
(Preprocessor Geometry: Toolchange_Probe_MACH3)

(X range:    2.5688 ...   28.8002  mm)
(Y range:    2.6732 ...   54.5902  mm)

(Spindle Speed: 12000.0 RPM)
G21
G90
G17
G94


G01 F250.00

M5
T1
M6
G00 Z15.0000
G00 X0.0000 Y0.0000
(MSG, Change to Tool Dia = 0.2000 ||| CONNECT THE PROBE)
M0
F75.00
G31 Z-0.0200
G92 Z0
G00 Z1.0000
F37.50
G31 Z-0.0200
G92 Z0
G00 Z2.0000
(MSG, Remove any clips or other devices used for probing. CNC work is resuming ...)
M0

M03 S12000.0
G01 F250.00
G00 X5.9249 Y6.1895
G01 F60.00
G01 Z-0.1866
G01 F250.00
G01 X5.9851 Y6.2440
G01 X6.0022 Y6.2588
G01 X6.0110 Y6.2658
G01 X6.0992 Y6.3313
G01 X6.1180 Y6.3438
G01 X6.1276 Y6.3497
G01 X6.2024 Y6.3946
G01 X6.2221 Y6.4057
G01 X6.2321 Y6.4109
G01 X6.3314 Y6.4579
G01 X6.3522 Y6.4665
G01 X6.4063 Y6.4860
G01 X6.3522 Y6.5055
G01 X6.3314 Y6.5141
G01 X6.2321 Y6.5611
G01 X6.2122 Y6.5717
G01 X6.2024 Y6.5774
G01 X6.1276 Y6.6223
G01 X6.1180 Y6.6282
G01 X6.0992 Y6.6407
G01 X6.0110 Y6.7062
G01 X6.0022 Y6.7132
G01 X5.9851 Y6.7280
G01 X5.9249 Y6.7825
G01 X5.9249 Y6.1895
G00 Z2.0000
G00 X7.8469 Y5.2209
G01 F60.00
G01 Z-0.1866
G01 F250.00
G01 X7.8422 Y5.3129
G01 X7.8280 Y5.4089
G01 X7.8044 Y5.5031
G01 X7.7717 Y5.5945
G01 X7.7302 Y5.6822
G01 X7.6803 Y5.7655
G01 X7.6225 Y5.8434
G01 X7.5573 Y5.9153
G01 X7.4854 Y5.9805
G01 X7.4075 Y6.0383
G01 X7.3242 Y6.0882
G01 X7.2365 Y6.1297
G01 X7.1451 Y6.1624
G01 X7.0509 Y6.1860
G01 X6.9549 Y6.2002
G01 X6.8580 Y6.2050
G01 X6.7611 Y6.2002
G01 X6.6651 Y6.1860
G01 X6.5709 Y6.1624
G01 X6.4795 Y6.1297
G01 X6.3918 Y6.0882
G01 X6.3085 Y6.0383
G01 X6.2306 Y5.9805
G01 X6.1587 Y5.9153
G01 X6.0935 Y5.8434
G01 X6.0357 Y5.7655
G01 X5.9858 Y5.6822
G01 X5.9443 Y5.5945
G01 X5.9116 Y5.5031
G01 X5.8880 Y5.4089
G01 X5.8738 Y5.3129
G01 X5.8690 Y5.2160
G01 X5.8738 Y5.1191
G01 X5.8880 Y5.0231
G01 X5.9116 Y4.9289
G01 X5.9443 Y4.8375
G01 X5.9858 Y4.7498
G01 X6.0357 Y4.6665
G01 X6.0935 Y4.5886
G01 X6.1587 Y4.5167
G01 X6.2306 Y4.4515
G01 X6.3085 Y4.3937
G01 X6.3918 Y4.3438
G01 X6.4795 Y4.3023
G01 X6.5709 Y4.2696
G01 X6.6651 Y4.2460
G01 X6.7611 Y4.2318
G01 X6.8580 Y4.2270
G01 X6.9549 Y4.2318
G01 X7.0509 Y4.2460
G01 X7.1451 Y4.2696
G01 X7.2365 Y4.3023
G01 X7.3242 Y4.3438
G01 X7.4075 Y4.3937
G01 X7.4854 Y4.4515
G01 X7.5573 Y4.5167
G01 X7.6225 Y4.5886
G01 X7.6803 Y4.6665
G01 X7.7302 Y4.7498
G01 X7.7717 Y4.8375
G01 X7.8044 Y4.9289
G01 X7.8280 Y5.0231
G01 X7.8422 Y5.1191
G01 X7.8469 Y5.2111
G01 X7.8469 Y5.2209
G00 Z2.0000
G00 X7.8469 Y7.7609
G01 F60.00
G01 Z-0.1866
G01 F250.00
G01 X7.8422 Y7.8529
G01 X7.8280 Y7.9489
G01 X7.8044 Y8.0431
G01 X7.7717 Y8.1345
G01 X7.7302 Y8.2222
G01 X7.6803 Y8.3055
G01 X7.6225 Y8.3834
G01 X7.5573 Y8.4553
G01 X7.4854 Y8.5205
G01 X7.4075 Y8.5783
G01 X7.3242 Y8.6282
G01 X7.2365 Y8.6697
G01 X7.1451 Y8.7024
G01 X7.0509 Y8.7260
G01 X6.9549 Y8.7402
G01 X6.8580 Y8.7450
G01 X6.7611 Y8.7402
G01 X6.6651 Y8.7260
G01 X6.5709 Y8.7024
G01 X6.4795 Y8.6697
G01 X6.3918 Y8.6282
G01 X6.3085 Y8.5783
G01 X6.2306 Y8.5205
G01 X6.1587 Y8.4553
G01 X6.0935 Y8.3834
G01 X6.0357 Y8.3055
G01 X5.9858 Y8.2222
G01 X5.9443 Y8.1345
G01 X5.9116 Y8.0431
G01 X5.8880 Y7.9489
G01 X5.8738 Y7.8529
G01 X5.8690 Y7.7560
G01 X5.8738 Y7.6591
G01 X5.8880 Y7.5631
G01 X5.9116 Y7.4689
G01 X5.9443 Y7.3775
G01 X5.9858 Y7.2898
G01 X6.0357 Y7.2065
G01 X6.0935 Y7.1286
G01 X6.1587 Y7.0567
G01 X6.2306 Y6.9915
G01 X6.3085 Y6.9337
G01 X6.3918 Y6.8838
G01 X6.4795 Y6.8423
G01 X6.5709 Y6.8096
G01 X6.6651 Y6.7860
G01 X6.7611 Y6.7718
G01 X6.8580 Y6.7670
G01 X6.9549 Y6.7718
G01 X7.0509 Y6.7860
G01 X7.1451 Y6.8096
G01 X7.2365 Y6.8423
G01 X7.3242 Y6.8838
G01 X7.4075 Y6.9337
G01 X7.4854 Y6.9915
G01 X7.5573 Y7.0567
G01 X7.6225 Y7.1286
G01 X7.6803 Y7.2065
G01 X7.7302 Y7.2898
G01 X7.7717 Y7.3775
G01 X7.8044 Y7.4689
G01 X7.8280 Y7.5631
G01 X7.8422 Y7.6591
G01 X7.8469 Y7.7511
G01 X7.8469 Y7.7609
G00 Z2.0000
G00 X5.9249 Y8.7295
G01 F60.00
G01 Z-0.1866
G01 F250.00
G01 X5.9851 Y8.7840
G01 X6.0022 Y8.7988
G01 X6.0110 Y8.8058
G01 X6.0992 Y8.8713
G01 X6.1180 Y8.8838
G01 X6.1276 Y8.8897
G01 X6.2024 Y8.9346
G01 X6.2221 Y8.9457
G01 X6.2321 Y8.9509
G01 X6.3314 Y8.9979
G01 X6.3522 Y9.0065
G01 X6.4063 Y9.0260
G01 X6.3522 Y9.0455
G01 X6.3314 Y9.0541
G01 X6.2321 Y9.1011
G01 X6.2221 Y9.1063
G01 X6.2024 Y9.1174
G01 X6.1276 Y9.1623
G01 X6.1085 Y9.1743
G01 X6.0992 Y9.1807
G01 X6.0110 Y9.2462
G01 X5.9936 Y9.2605
G01 X5.9851 Y9.2680
G01 X5.9249 Y9.3225
G01 X5.9249 Y8.7295
G00 Z2.0000
G00 X7.8469 Y10.3009
G01 F60.00
G01 Z-0.1866
G01 F250.00
G01 X7.8422 Y10.3929
G01 X7.8280 Y10.4889
G01 X7.8044 Y10.5831
G01 X7.7717 Y10.6745
G01 X7.7302 Y10.7622
G01 X7.6803 Y10.8455
G01 X7.6225 Y10.9234
G01 X7.5573 Y10.9953
G01 X7.4854 Y11.0605
G01 X7.4075 Y11.1183
G01 X7.3242 Y11.1682
G01 X7.2365 Y11.2097
G01 X7.1451 Y11.2424
G01 X7.0509 Y11.2660
G01 X6.9549 Y11.2802
G01 X6.8580 Y11.2850
G01 X6.7611 Y11.2802
G01 X6.6651 Y11.2660
G01 X6.5709 Y11.2424
G01 X6.4795 Y11.2097
G01 X6.3918 Y11.1682
G01 X6.3085 Y11.1183
G01 X6.2306 Y11.0605
G01 X6.1587 Y10.9953
G01 X6.0935 Y10.9234
G01 X6.0357 Y10.8455
G01 X5.9858 Y10.7622
G01 X5.9443 Y10.6745
G01 X5.9116 Y10.5831
G01 X5.8880 Y10.4889
G01 X5.8738 Y10.3929
G01 X5.8690 Y10.2960
G01 X5.8738 Y10.1991
G01 X5.8880 Y10.1031
G01 X5.9116 Y10.0089
G01 X5.9443 Y9.9175
G01 X5.9858 Y9.8298
G01 X6.0357 Y9.7465
G01 X6.0935 Y9.6686
G01 X6.1587 Y9.5967
G01 X6.2306 Y9.5315
G01 X6.3085 Y9.4737
G01 X6.3918 Y9.4238
G01 X6.4795 Y9.3823
G01 X6.5709 Y9.3496
G01 X6.6651 Y9.3260
G01 X6.7611 Y9.3118
G01 X6.8580 Y9.3070
G01 X6.9549 Y9.3118
G01 X7.0509 Y9.3260
G01 X7.1451 Y9.3496
G01 X7.2365 Y9.3823
G01 X7.3242 Y9.4238
G01 X7.4075 Y9.4737
G01 X7.4854 Y9.5315
G01 X7.5573 Y9.5967
G01 X7.6225 Y9.6686
G01 X7.6803 Y9.7465
G01 X7.7302 Y9.8298
G01 X7.7717 Y9.9175
G01 X7.8044 Y10.0089
G01 X7.8280 Y10.1031
G01 X7.8422 Y10.1991
G01 X7.8469 Y10.2911
G01 X7.8469 Y10.3009
G00 Z2.0000
G00 X5.9249 Y11.2695
G01 F60.00
G01 Z-0.1866
G01 F250.00
G01 X5.9851 Y11.3240
G01 X6.0022 Y11.3388
G01 X6.0110 Y11.3458
G01 X6.0992 Y11.4113
G01 X6.1180 Y11.4238
G01 X6.1276 Y11.4297
G01 X6.2024 Y11.4746
G01 X6.2221 Y11.4857
G01 X6.2321 Y11.4909
G01 X6.3314 Y11.5379
G01 X6.3522 Y11.5465
G01 X6.4063 Y11.5660
G01 X6.3522 Y11.5855
G01 X6.3314 Y11.5941
G01 X6.2321 Y11.6411
G01 X6.2221 Y11.6463
G01 X6.2024 Y11.6574
G01 X6.1276 Y11.7023
G01 X6.1085 Y11.7143
G01 X6.0992 Y11.7207
G01 X6.0110 Y11.7862
G01 X5.9936 Y11.8005
G01 X5.9851 Y11.8080
G01 X5.9249 Y11.8625
G01 X5.9249 Y11.2695
G00 Z2.0000
G00 X7.8469 Y12.8409
G01 F60.00
G01 Z-0.1866
G01 F250.00
G01 X7.8422 Y12.9329
G01 X7.8280 Y13.0289
G01 X7.8044 Y13.1231
G01 X7.7717 Y13.2145
G01 X7.7302 Y13.3022
G01 X7.6803 Y13.3855
G01 X7.6225 Y13.4634
G01 X7.5573 Y13.5353
G01 X7.4854 Y13.6005
G01 X7.4075 Y13.6583
G01 X7.3242 Y13.7082
G01 X7.2365 Y13.7497
G01 X7.1451 Y13.7824
G01 X7.0509 Y13.8060
G01 X6.9549 Y13.8202
G01 X6.8580 Y13.8250
G01 X6.7611 Y13.8202
G01 X6.6651 Y13.8060
G01 X6.5709 Y13.7824
G01 X6.4795 Y13.7497
G01 X6.3918 Y13.7082
G01 X6.3085 Y13.6583
G01 X6.2306 Y13.6005
G01 X6.1587 Y13.5353
G01 X6.0935 Y13.4634
G01 X6.0357 Y13.3855
G01 X5.9858 Y13.3022
G01 X5.9443 Y13.2145
G01 X5.9116 Y13.1231
G01 X5.8880 Y13.0289
G01 X5.8738 Y12.9329
G01 X5.8690 Y12.8360
G01 X5.8738 Y12.7391
G01 X5.8880 Y12.6431
G01 X5.9116 Y12.5489
G01 X5.9443 Y12.4575
G01 X5.9858 Y12.3698
G01 X6.0357 Y12.2865
G01 X6.0935 Y12.2086
G01 X6.1587 Y12.1367
G01 X6.2306 Y12.0715
G01 X6.3085 Y12.0137
G01 X6.3918 Y11.9638
G01 X6.4795 Y11.9223
G01 X6.5709 Y11.8896
G01 X6.6651 Y11.8660
G01 X6.7611 Y11.8518
G01 X6.8580 Y11.8470
G01 X6.9549 Y11.8518
G01 X7.0509 Y11.8660
G01 X7.1451 Y11.8896
G01 X7.2365 Y11.9223
G01 X7.3242 Y11.9638
G01 X7.4075 Y12.0137
G01 X7.4854 Y12.0715
G01 X7.5573 Y12.1367
G01 X7.6225 Y12.2086
G01 X7.6803 Y12.2865
G01 X7.7302 Y12.3698
G01 X7.7717 Y12.4575
G01 X7.8044 Y12.5489
G01 X7.8280 Y12.6431
G01 X7.8422 Y12.7391
G01 X7.8469 Y12.8311
G01 X7.8469 Y12.8409
G00 Z2.0000
G00 X8.0267 Y12.8497
G01 F60.00
G01 Z-0.1866
G01 F250.00
G01 X8.0224 Y12.9369
G01 X8.0214 Y12.9506
G01 X8.0197 Y12.9642
G01 X8.0069 Y13.0505
G01 X8.0045 Y13.0641
G01 X8.0015 Y13.0775
G01 X7.9803 Y13.1621
G01 X7.9767 Y13.1753
G01 X7.9724 Y13.1884
G01 X7.9430 Y13.2705
G01 X7.9380 Y13.2834
G01 X7.9324 Y13.2959
G01 X7.8951 Y13.3748
G01 X7.8890 Y13.3871
G01 X7.8822 Y13.3990
G01 X7.8373 Y13.4739
G01 X7.8300 Y13.4855
G01 X7.8221 Y13.4967
G01 X7.7701 Y13.5668
G01 X7.7616 Y13.5776
G01 X7.7527 Y13.5880
G01 X7.6941 Y13.6527
G01 X7.6846 Y13.6626
G01 X7.6747 Y13.6721
G01 X7.6100 Y13.7307
G01 X7.5996 Y13.7396
G01 X7.5888 Y13.7481
G01 X7.5187 Y13.8001
G01 X7.5075 Y13.8080
G01 X7.4959 Y13.8153
G01 X7.4210 Y13.8602
G01 X7.4091 Y13.8670
G01 X7.3968 Y13.8731
G01 X7.3179 Y13.9104
G01 X7.3054 Y13.9160
G01 X7.2925 Y13.9210
G01 X7.2104 Y13.9504
G01 X7.1973 Y13.9547
G01 X7.1841 Y13.9583
G01 X7.0995 Y13.9795
G01 X7.0861 Y13.9825
G01 X7.0725 Y13.9849
G01 X6.9862 Y13.9977
G01 X6.9726 Y13.9994
G01 X6.9589 Y14.0004
G01 X6.8717 Y14.0047
G01 X6.8580 Y14.0050
G01 X6.8443 Y14.0047
G01 X6.7571 Y14.0004
G01 X6.7434 Y13.9994
G01 X6.7298 Y13.9977
G01 X6.6435 Y13.9849
G01 X6.6299 Y13.9825
G01 X6.6165 Y13.9795
G01 X6.5319 Y13.9583
G01 X6.5187 Y13.9547
G01 X6.5056 Y13.9504
G01 X6.4235 Y13.9210
G01 X6.4106 Y13.9160
G01 X6.3981 Y13.9104
G01 X6.3192 Y13.8731
G01 X6.3069 Y13.8670
G01 X6.2950 Y13.8602
G01 X6.2201 Y13.8153
G01 X6.2085 Y13.8080
G01 X6.1973 Y13.8001
G01 X6.1272 Y13.7481
G01 X6.1164 Y13.7396
G01 X6.1060 Y13.7307
G01 X6.0413 Y13.6721
G01 X6.0314 Y13.6626
G01 X6.0219 Y13.6527
G01 X5.9633 Y13.5880
G01 X5.9544 Y13.5776
G01 X5.9459 Y13.5668
G01 X5.8939 Y13.4967
G01 X5.8860 Y13.4855
G01 X5.8787 Y13.4739
G01 X5.8338 Y13.3990
G01 X5.8270 Y13.3871
G01 X5.8209 Y13.3748
G01 X5.7836 Y13.2959
G01 X5.7780 Y13.2834
G01 X5.7730 Y13.2705
G01 X5.7449 Y13.1920
G01 X5.7449 Y15.0200
G01 X5.7730 Y14.9415
G01 X5.7780 Y14.9286
G01 X5.7836 Y14.9161
G01 X5.8209 Y14.8372
G01 X5.8270 Y14.8249
G01 X5.8338 Y14.8130
G01 X5.8787 Y14.7381
G01 X5.8860 Y14.7265
G01 X5.8939 Y14.7153
G01 X5.9459 Y14.6452
G01 X5.9544 Y14.6344
G01 X5.9633 Y14.6240
G01 X6.0219 Y14.5593
G01 X6.0314 Y14.5494
G01 X6.0413 Y14.5399
G01 X6.1060 Y14.4813
G01 X6.1164 Y14.4724
G01 X6.1272 Y14.4639
G01 X6.1973 Y14.4119
G01 X6.2085 Y14.4040
G01 X6.2201 Y14.3967
G01 X6.2950 Y14.3518
G01 X6.3069 Y14.3450
G01 X6.3192 Y14.3389
G01 X6.3981 Y14.3016
G01 X6.4106 Y14.2960
G01 X6.4235 Y14.2910
G01 X6.5056 Y14.2616
G01 X6.5187 Y14.2573
G01 X6.5319 Y14.2537
G01 X6.6165 Y14.2325
G01 X6.6299 Y14.2295
G01 X6.6435 Y14.2271
G01 X6.7298 Y14.2143
G01 X6.7434 Y14.2126
G01 X6.7571 Y14.2116
G01 X6.8443 Y14.2073
G01 X6.8580 Y14.2070
G01 X6.8717 Y14.2073
G01 X6.9589 Y14.2116
G01 X6.9726 Y14.2126
G01 X6.9862 Y14.2143
G01 X7.0725 Y14.2271
G01 X7.0861 Y14.2295
G01 X7.0995 Y14.2325
G01 X7.1841 Y14.2537
G01 X7.1973 Y14.2573
G01 X7.2104 Y14.2616
G01 X7.2925 Y14.2910
G01 X7.3054 Y14.2960
G01 X7.3179 Y14.3016
G01 X7.3968 Y14.3389
G01 X7.4091 Y14.3450
G01 X7.4210 Y14.3518
G01 X7.4959 Y14.3967
G01 X7.5075 Y14.4040
G01 X7.5187 Y14.4119
G01 X7.5888 Y14.4639
G01 X7.5996 Y14.4724
G01 X7.6100 Y14.4813
G01 X7.6747 Y14.5399
G01 X7.6846 Y14.5494
G01 X7.6941 Y14.5593
G01 X7.7527 Y14.6240
G01 X7.7616 Y14.6344
G01 X7.7701 Y14.6452
G01 X7.8221 Y14.7153
G01 X7.8300 Y14.7265
G01 X7.8373 Y14.7381
G01 X7.8822 Y14.8130
G01 X7.8890 Y14.8249
G01 X7.8951 Y14.8372
G01 X7.9324 Y14.9161
G01 X7.9380 Y14.9286
G01 X7.9430 Y14.9415
G01 X7.9724 Y15.0236
G01 X7.9767 Y15.0367
G01 X7.9803 Y15.0499
G01 X8.0015 Y15.1345
G01 X8.0045 Y15.1479
G01 X8.0069 Y15.1615
G01 X8.0197 Y15.2478
G01 X8.0214 Y15.2614
G01 X8.0224 Y15.2751
G01 X8.0267 Y15.3623
G01 X8.0270 Y15.3760
G01 X8.0267 Y15.3897
G01 X8.0224 Y15.4769
G01 X8.0214 Y15.4906
G01 X8.0197 Y15.5042
G01 X8.0069 Y15.5905
G01 X8.0045 Y15.6041
G01 X8.0015 Y15.6175
G01 X7.9803 Y15.7021
G01 X7.9767 Y15.7153
G01 X7.9724 Y15.7284
G01 X7.9430 Y15.8105
G01 X7.9380 Y15.8234
G01 X7.9324 Y15.8359
G01 X7.8951 Y15.9148
G01 X7.8890 Y15.9271
G01 X7.8822 Y15.9390
G01 X7.8373 Y16.0139
G01 X7.8300 Y16.0255
G01 X7.8221 Y16.0367
G01 X7.7701 Y16.1068
G01 X7.7616 Y16.1176
G01 X7.7527 Y16.1280
G01 X7.6941 Y16.1927
G01 X7.6846 Y16.2026
G01 X7.6747 Y16.2121
G01 X7.6100 Y16.2707
G01 X7.5996 Y16.2796
G01 X7.5888 Y16.2881
G01 X7.5187 Y16.3401
G01 X7.5075 Y16.3480
G01 X7.4959 Y16.3553
G01 X7.4210 Y16.4002
G01 X7.4091 Y16.4070
G01 X7.3968 Y16.4131
G01 X7.3179 Y16.4504
G01 X7.3054 Y16.4560
G01 X7.2925 Y16.4610
G01 X7.2104 Y16.4904
G01 X7.1973 Y16.4947
G01 X7.1841 Y16.4983
G01 X7.0995 Y16.5195
G01 X7.0861 Y16.5225
G01 X7.0725 Y16.5249
G01 X6.9862 Y16.5377
G01 X6.9726 Y16.5394
G01 X6.9589 Y16.5404
G01 X6.8717 Y16.5447
G01 X6.8580 Y16.5450
G01 X6.8443 Y16.5447
G01 X6.7571 Y16.5404
G01 X6.7434 Y16.5394
G01 X6.7298 Y16.5377
G01 X6.6435 Y16.5249
G01 X6.6299 Y16.5225
G01 X6.6165 Y16.5195
G01 X6.5319 Y16.4983
G01 X6.5187 Y16.4947
G01 X6.5056 Y16.4904
G01 X6.4235 Y16.4610
G01 X6.4106 Y16.4560
G01 X6.3981 Y16.4504
G01 X6.3192 Y16.4131
G01 X6.3069 Y16.4070
G01 X6.2950 Y16.4002
G01 X6.2201 Y16.3553
G01 X6.2085 Y16.3480
G01 X6.1973 Y16.3401
G01 X6.1272 Y16.2881
G01 X6.1164 Y16.2796
G01 X6.1060 Y16.2707
G01 X6.0413 Y16.2121
G01 X6.0314 Y16.2026
G01 X6.0219 Y16.1927
G01 X5.9633 Y16.1280
G01 X5.9544 Y16.1176
G01 X5.9459 Y16.1068
G01 X5.8939 Y16.0367
G01 X5.8860 Y16.0255
G01 X5.8787 Y16.0139
G01 X5.8338 Y15.9390
G01 X5.8270 Y15.9271
G01 X5.8209 Y15.9148
G01 X5.7836 Y15.8359
G01 X5.7780 Y15.8234
G01 X5.7730 Y15.8105
G01 X5.7449 Y15.7320
G01 X5.7449 Y17.5600
G01 X5.7730 Y17.4815
G01 X5.7780 Y17.4686
G01 X5.7836 Y17.4561
G01 X5.8209 Y17.3772
G01 X5.8270 Y17.3649
G01 X5.8338 Y17.3530
G01 X5.8787 Y17.2781
G01 X5.8860 Y17.2665
G01 X5.8939 Y17.2553
G01 X5.9459 Y17.1852
G01 X5.9544 Y17.1744
G01 X5.9633 Y17.1640
G01 X6.0219 Y17.0993
G01 X6.0314 Y17.0894
G01 X6.0413 Y17.0799
G01 X6.1060 Y17.0213
G01 X6.1164 Y17.0124
G01 X6.1272 Y17.0039
G01 X6.1973 Y16.9519
G01 X6.2085 Y16.9440
G01 X6.2201 Y16.9367
G01 X6.2950 Y16.8918
G01 X6.3069 Y16.8850
G01 X6.3192 Y16.8789
G01 X6.3981 Y16.8416
G01 X6.4106 Y16.8360
G01 X6.4235 Y16.8310
G01 X6.5056 Y16.8016
G01 X6.5187 Y16.7973
G01 X6.5319 Y16.7937
G01 X6.6165 Y16.7725
G01 X6.6299 Y16.7695
G01 X6.6435 Y16.7671
G01 X6.7298 Y16.7543
G01 X6.7434 Y16.7526
G01 X6.7571 Y16.7516
G01 X6.8443 Y16.7473
G01 X6.8580 Y16.7470
G01 X6.8717 Y16.7473
G01 X6.9589 Y16.7516
G01 X6.9726 Y16.7526
G01 X6.9862 Y16.7543
G01 X7.0725 Y16.7671
G01 X7.0861 Y16.7695
G01 X7.0995 Y16.7725
G01 X7.1841 Y16.7937
G01 X7.1973 Y16.7973
G01 X7.2104 Y16.8016
G01 X7.2925 Y16.8310
G01 X7.3054 Y16.8360
G01 X7.3179 Y16.8416
G01 X7.3968 Y16.8789
G01 X7.4091 Y16.8850
G01 X7.4210 Y16.8918
G01 X7.4959 Y16.9367
G01 X7.5075 Y16.9440
G01 X7.5187 Y16.9519
G01 X7.5888 Y17.0039
G01 X7.5996 Y17.0124
G01 X7.6100 Y17.0213
G01 X7.6747 Y17.0799
G01 X7.6846 Y17.0894
G01 X7.6941 Y17.0993
G01 X7.7527 Y17.1640
G01 X7.7616 Y17.1744
G01 X7.7701 Y17.1852
G01 X7.8221 Y17.2553
G01 X7.8300 Y17.2665
G01 X7.8373 Y17.2781
G01 X7.8822 Y17.3530
G01 X7.8890 Y17.3649
G01 X7.8951 Y17.3772
G01 X7.9324 Y17.4561
G01 X7.9380 Y17.4686
G01 X7.9430 Y17.4815
G01 X7.9724 Y17.5636
G01 X7.9767 Y17.5767
G01 X7.9803 Y17.5899
G01 X8.0015 Y17.6745
G01 X8.0045 Y17.6879
G01 X8.0069 Y17.7015
G01 X8.0197 Y17.7878
G01 X8.0214 Y17.8014
G01 X8.0224 Y17.8151
G01 X8.0267 Y17.9023
G01 X8.0270 Y17.9160
G01 X8.0267 Y17.9297
G01 X8.0224 Y18.0169
G01 X8.0214 Y18.0306
G01 X8.0197 Y18.0442
G01 X8.0069 Y18.1305
G01 X8.0045 Y18.1441
G01 X8.0015 Y18.1575
G01 X7.9803 Y18.2421
G01 X7.9767 Y18.2553
G01 X7.9724 Y18.2684
G01 X7.9430 Y18.3505
G01 X7.9380 Y18.3634
G01 X7.9324 Y18.3759
G01 X7.8951 Y18.4548
G01 X7.8890 Y18.4671
G01 X7.8822 Y18.4790
G01 X7.8373 Y18.5539
G01 X7.8300 Y18.5655
G01 X7.8221 Y18.5767
G01 X7.7701 Y18.6468
G01 X7.7616 Y18.6576
G01 X7.7527 Y18.6680
G01 X7.6941 Y18.7327
G01 X7.6846 Y18.7426
G01 X7.6747 Y18.7521
G01 X7.6100 Y18.8107
G01 X7.5996 Y18.8196
G01 X7.5888 Y18.8281
G01 X7.5187 Y18.8801
G01 X7.5075 Y18.8880
G01 X7.4959 Y18.8953
G01 X7.4210 Y18.9402
G01 X7.4091 Y18.9470
G01 X7.3968 Y18.9531
G01 X7.3179 Y18.9904
G01 X7.3054 Y18.9960
G01 X7.2925 Y19.0010
G01 X7.2104 Y19.0304
G01 X7.1973 Y19.0347
G01 X7.1841 Y19.0383
G01 X7.0995 Y19.0595
G01 X7.0861 Y19.0625
G01 X7.0725 Y19.0649
G01 X6.9862 Y19.0777
G01 X6.9726 Y19.0794
G01 X6.9589 Y19.0804
G01 X6.8717 Y19.0847
G01 X6.8580 Y19.0850
G01 X6.8443 Y19.0847
G01 X6.7571 Y19.0804
G01 X6.7434 Y19.0794
G01 X6.7298 Y19.0777
G01 X6.6435 Y19.0649
G01 X6.6299 Y19.0625
G01 X6.6165 Y19.0595
G01 X6.5319 Y19.0383
G01 X6.5187 Y19.0347
G01 X6.5056 Y19.0304
G01 X6.4235 Y19.0010
G01 X6.4106 Y18.9960
G01 X6.3981 Y18.9904
G01 X6.3192 Y18.9531
G01 X6.3069 Y18.9470
G01 X6.2950 Y18.9402
G01 X6.2201 Y18.8953
G01 X6.2085 Y18.8880
G01 X6.1973 Y18.8801
G01 X6.1272 Y18.8281
G01 X6.1164 Y18.8196
G01 X6.1060 Y18.8107
G01 X6.0413 Y18.7521
G01 X6.0314 Y18.7426
G01 X6.0219 Y18.7327
G01 X5.9633 Y18.6680
G01 X5.9544 Y18.6576
G01 X5.9459 Y18.6468
G01 X5.8939 Y18.5767
G01 X5.8860 Y18.5655
G01 X5.8787 Y18.5539
G01 X5.8338 Y18.4790
G01 X5.8270 Y18.4671
G01 X5.8209 Y18.4548
G01 X5.7836 Y18.3759
G01 X5.7780 Y18.3634
G01 X5.7730 Y18.3505
G01 X5.7449 Y18.2720
G01 X5.7449 Y20.1000
G01 X5.7730 Y20.0215
G01 X5.7780 Y20.0086
G01 X5.7836 Y19.9961
G01 X5.8209 Y19.9172
G01 X5.8270 Y19.9049
G01 X5.8338 Y19.8930
G01 X5.8787 Y19.8181
G01 X5.8860 Y19.8065
G01 X5.8939 Y19.7953
G01 X5.9459 Y19.7252
G01 X5.9544 Y19.7144
G01 X5.9633 Y19.7040
G01 X6.0219 Y19.6393
G01 X6.0314 Y19.6294
G01 X6.0413 Y19.6199
G01 X6.1060 Y19.5613
G01 X6.1164 Y19.5524
G01 X6.1272 Y19.5439
G01 X6.1973 Y19.4919
G01 X6.2085 Y19.4840
G01 X6.2201 Y19.4767
G01 X6.2950 Y19.4318
G01 X6.3069 Y19.4250
G01 X6.3192 Y19.4189
G01 X6.3981 Y19.3816
G01 X6.4106 Y19.3760
G01 X6.4235 Y19.3710
G01 X6.5056 Y19.3416
G01 X6.5187 Y19.3373
G01 X6.5319 Y19.3337
G01 X6.6165 Y19.3125
G01 X6.6299 Y19.3095
G01 X6.6435 Y19.3071
G01 X6.7298 Y19.2943
G01 X6.7434 Y19.2926
G01 X6.7571 Y19.2916
G01 X6.8443 Y19.2873
G01 X6.8580 Y19.2870
G01 X6.8717 Y19.2873
G01 X6.9589 Y19.2916
G01 X6.9726 Y19.2926
G01 X6.9862 Y19.2943
G01 X7.0725 Y19.3071
G01 X7.0861 Y19.3095
G01 X7.0995 Y19.3125
G01 X7.1841 Y19.3337
G01 X7.1973 Y19.3373
G01 X7.2104 Y19.3416
G01 X7.2925 Y19.3710
G01 X7.3054 Y19.3760
G01 X7.3179 Y19.3816
G01 X7.3968 Y19.4189
G01 X7.4091 Y19.4250
G01 X7.4210 Y19.4318
G01 X7.4959 Y19.4767
G01 X7.5075 Y19.4840
G01 X7.5187 Y19.4919
G01 X7.5888 Y19.5439
G01 X7.5996 Y19.5524
G01 X7.6100 Y19.5613
G01 X7.6747 Y19.6199
G01 X7.6846 Y19.6294
G01 X7.6941 Y19.6393
G01 X7.7527 Y19.7040
G01 X7.7616 Y19.7144
G01 X7.7701 Y19.7252
G01 X7.8221 Y19.7953
G01 X7.8300 Y19.8065
G01 X7.8373 Y19.8181
G01 X7.8822 Y19.8930
G01 X7.8890 Y19.9049
G01 X7.8951 Y19.9172
G01 X7.9324 Y19.9961
G01 X7.9380 Y20.0086
G01 X7.9430 Y20.0215
G01 X7.9724 Y20.1036
G01 X7.9767 Y20.1167
G01 X7.9803 Y20.1299
G01 X8.0015 Y20.2145
G01 X8.0045 Y20.2279
G01 X8.0069 Y20.2415
G01 X8.0197 Y20.3278
G01 X8.0214 Y20.3414
G01 X8.0224 Y20.3551
G01 X8.0267 Y20.4423
G01 X8.0270 Y20.4560
G01 X8.0267 Y20.4697
G01 X8.0224 Y20.5569
G01 X8.0214 Y20.5706
G01 X8.0197 Y20.5842
G01 X8.0069 Y20.6705
G01 X8.0045 Y20.6841
G01 X8.0015 Y20.6975
G01 X7.9803 Y20.7821
G01 X7.9767 Y20.7953
G01 X7.9724 Y20.8084
G01 X7.9430 Y20.8905
G01 X7.9380 Y20.9034
G01 X7.9324 Y20.9159
G01 X7.8951 Y20.9948
G01 X7.8890 Y21.0071
G01 X7.8822 Y21.0190
G01 X7.8373 Y21.0939
G01 X7.8300 Y21.1055
G01 X7.8221 Y21.1167
G01 X7.7701 Y21.1868
G01 X7.7616 Y21.1976
G01 X7.7527 Y21.2080
G01 X7.6941 Y21.2727
G01 X7.6846 Y21.2826
G01 X7.6747 Y21.2921
G01 X7.6100 Y21.3507
G01 X7.5996 Y21.3596
G01 X7.5888 Y21.3681
G01 X7.5187 Y21.4201
G01 X7.5075 Y21.4280
G01 X7.4959 Y21.4353
G01 X7.4210 Y21.4802
G01 X7.4091 Y21.4870
G01 X7.3968 Y21.4931
G01 X7.3179 Y21.5304
G01 X7.3054 Y21.5360
G01 X7.2925 Y21.5410
G01 X7.2104 Y21.5704
G01 X7.1973 Y21.5747
G01 X7.1841 Y21.5783
G01 X7.0995 Y21.5995
G01 X7.0861 Y21.6025
G01 X7.0725 Y21.6049
G01 X6.9862 Y21.6177
G01 X6.9726 Y21.6194
G01 X6.9589 Y21.6204
G01 X6.8717 Y21.6247
G01 X6.8580 Y21.6250
G01 X6.8443 Y21.6247
G01 X6.7571 Y21.6204
G01 X6.7434 Y21.6194
G01 X6.7298 Y21.6177
G01 X6.6435 Y21.6049
G01 X6.6299 Y21.6025
G01 X6.6165 Y21.5995
G01 X6.5319 Y21.5783
G01 X6.5187 Y21.5747
G01 X6.5056 Y21.5704
G01 X6.4235 Y21.5410
G01 X6.4106 Y21.5360
G01 X6.3981 Y21.5304
G01 X6.3192 Y21.4931
G01 X6.3069 Y21.4870
G01 X6.2950 Y21.4802
G01 X6.2201 Y21.4353
G01 X6.2085 Y21.4280
G01 X6.1973 Y21.4201
G01 X6.1272 Y21.3681
G01 X6.1164 Y21.3596
G01 X6.1060 Y21.3507
G01 X6.0413 Y21.2921
G01 X6.0314 Y21.2826
G01 X6.0219 Y21.2727
G01 X5.9633 Y21.2080
G01 X5.9544 Y21.1976
G01 X5.9459 Y21.1868
G01 X5.8939 Y21.1167
G01 X5.8860 Y21.1055
G01 X5.8787 Y21.0939
G01 X5.8338 Y21.0190
G01 X5.8270 Y21.0071
G01 X5.8209 Y20.9948
G01 X5.7836 Y20.9159
G01 X5.7780 Y20.9034
G01 X5.7730 Y20.8905
G01 X5.7449 Y20.8120
G01 X5.7449 Y22.6400
G01 X5.7730 Y22.5615
G01 X5.7780 Y22.5486
G01 X5.7836 Y22.5361
G01 X5.8209 Y22.4572
G01 X5.8270 Y22.4449
G01 X5.8338 Y22.4330
G01 X5.8787 Y22.3581
G01 X5.8860 Y22.3465
G01 X5.8939 Y22.3353
G01 X5.9459 Y22.2652
G01 X5.9544 Y22.2544
G01 X5.9633 Y22.2440
G01 X6.0219 Y22.1793
G01 X6.0314 Y22.1694
G01 X6.0413 Y22.1599
G01 X6.1060 Y22.1013
G01 X6.1164 Y22.0924
G01 X6.1272 Y22.0839
G01 X6.1973 Y22.0319
G01 X6.2085 Y22.0240
G01 X6.2201 Y22.0167
G01 X6.2950 Y21.9718
G01 X6.3069 Y21.9650
G01 X6.3192 Y21.9589
G01 X6.3981 Y21.9216
G01 X6.4106 Y21.9160
G01 X6.4235 Y21.9110
G01 X6.5056 Y21.8816
G01 X6.5187 Y21.8773
G01 X6.5319 Y21.8737
G01 X6.6165 Y21.8525
G01 X6.6299 Y21.8495
G01 X6.6435 Y21.8471
G01 X6.7298 Y21.8343
G01 X6.7434 Y21.8326
G01 X6.7571 Y21.8316
G01 X6.8443 Y21.8273
G01 X6.8580 Y21.8270
G01 X6.8717 Y21.8273
G01 X6.9589 Y21.8316
G01 X6.9726 Y21.8326
G01 X6.9862 Y21.8343
G01 X7.0725 Y21.8471
G01 X7.0861 Y21.8495
G01 X7.0995 Y21.8525
G01 X7.1841 Y21.8737
G01 X7.1973 Y21.8773
G01 X7.2104 Y21.8816
G01 X7.2925 Y21.9110
G01 X7.3054 Y21.9160
G01 X7.3179 Y21.9216
G01 X7.3968 Y21.9589
G01 X7.4091 Y21.9650
G01 X7.4210 Y21.9718
G01 X7.4959 Y22.0167
G01 X7.5075 Y22.0240
G01 X7.5187 Y22.0319
G01 X7.5888 Y22.0839
G01 X7.5996 Y22.0924
G01 X7.6100 Y22.1013
G01 X7.6747 Y22.1599
G01 X7.6846 Y22.1694
G01 X7.6941 Y22.1793
G01 X7.7527 Y22.2440
G01 X7.7616 Y22.2544
G01 X7.7701 Y22.2652
G01 X7.8221 Y22.3353
G01 X7.8300 Y22.3465
G01 X7.8373 Y22.3581
G01 X7.8822 Y22.4330
G01 X7.8890 Y22.4449
G01 X7.8951 Y22.4572
G01 X7.9324 Y22.5361
G01 X7.9380 Y22.5486
G01 X7.9430 Y22.5615
G01 X7.9724 Y22.6436
G01 X7.9767 Y22.6567
G01 X7.9803 Y22.6699
G01 X8.0015 Y22.7545
G01 X8.0045 Y22.7679
G01 X8.0069 Y22.7815
G01 X8.0197 Y22.8678
G01 X8.0214 Y22.8814
G01 X8.0224 Y22.8951
G01 X8.0267 Y22.9823
G01 X8.0270 Y22.9960
G01 X8.0267 Y23.0097
G01 X8.0224 Y23.0969
G01 X8.0214 Y23.1106
G01 X8.0197 Y23.1242
G01 X8.0069 Y23.2105
G01 X8.0045 Y23.2241
G01 X8.0015 Y23.2375
G01 X7.9803 Y23.3221
G01 X7.9767 Y23.3353
G01 X7.9724 Y23.3484
G01 X7.9430 Y23.4305
G01 X7.9380 Y23.4434
G01 X7.9324 Y23.4559
G01 X7.8951 Y23.5348
G01 X7.8890 Y23.5471
G01 X7.8822 Y23.5590
G01 X7.8373 Y23.6339
G01 X7.8300 Y23.6455
G01 X7.8221 Y23.6567
G01 X7.7701 Y23.7268
G01 X7.7616 Y23.7376
G01 X7.7527 Y23.7480
G01 X7.6941 Y23.8127
G01 X7.6846 Y23.8226
G01 X7.6747 Y23.8321
G01 X7.6100 Y23.8907
G01 X7.5996 Y23.8996
G01 X7.5888 Y23.9081
G01 X7.5187 Y23.9601
G01 X7.5075 Y23.9680
G01 X7.4959 Y23.9753
G01 X7.4210 Y24.0202
G01 X7.4091 Y24.0270
G01 X7.3968 Y24.0331
G01 X7.3179 Y24.0704
G01 X7.3054 Y24.0760
G01 X7.2925 Y24.0810
G01 X7.2104 Y24.1104
G01 X7.1973 Y24.1147
G01 X7.1841 Y24.1183
G01 X7.0995 Y24.1395
G01 X7.0861 Y24.1425
G01 X7.0725 Y24.1449
G01 X6.9862 Y24.1577
G01 X6.9726 Y24.1594
G01 X6.9589 Y24.1604
G01 X6.8717 Y24.1647
G01 X6.8580 Y24.1650
G01 X6.8443 Y24.1647
G01 X6.7571 Y24.1604
G01 X6.7434 Y24.1594
G01 X6.7298 Y24.1577
G01 X6.6435 Y24.1449
G01 X6.6299 Y24.1425
G01 X6.6165 Y24.1395
G01 X6.5319 Y24.1183
G01 X6.5187 Y24.1147
G01 X6.5056 Y24.1104
G01 X6.4235 Y24.0810
G01 X6.4106 Y24.0760
G01 X6.3981 Y24.0704
G01 X6.3192 Y24.0331
G01 X6.3069 Y24.0270
G01 X6.2950 Y24.0202
G01 X6.2201 Y23.9753
G01 X6.2085 Y23.9680
G01 X6.1973 Y23.9601
G01 X6.1272 Y23.9081
G01 X6.1164 Y23.8996
G01 X6.1060 Y23.8907
G01 X6.0413 Y23.8321
G01 X6.0314 Y23.8226
G01 X6.0219 Y23.8127
G01 X5.9633 Y23.7480
G01 X5.9544 Y23.7376
G01 X5.9459 Y23.7268
G01 X5.8939 Y23.6567
G01 X5.8860 Y23.6455
G01 X5.8787 Y23.6339
G01 X5.8338 Y23.5590
G01 X5.8270 Y23.5471
G01 X5.8209 Y23.5348
G01 X5.7836 Y23.4559
G01 X5.7780 Y23.4434
G01 X5.7730 Y23.4305
G01 X5.7449 Y23.3520
G01 X5.7449 Y25.1800
G01 X5.7730 Y25.1015
G01 X5.7780 Y25.0886
G01 X5.7836 Y25.0761
G01 X5.8209 Y24.9972
G01 X5.8270 Y24.9849
G01 X5.8338 Y24.9730
G01 X5.8787 Y24.8981
G01 X5.8860 Y24.8865
G01 X5.8939 Y24.8753
G01 X5.9459 Y24.8052
G01 X5.9544 Y24.7944
G01 X5.9633 Y24.7840
G01 X6.0219 Y24.7193
G01 X6.0314 Y24.7094
G01 X6.0413 Y24.6999
G01 X6.1060 Y24.6413
G01 X6.1164 Y24.6324
G01 X6.1272 Y24.6239
G01 X6.1973 Y24.5719
G01 X6.2085 Y24.5640
G01 X6.2201 Y24.5567
G01 X6.2950 Y24.5118
G01 X6.3069 Y24.5050
G01 X6.3192 Y24.4989
G01 X6.3981 Y24.4616
G01 X6.4106 Y24.4560
G01 X6.4235 Y24.4510
G01 X6.5056 Y24.4216
G01 X6.5187 Y24.4173
G01 X6.5319 Y24.4137
G01 X6.6165 Y24.3925
G01 X6.6299 Y24.3895
G01 X6.6435 Y24.3871
G01 X6.7298 Y24.3743
G01 X6.7434 Y24.3726
G01 X6.7571 Y24.3716
G01 X6.8443 Y24.3673
G01 X6.8580 Y24.3670
G01 X6.8717 Y24.3673
G01 X6.9589 Y24.3716
G01 X6.9726 Y24.3726
G01 X6.9862 Y24.3743
G01 X7.0725 Y24.3871
G01 X7.0928 Y24.3909
G01 X7.1841 Y24.4137
G01 X7.1973 Y24.4173
G01 X7.2104 Y24.4216
G01 X7.2925 Y24.4510
G01 X7.3054 Y24.4560
G01 X7.3179 Y24.4616
G01 X7.3968 Y24.4989
G01 X7.4091 Y24.5050
G01 X7.4210 Y24.5118
G01 X7.4959 Y24.5567
G01 X7.5075 Y24.5640
G01 X7.5187 Y24.5719
G01 X7.5888 Y24.6239
G01 X7.5996 Y24.6324
G01 X7.6100 Y24.6413
G01 X7.6747 Y24.6999
G01 X7.6846 Y24.7094
G01 X7.6941 Y24.7193
G01 X7.7527 Y24.7840
G01 X7.7616 Y24.7944
G01 X7.7701 Y24.8052
G01 X7.8221 Y24.8753
G01 X7.8300 Y24.8865
G01 X7.8373 Y24.8981
G01 X7.8822 Y24.9730
G01 X7.8890 Y24.9849
G01 X7.8951 Y24.9972
G01 X7.9324 Y25.0761
G01 X7.9380 Y25.0886
G01 X7.9430 Y25.1015
G01 X7.9724 Y25.1836
G01 X7.9767 Y25.1967
G01 X7.9803 Y25.2099
G01 X8.0015 Y25.2945
G01 X8.0045 Y25.3079
G01 X8.0069 Y25.3215
G01 X8.0197 Y25.4078
G01 X8.0214 Y25.4214
G01 X8.0224 Y25.4351
G01 X8.0267 Y25.5223
G01 X8.0270 Y25.5360
G01 X8.0267 Y25.5497
G01 X8.0224 Y25.6369
G01 X8.0214 Y25.6506
G01 X8.0197 Y25.6642
G01 X8.0069 Y25.7505
G01 X8.0045 Y25.7641
G01 X8.0015 Y25.7775
G01 X7.9803 Y25.8621
G01 X7.9767 Y25.8753
G01 X7.9724 Y25.8884
G01 X7.9430 Y25.9705
G01 X7.9380 Y25.9834
G01 X7.9324 Y25.9959
G01 X7.8931 Y26.0789
G01 X8.2395 Y25.7326
G01 X8.2395 Y17.3783
G01 X8.2398 Y17.3646
G01 X8.2428 Y17.3116
G01 X8.2502 Y17.2592
G01 X8.2526 Y17.2456
G01 X8.2556 Y17.2322
G01 X8.2669 Y17.1875
G01 X8.2709 Y17.1743
G01 X8.2863 Y17.1308
G01 X8.2913 Y17.1180
G01 X8.2968 Y17.1054
G01 X8.3198 Y17.0577
G01 X8.3468 Y17.0120
G01 X8.3541 Y17.0004
G01 X8.3854 Y16.9576
G01 X8.3983 Y16.9415
G01 X8.4292 Y16.9073
G01 X8.4387 Y16.8973
G01 X9.0901 Y16.2460
G01 X9.0748 Y16.1442
G01 X9.0731 Y16.1306
G01 X9.0721 Y16.1169
G01 X9.0675 Y16.0247
G01 X9.0672 Y16.0110
G01 X9.0675 Y15.9973
G01 X9.0721 Y15.9051
G01 X9.0731 Y15.8914
G01 X9.0748 Y15.8778
G01 X9.0883 Y15.7866
G01 X9.0906 Y15.7730
G01 X9.0936 Y15.7596
G01 X9.1161 Y15.6702
G01 X9.1197 Y15.6569
G01 X9.1240 Y15.6439
G01 X9.1551 Y15.5570
G01 X9.1601 Y15.5442
G01 X9.1656 Y15.5316
G01 X9.2051 Y15.4483
G01 X9.2112 Y15.4360
G01 X9.2180 Y15.4240
G01 X9.2654 Y15.3449
G01 X9.2728 Y15.3333
G01 X9.2807 Y15.3221
G01 X9.3356 Y15.2480
G01 X9.3441 Y15.2372
G01 X9.3531 Y15.2268
G01 X9.4150 Y15.1584
G01 X9.4245 Y15.1485
G01 X9.4344 Y15.1390
G01 X9.5028 Y15.0771
G01 X9.5132 Y15.0681
G01 X9.5240 Y15.0596
G01 X9.5981 Y15.0047
G01 X9.6093 Y14.9968
G01 X9.6209 Y14.9894
G01 X9.7000 Y14.9420
G01 X9.7120 Y14.9352
G01 X9.7243 Y14.9291
G01 X9.8076 Y14.8896
G01 X9.8202 Y14.8841
G01 X9.8330 Y14.8791
G01 X9.9199 Y14.8480
G01 X9.9329 Y14.8437
G01 X9.9462 Y14.8401
G01 X10.0356 Y14.8176
G01 X10.0490 Y14.8146
G01 X10.0626 Y14.8123
G01 X10.1538 Y14.7988
G01 X10.1674 Y14.7971
G01 X10.1811 Y14.7961
G01 X10.2733 Y14.7915
G01 X10.2870 Y14.7912
G01 X10.3007 Y14.7915
G01 X10.3929 Y14.7961
G01 X10.4066 Y14.7971
G01 X10.4202 Y14.7988
G01 X10.5114 Y14.8123
G01 X10.5250 Y14.8146
G01 X10.5384 Y14.8176
G01 X10.6278 Y14.8401
G01 X10.6411 Y14.8437
G01 X10.6541 Y14.8480
G01 X10.7410 Y14.8791
G01 X10.7538 Y14.8841
G01 X10.7664 Y14.8896
G01 X10.8497 Y14.9291
G01 X10.8620 Y14.9352
G01 X10.8740 Y14.9420
G01 X10.9531 Y14.9894
G01 X10.9647 Y14.9968
G01 X10.9759 Y15.0047
G01 X11.0500 Y15.0596
G01 X11.0608 Y15.0681
G01 X11.0712 Y15.0771
G01 X11.1396 Y15.1390
G01 X11.1495 Y15.1485
G01 X11.1590 Y15.1584
G01 X11.2209 Y15.2268
G01 X11.2299 Y15.2372
G01 X11.2384 Y15.2480
G01 X11.2933 Y15.3221
G01 X11.3012 Y15.3333
G01 X11.3086 Y15.3449
G01 X11.3560 Y15.4240
G01 X11.3628 Y15.4360
G01 X11.3689 Y15.4483
G01 X11.4084 Y15.5316
G01 X11.4139 Y15.5442
G01 X11.4189 Y15.5570
G01 X11.4500 Y15.6439
G01 X11.4543 Y15.6569
G01 X11.4579 Y15.6702
G01 X11.4804 Y15.7596
G01 X11.4834 Y15.7730
G01 X11.4857 Y15.7866
G01 X11.4992 Y15.8778
G01 X11.5009 Y15.8914
G01 X11.5019 Y15.9051
G01 X11.5065 Y15.9973
G01 X11.5068 Y16.0110
G01 X11.5065 Y16.0247
G01 X11.5019 Y16.1169
G01 X11.5009 Y16.1306
G01 X11.4992 Y16.1442
G01 X11.4857 Y16.2354
G01 X11.4834 Y16.2490
G01 X11.4804 Y16.2624
G01 X11.4579 Y16.3518
G01 X11.4543 Y16.3651
G01 X11.4500 Y16.3781
G01 X11.4189 Y16.4650
G01 X11.4139 Y16.4778
G01 X11.4084 Y16.4904
G01 X11.3689 Y16.5737
G01 X11.3628 Y16.5860
G01 X11.3560 Y16.5980
G01 X11.3086 Y16.6771
G01 X11.3012 Y16.6887
G01 X11.2933 Y16.6999
G01 X11.2384 Y16.7740
G01 X11.2299 Y16.7848
G01 X11.2209 Y16.7952
G01 X11.1590 Y16.8636
G01 X11.1495 Y16.8735
G01 X11.1396 Y16.8830
G01 X11.0661 Y16.9495
G01 X11.0500 Y16.9624
G01 X10.9759 Y17.0173
G01 X10.9647 Y17.0252
G01 X10.9531 Y17.0326
G01 X10.8740 Y17.0800
G01 X10.8620 Y17.0868
G01 X10.8497 Y17.0929
G01 X10.7664 Y17.1324
G01 X10.7538 Y17.1379
G01 X10.7410 Y17.1429
G01 X10.6541 Y17.1740
G01 X10.6411 Y17.1783
G01 X10.6278 Y17.1819
G01 X10.5384 Y17.2044
G01 X10.5250 Y17.2074
G01 X10.5114 Y17.2097
G01 X10.4202 Y17.2232
G01 X10.4066 Y17.2249
G01 X10.3929 Y17.2259
G01 X10.3007 Y17.2305
G01 X10.2870 Y17.2308
G01 X10.2733 Y17.2305
G01 X10.1811 Y17.2259
G01 X10.1674 Y17.2249
G01 X10.1538 Y17.2232
G01 X10.0520 Y17.2079
G01 X9.5999 Y17.6601
G01 X9.5999 Y26.0143
G01 X9.5996 Y26.0280
G01 X9.5966 Y26.0810
G01 X9.5892 Y26.1335
G01 X9.5868 Y26.1470
G01 X9.5743 Y26.1985
G01 X9.5706 Y26.2118
G01 X9.5663 Y26.2248
G01 X9.5507 Y26.2682
G01 X9.5425 Y26.2872
G01 X9.5196 Y26.3350
G01 X9.5128 Y26.3469
G01 X9.4853 Y26.3922
G01 X9.4773 Y26.4034
G01 X9.4455 Y26.4458
G01 X9.4365 Y26.4562
G01 X9.4055 Y26.4904
G01 X8.0105 Y27.8855
G01 X8.0197 Y27.9478
G01 X8.0214 Y27.9614
G01 X8.0224 Y27.9751
G01 X8.0269 Y28.0691
G01 X8.0267 Y28.0897
G01 X8.0224 Y28.1769
G01 X8.0214 Y28.1906
G01 X8.0197 Y28.2042
G01 X8.0069 Y28.2905
G01 X8.0045 Y28.3041
G01 X8.0015 Y28.3175
G01 X7.9803 Y28.4021
G01 X7.9767 Y28.4153
G01 X7.9724 Y28.4284
G01 X7.9406 Y28.5170
G01 X7.9324 Y28.5359
G01 X7.8951 Y28.6148
G01 X7.8890 Y28.6271
G01 X7.8822 Y28.6390
G01 X7.8373 Y28.7139
G01 X7.8300 Y28.7255
G01 X7.8221 Y28.7367
G01 X7.7701 Y28.8068
G01 X7.7616 Y28.8176
G01 X7.7527 Y28.8280
G01 X7.6941 Y28.8927
G01 X7.6846 Y28.9026
G01 X7.6747 Y28.9121
G01 X7.6049 Y28.9752
G01 X7.5888 Y28.9881
G01 X7.5187 Y29.0401
G01 X7.5075 Y29.0480
G01 X7.4959 Y29.0553
G01 X7.4210 Y29.1002
G01 X7.4091 Y29.1070
G01 X7.3968 Y29.1131
G01 X7.3179 Y29.1504
G01 X7.3054 Y29.1560
G01 X7.2925 Y29.1610
G01 X7.2104 Y29.1904
G01 X7.1973 Y29.1947
G01 X7.1841 Y29.1983
G01 X7.0995 Y29.2195
G01 X7.0861 Y29.2225
G01 X7.0725 Y29.2249
G01 X6.9862 Y29.2377
G01 X6.9726 Y29.2394
G01 X6.9589 Y29.2404
G01 X6.8717 Y29.2447
G01 X6.8580 Y29.2450
G01 X6.8443 Y29.2447
G01 X6.7571 Y29.2404
G01 X6.7434 Y29.2394
G01 X6.7298 Y29.2377
G01 X6.6435 Y29.2249
G01 X6.6299 Y29.2225
G01 X6.6165 Y29.2195
G01 X6.5319 Y29.1983
G01 X6.5187 Y29.1947
G01 X6.5056 Y29.1904
G01 X6.4235 Y29.1610
G01 X6.4106 Y29.1560
G01 X6.3981 Y29.1504
G01 X6.3151 Y29.1111
G01 X6.6675 Y29.4636
G01 X6.7298 Y29.4543
G01 X6.7503 Y29.4520
G01 X6.8443 Y29.4473
G01 X6.8649 Y29.4471
G01 X6.9589 Y29.4516
G01 X6.9726 Y29.4526
G01 X6.9862 Y29.4543
G01 X7.0725 Y29.4671
G01 X7.0928 Y29.4709
G01 X7.1841 Y29.4937
G01 X7.1973 Y29.4973
G01 X7.2104 Y29.5016
G01 X7.2925 Y29.5310
G01 X7.3054 Y29.5360
G01 X7.3179 Y29.5416
G01 X7.3968 Y29.5789
G01 X7.4091 Y29.5850
G01 X7.4210 Y29.5918
G01 X7.4959 Y29.6367
G01 X7.5075 Y29.6440
G01 X7.5187 Y29.6519
G01 X7.5888 Y29.7039
G01 X7.5996 Y29.7124
G01 X7.6100 Y29.7213
G01 X7.6747 Y29.7799
G01 X7.6846 Y29.7894
G01 X7.6941 Y29.7993
G01 X7.7527 Y29.8640
G01 X7.7616 Y29.8744
G01 X7.7701 Y29.8852
G01 X7.8261 Y29.9609
G01 X7.8373 Y29.9781
G01 X7.8822 Y30.0530
G01 X7.8890 Y30.0649
G01 X7.8951 Y30.0772
G01 X7.9353 Y30.1623
G01 X7.9430 Y30.1815
G01 X7.9746 Y30.2701
G01 X7.9786 Y30.2833
G01 X7.9903 Y30.3299
G01 X7.9903 Y29.7753
G01 X7.9926 Y29.7223
G01 X7.9944 Y29.7018
G01 X8.0022 Y29.6493
G01 X8.0064 Y29.6292
G01 X8.0196 Y29.5778
G01 X8.0372 Y29.5278
G01 X8.0448 Y29.5087
G01 X8.0645 Y29.4669
G01 X8.0707 Y29.4546
G01 X8.0976 Y29.4090
G01 X8.1050 Y29.3974
G01 X8.1129 Y29.3861
G01 X8.1447 Y29.3438
G01 X8.1537 Y29.3334
G01 X8.1896 Y29.2943
G01 X9.7679 Y27.7159
G01 X9.7338 Y20.8404
G01 X9.7341 Y20.8265
G01 X9.7358 Y20.7870
G01 X9.7368 Y20.7732
G01 X9.7384 Y20.7595
G01 X9.7441 Y20.7204
G01 X9.7464 Y20.7067
G01 X9.7494 Y20.6932
G01 X9.7606 Y20.6482
G01 X9.7646 Y20.6349
G01 X9.7800 Y20.5911
G01 X9.7850 Y20.5782
G01 X9.7905 Y20.5655
G01 X9.8074 Y20.5297
G01 X9.8169 Y20.5113
G01 X9.8407 Y20.4714
G01 X9.8480 Y20.4597
G01 X12.5289 Y16.4384
G01 X12.5517 Y12.1992
G01 X12.5517 Y11.6176
G01 X10.5220 Y9.5879
G01 X10.4202 Y9.6032
G01 X10.4066 Y9.6049
G01 X10.3929 Y9.6059
G01 X10.3007 Y9.6105
G01 X10.2870 Y9.6108
G01 X10.2733 Y9.6105
G01 X10.1811 Y9.6059
G01 X10.1674 Y9.6049
G01 X10.1538 Y9.6032
G01 X10.0626 Y9.5897
G01 X10.0490 Y9.5874
G01 X10.0356 Y9.5844
G01 X9.9462 Y9.5619
G01 X9.9329 Y9.5583
G01 X9.9199 Y9.5540
G01 X9.8330 Y9.5229
G01 X9.8202 Y9.5179
G01 X9.8076 Y9.5124
G01 X9.7243 Y9.4729
G01 X9.7120 Y9.4668
G01 X9.7000 Y9.4600
G01 X9.6209 Y9.4126
G01 X9.6093 Y9.4052
G01 X9.5981 Y9.3973
G01 X9.5240 Y9.3424
G01 X9.5132 Y9.3339
G01 X9.5028 Y9.3249
G01 X9.4344 Y9.2630
G01 X9.4245 Y9.2535
G01 X9.4150 Y9.2436
G01 X9.3531 Y9.1752
G01 X9.3441 Y9.1648
G01 X9.3356 Y9.1540
G01 X9.2807 Y9.0799
G01 X9.2728 Y9.0687
G01 X9.2654 Y9.0571
G01 X9.2180 Y8.9780
G01 X9.2112 Y8.9660
G01 X9.2051 Y8.9537
G01 X9.1656 Y8.8704
G01 X9.1601 Y8.8578
G01 X9.1551 Y8.8450
G01 X9.1240 Y8.7581
G01 X9.1197 Y8.7451
G01 X9.1161 Y8.7318
G01 X9.0936 Y8.6424
G01 X9.0906 Y8.6290
G01 X9.0883 Y8.6154
G01 X9.0748 Y8.5242
G01 X9.0731 Y8.5106
G01 X9.0721 Y8.4969
G01 X9.0675 Y8.4047
G01 X9.0672 Y8.3910
G01 X9.0675 Y8.3773
G01 X9.0721 Y8.2851
G01 X9.0731 Y8.2714
G01 X9.0748 Y8.2578
G01 X9.0883 Y8.1666
G01 X9.0906 Y8.1530
G01 X9.0936 Y8.1396
G01 X9.1161 Y8.0502
G01 X9.1197 Y8.0369
G01 X9.1240 Y8.0239
G01 X9.1575 Y7.9306
G01 X9.1656 Y7.9116
G01 X9.2051 Y7.8283
G01 X9.2112 Y7.8160
G01 X9.2180 Y7.8040
G01 X9.2654 Y7.7249
G01 X9.2728 Y7.7133
G01 X9.2807 Y7.7021
G01 X9.3356 Y7.6280
G01 X9.3441 Y7.6172
G01 X9.3531 Y7.6068
G01 X9.4150 Y7.5384
G01 X9.4245 Y7.5285
G01 X9.4344 Y7.5190
G01 X9.5028 Y7.4571
G01 X9.5132 Y7.4481
G01 X9.5240 Y7.4396
G01 X9.5981 Y7.3847
G01 X9.6093 Y7.3768
G01 X9.6209 Y7.3694
G01 X9.7000 Y7.3220
G01 X9.7120 Y7.3152
G01 X9.7243 Y7.3091
G01 X9.8076 Y7.2696
G01 X9.8202 Y7.2641
G01 X9.8330 Y7.2591
G01 X9.9199 Y7.2280
G01 X9.9329 Y7.2237
G01 X9.9462 Y7.2201
G01 X10.0356 Y7.1976
G01 X10.0490 Y7.1946
G01 X10.0626 Y7.1923
G01 X10.1538 Y7.1788
G01 X10.1674 Y7.1771
G01 X10.1811 Y7.1761
G01 X10.2733 Y7.1715
G01 X10.2870 Y7.1712
G01 X10.3007 Y7.1715
G01 X10.3929 Y7.1761
G01 X10.4066 Y7.1771
G01 X10.4202 Y7.1788
G01 X10.5114 Y7.1923
G01 X10.5250 Y7.1946
G01 X10.5384 Y7.1976
G01 X10.6278 Y7.2201
G01 X10.6411 Y7.2237
G01 X10.6541 Y7.2280
G01 X10.7410 Y7.2591
G01 X10.7538 Y7.2641
G01 X10.7664 Y7.2696
G01 X10.8497 Y7.3091
G01 X10.8620 Y7.3152
G01 X10.8740 Y7.3220
G01 X10.9589 Y7.3730
G01 X10.9759 Y7.3847
G01 X11.0500 Y7.4396
G01 X11.0608 Y7.4481
G01 X11.0712 Y7.4571
G01 X11.1396 Y7.5190
G01 X11.1495 Y7.5285
G01 X11.1590 Y7.5384
G01 X11.2209 Y7.6068
G01 X11.2299 Y7.6172
G01 X11.2384 Y7.6280
G01 X11.2933 Y7.7021
G01 X11.3012 Y7.7133
G01 X11.3086 Y7.7249
G01 X11.3560 Y7.8040
G01 X11.3628 Y7.8160
G01 X11.3689 Y7.8283
G01 X11.4084 Y7.9116
G01 X11.4139 Y7.9242
G01 X11.4189 Y7.9370
G01 X11.4500 Y8.0239
G01 X11.4543 Y8.0369
G01 X11.4579 Y8.0502
G01 X11.4804 Y8.1396
G01 X11.4834 Y8.1530
G01 X11.4857 Y8.1666
G01 X11.4992 Y8.2578
G01 X11.5009 Y8.2714
G01 X11.5019 Y8.2851
G01 X11.5065 Y8.3773
G01 X11.5068 Y8.3910
G01 X11.5065 Y8.4047
G01 X11.5019 Y8.4969
G01 X11.5009 Y8.5106
G01 X11.4992 Y8.5242
G01 X11.4839 Y8.6260
G01 X13.6644 Y10.8065
G01 X15.0678 Y9.4031
G01 X15.0678 Y9.1495
G01 X14.9850 Y9.0884
G01 X14.9742 Y9.0799
G01 X14.9638 Y9.0709
G01 X14.8954 Y9.0090
G01 X14.8855 Y8.9995
G01 X14.8760 Y8.9896
G01 X14.8141 Y8.9212
G01 X14.8051 Y8.9108
G01 X14.7966 Y8.9000
G01 X14.7417 Y8.8259
G01 X14.7338 Y8.8147
G01 X14.7264 Y8.8031
G01 X14.6790 Y8.7240
G01 X14.6722 Y8.7120
G01 X14.6661 Y8.6997
G01 X14.6266 Y8.6164
G01 X14.6211 Y8.6038
G01 X14.6161 Y8.5910
G01 X14.5850 Y8.5041
G01 X14.5807 Y8.4911
G01 X14.5771 Y8.4778
G01 X14.5546 Y8.3884
G01 X14.5516 Y8.3750
G01 X14.5493 Y8.3614
G01 X14.5358 Y8.2702
G01 X14.5341 Y8.2566
G01 X14.5331 Y8.2429
G01 X14.5285 Y8.1507
G01 X14.5282 Y8.1370
G01 X14.5285 Y8.1233
G01 X14.5331 Y8.0311
G01 X14.5341 Y8.0174
G01 X14.5358 Y8.0038
G01 X14.5493 Y7.9126
G01 X14.5516 Y7.8990
G01 X14.5546 Y7.8856
G01 X14.5771 Y7.7962
G01 X14.5807 Y7.7829
G01 X14.5850 Y7.7699
G01 X14.6161 Y7.6830
G01 X14.6211 Y7.6702
G01 X14.6266 Y7.6576
G01 X14.6661 Y7.5743
G01 X14.6722 Y7.5620
G01 X14.6790 Y7.5500
G01 X14.7264 Y7.4709
G01 X14.7338 Y7.4593
G01 X14.7417 Y7.4481
G01 X14.7966 Y7.3740
G01 X14.8051 Y7.3632
G01 X14.8141 Y7.3528
G01 X14.8807 Y7.2794
G01 X14.8954 Y7.2650
G01 X14.9638 Y7.2031
G01 X14.9742 Y7.1941
G01 X14.9850 Y7.1856
G01 X15.0591 Y7.1307
G01 X15.0703 Y7.1228
G01 X15.0819 Y7.1154
G01 X15.1610 Y7.0680
G01 X15.1730 Y7.0612
G01 X15.1853 Y7.0551
G01 X15.2686 Y7.0156
G01 X15.2812 Y7.0101
G01 X15.2940 Y7.0051
G01 X15.3809 Y6.9740
G01 X15.3939 Y6.9697
G01 X15.4072 Y6.9661
G01 X15.4966 Y6.9436
G01 X15.5100 Y6.9406
G01 X15.5236 Y6.9383
G01 X15.6148 Y6.9248
G01 X15.6284 Y6.9231
G01 X15.6421 Y6.9221
G01 X15.7343 Y6.9175
G01 X15.7480 Y6.9172
G01 X15.7617 Y6.9175
G01 X15.8539 Y6.9221
G01 X15.8676 Y6.9231
G01 X15.8812 Y6.9248
G01 X15.9724 Y6.9383
G01 X15.9860 Y6.9406
G01 X15.9994 Y6.9436
G01 X16.0888 Y6.9661
G01 X16.1021 Y6.9697
G01 X16.1151 Y6.9740
G01 X16.2020 Y7.0051
G01 X16.2148 Y7.0101
G01 X16.2274 Y7.0156
G01 X16.3107 Y7.0551
G01 X16.3230 Y7.0612
G01 X16.3350 Y7.0680
G01 X16.4141 Y7.1154
G01 X16.4257 Y7.1228
G01 X16.4369 Y7.1307
G01 X16.5110 Y7.1856
G01 X16.5218 Y7.1941
G01 X16.5322 Y7.2031
G01 X16.6006 Y7.2650
G01 X16.6105 Y7.2745
G01 X16.6200 Y7.2844
G01 X16.6819 Y7.3528
G01 X16.6909 Y7.3632
G01 X16.6994 Y7.3740
G01 X16.7543 Y7.4481
G01 X16.7622 Y7.4593
G01 X16.7696 Y7.4709
G01 X16.8170 Y7.5500
G01 X16.8238 Y7.5620
G01 X16.8299 Y7.5743
G01 X16.8694 Y7.6576
G01 X16.8749 Y7.6702
G01 X16.8799 Y7.6830
G01 X16.9110 Y7.7699
G01 X16.9153 Y7.7829
G01 X16.9189 Y7.7962
G01 X16.9414 Y7.8856
G01 X16.9444 Y7.8990
G01 X16.9467 Y7.9126
G01 X16.9602 Y8.0038
G01 X16.9619 Y8.0174
G01 X16.9629 Y8.0311
G01 X16.9675 Y8.1233
G01 X16.9678 Y8.1370
G01 X16.9675 Y8.1507
G01 X16.9629 Y8.2429
G01 X16.9619 Y8.2566
G01 X16.9602 Y8.2702
G01 X16.9456 Y8.3682
G01 X16.9414 Y8.3884
G01 X16.9189 Y8.4778
G01 X16.9153 Y8.4911
G01 X16.9110 Y8.5041
G01 X16.8799 Y8.5910
G01 X16.8749 Y8.6038
G01 X16.8694 Y8.6164
G01 X16.8299 Y8.6997
G01 X16.8238 Y8.7120
G01 X16.8170 Y8.7240
G01 X16.7696 Y8.8031
G01 X16.7622 Y8.8147
G01 X16.7543 Y8.8259
G01 X16.6994 Y8.9000
G01 X16.6909 Y8.9108
G01 X16.6819 Y8.9212
G01 X16.6200 Y8.9896
G01 X16.6105 Y8.9995
G01 X16.6006 Y9.0090
G01 X16.5322 Y9.0709
G01 X16.5218 Y9.0799
G01 X16.5110 Y9.0884
G01 X16.4282 Y9.1495
G01 X16.4282 Y9.6849
G01 X16.4279 Y9.6986
G01 X16.4249 Y9.7516
G01 X16.4175 Y9.8040
G01 X16.4151 Y9.8176
G01 X16.4121 Y9.8310
G01 X16.3989 Y9.8823
G01 X16.3814 Y9.9324
G01 X16.3764 Y9.9452
G01 X16.3541 Y9.9932
G01 X16.3446 Y10.0115
G01 X16.3209 Y10.0512
G01 X16.3136 Y10.0628
G01 X16.2823 Y10.1056
G01 X16.2694 Y10.1217
G01 X16.2384 Y10.1559
G01 X16.2290 Y10.1659
G01 X13.9106 Y12.4843
G01 X13.8882 Y16.6497
G01 X13.8878 Y16.6632
G01 X13.8846 Y16.7156
G01 X13.8829 Y16.7291
G01 X13.8747 Y16.7809
G01 X13.8621 Y16.8318
G01 X13.8585 Y16.8449
G01 X13.8542 Y16.8578
G01 X13.8361 Y16.9070
G01 X13.8306 Y16.9194
G01 X13.8079 Y16.9667
G01 X13.8012 Y16.9785
G01 X13.7740 Y17.0233
G01 X11.0952 Y21.0414
G01 X11.1297 Y27.9929
G01 X11.1295 Y28.0067
G01 X11.1277 Y28.0462
G01 X11.1268 Y28.0600
G01 X11.1251 Y28.0737
G01 X11.1195 Y28.1128
G01 X11.1172 Y28.1265
G01 X11.1142 Y28.1400
G01 X11.1047 Y28.1783
G01 X11.1011 Y28.1917
G01 X11.0968 Y28.2048
G01 X11.0836 Y28.2421
G01 X11.0759 Y28.2614
G01 X11.0562 Y28.3034
G01 X11.0500 Y28.3158
G01 X11.0432 Y28.3278
G01 X11.0193 Y28.3676
G01 X11.0076 Y28.3848
G01 X10.9841 Y28.4165
G01 X10.9756 Y28.4274
G01 X10.9666 Y28.4379
G01 X10.9401 Y28.4672
G01 X10.9305 Y28.4772
G01 X9.3507 Y30.0570
G01 X9.3507 Y30.8527
G01 X9.3531 Y30.7242
G01 X9.3560 Y30.6792
G01 X9.3572 Y30.6658
G01 X9.3590 Y30.6525
G01 X9.3677 Y30.6014
G01 X9.3708 Y30.5883
G01 X9.3824 Y30.5447
G01 X9.3887 Y30.5256
G01 X9.4069 Y30.4771
G01 X9.4291 Y30.4303
G01 X9.4353 Y30.4184
G01 X9.4420 Y30.4067
G01 X9.4691 Y30.3626
G01 X9.4769 Y30.3516
G01 X9.5082 Y30.3103
G01 X9.5169 Y30.3002
G01 X9.5520 Y30.2620
G01 X11.8684 Y27.9457
G01 X11.8823 Y27.8516
G01 X11.8846 Y27.8380
G01 X11.8876 Y27.8246
G01 X11.9101 Y27.7352
G01 X11.9137 Y27.7219
G01 X11.9180 Y27.7089
G01 X11.9491 Y27.6220
G01 X11.9541 Y27.6092
G01 X11.9596 Y27.5966
G01 X11.9991 Y27.5133
G01 X12.0052 Y27.5010
G01 X12.0120 Y27.4890
G01 X12.0594 Y27.4099
G01 X12.0668 Y27.3983
G01 X12.0747 Y27.3871
G01 X12.1296 Y27.3130
G01 X12.1381 Y27.3022
G01 X12.1471 Y27.2918
G01 X12.2090 Y27.2234
G01 X12.2185 Y27.2135
G01 X12.2284 Y27.2040
G01 X12.2968 Y27.1421
G01 X12.3072 Y27.1331
G01 X12.3180 Y27.1246
G01 X12.3921 Y27.0697
G01 X12.4033 Y27.0618
G01 X12.4149 Y27.0544
G01 X12.4940 Y27.0070
G01 X12.5060 Y27.0002
G01 X12.5183 Y26.9941
G01 X12.6016 Y26.9546
G01 X12.6142 Y26.9491
G01 X12.6270 Y26.9441
G01 X12.7139 Y26.9130
G01 X12.7269 Y26.9087
G01 X12.7402 Y26.9051
G01 X12.8296 Y26.8826
G01 X12.8430 Y26.8796
G01 X12.8566 Y26.8773
G01 X12.9478 Y26.8638
G01 X12.9614 Y26.8621
G01 X12.9751 Y26.8611
G01 X13.0673 Y26.8565
G01 X13.0810 Y26.8562
G01 X13.0947 Y26.8565
G01 X13.1869 Y26.8611
G01 X13.2006 Y26.8621
G01 X13.2142 Y26.8638
G01 X13.3054 Y26.8773
G01 X13.3190 Y26.8796
G01 X13.3324 Y26.8826
G01 X13.4218 Y26.9051
G01 X13.4351 Y26.9087
G01 X13.4481 Y26.9130
G01 X13.5350 Y26.9441
G01 X13.5478 Y26.9491
G01 X13.5604 Y26.9546
G01 X13.6437 Y26.9941
G01 X13.6560 Y27.0002
G01 X13.6680 Y27.0070
G01 X13.7471 Y27.0544
G01 X13.7587 Y27.0618
G01 X13.7699 Y27.0697
G01 X13.8440 Y27.1246
G01 X13.8548 Y27.1331
G01 X13.8652 Y27.1421
G01 X13.9336 Y27.2040
G01 X13.9435 Y27.2135
G01 X13.9530 Y27.2234
G01 X14.0149 Y27.2918
G01 X14.0239 Y27.3022
G01 X14.0324 Y27.3130
G01 X14.0873 Y27.3871
G01 X14.0952 Y27.3983
G01 X14.1026 Y27.4099
G01 X14.1500 Y27.4890
G01 X14.1568 Y27.5010
G01 X14.1629 Y27.5133
G01 X14.2024 Y27.5966
G01 X14.2079 Y27.6092
G01 X14.2129 Y27.6220
G01 X14.2440 Y27.7089
G01 X14.2483 Y27.7219
G01 X14.2519 Y27.7352
G01 X14.2744 Y27.8246
G01 X14.2774 Y27.8380
G01 X14.2797 Y27.8516
G01 X14.2932 Y27.9428
G01 X14.2949 Y27.9564
G01 X14.2959 Y27.9701
G01 X14.3005 Y28.0623
G01 X14.3008 Y28.0760
G01 X14.3005 Y28.0897
G01 X14.2959 Y28.1819
G01 X14.2949 Y28.1956
G01 X14.2932 Y28.2092
G01 X14.2797 Y28.3004
G01 X14.2774 Y28.3140
G01 X14.2744 Y28.3274
G01 X14.2519 Y28.4168
G01 X14.2483 Y28.4301
G01 X14.2440 Y28.4431
G01 X14.2129 Y28.5300
G01 X14.2079 Y28.5428
G01 X14.2024 Y28.5554
G01 X14.1629 Y28.6387
G01 X14.1568 Y28.6510
G01 X14.1500 Y28.6630
G01 X14.1026 Y28.7421
G01 X14.0952 Y28.7537
G01 X14.0873 Y28.7649
G01 X14.0324 Y28.8390
G01 X14.0239 Y28.8498
G01 X14.0149 Y28.8602
G01 X13.9530 Y28.9286
G01 X13.9435 Y28.9385
G01 X13.9336 Y28.9480
G01 X13.8652 Y29.0099
G01 X13.8548 Y29.0189
G01 X13.8440 Y29.0274
G01 X13.7699 Y29.0823
G01 X13.7587 Y29.0902
G01 X13.7471 Y29.0976
G01 X13.6680 Y29.1450
G01 X13.6560 Y29.1518
G01 X13.6437 Y29.1579
G01 X13.5604 Y29.1974
G01 X13.5478 Y29.2029
G01 X13.5350 Y29.2079
G01 X13.4481 Y29.2390
G01 X13.4351 Y29.2433
G01 X13.4218 Y29.2469
G01 X13.3324 Y29.2694
G01 X13.3122 Y29.2736
G01 X13.2142 Y29.2882
G01 X13.2006 Y29.2899
G01 X13.1869 Y29.2909
G01 X13.0947 Y29.2955
G01 X13.0810 Y29.2958
G01 X13.0673 Y29.2955
G01 X12.9751 Y29.2909
G01 X12.9546 Y29.2892
G01 X12.8566 Y29.2747
G01 X12.8430 Y29.2724
G01 X12.8296 Y29.2694
G01 X12.7335 Y29.2452
G01 X12.7139 Y29.2390
G01 X12.6206 Y29.2055
G01 X12.6016 Y29.1974
G01 X12.5602 Y29.1778
G01 X10.7082 Y31.0297
G01 X10.6751 Y32.8903
G01 X10.6751 Y42.8281
G01 X14.6793 Y46.8244
G01 X14.6722 Y46.8120
G01 X14.6661 Y46.7997
G01 X14.6266 Y46.7164
G01 X14.6211 Y46.7038
G01 X14.6161 Y46.6910
G01 X14.5850 Y46.6041
G01 X14.5807 Y46.5911
G01 X14.5771 Y46.5778
G01 X14.5546 Y46.4884
G01 X14.5516 Y46.4750
G01 X14.5493 Y46.4614
G01 X14.5358 Y46.3702
G01 X14.5341 Y46.3566
G01 X14.5331 Y46.3429
G01 X14.5285 Y46.2507
G01 X14.5282 Y46.2370
G01 X14.5285 Y46.2233
G01 X14.5331 Y46.1311
G01 X14.5341 Y46.1174
G01 X14.5358 Y46.1038
G01 X14.5493 Y46.0126
G01 X14.5516 Y45.9990
G01 X14.5546 Y45.9856
G01 X14.5771 Y45.8962
G01 X14.5807 Y45.8829
G01 X14.5850 Y45.8699
G01 X14.6161 Y45.7830
G01 X14.6211 Y45.7702
G01 X14.6266 Y45.7576
G01 X14.6661 Y45.6743
G01 X14.6722 Y45.6620
G01 X14.6790 Y45.6500
G01 X14.7264 Y45.5709
G01 X14.7338 Y45.5593
G01 X14.7417 Y45.5481
G01 X14.7966 Y45.4740
G01 X14.8051 Y45.4632
G01 X14.8141 Y45.4528
G01 X14.8760 Y45.3844
G01 X14.8855 Y45.3745
G01 X14.8954 Y45.3650
G01 X14.9638 Y45.3031
G01 X14.9742 Y45.2941
G01 X14.9850 Y45.2856
G01 X15.0591 Y45.2307
G01 X15.0703 Y45.2228
G01 X15.0819 Y45.2154
G01 X15.1610 Y45.1680
G01 X15.1730 Y45.1612
G01 X15.1853 Y45.1551
G01 X15.2686 Y45.1156
G01 X15.2812 Y45.1101
G01 X15.2940 Y45.1051
G01 X15.3809 Y45.0740
G01 X15.3939 Y45.0697
G01 X15.4072 Y45.0661
G01 X15.4966 Y45.0436
G01 X15.5100 Y45.0406
G01 X15.5236 Y45.0383
G01 X15.6148 Y45.0248
G01 X15.6284 Y45.0231
G01 X15.6421 Y45.0221
G01 X15.7343 Y45.0175
G01 X15.7480 Y45.0172
G01 X15.7617 Y45.0175
G01 X15.8539 Y45.0221
G01 X15.8676 Y45.0231
G01 X15.8812 Y45.0248
G01 X15.9830 Y45.0401
G01 X18.7508 Y42.2723
G01 X18.7508 Y34.3625
G01 X18.6862 Y34.3042
G01 X18.6762 Y34.2948
G01 X18.6668 Y34.2848
G01 X18.6149 Y34.2276
G01 X18.6059 Y34.2172
G01 X18.5974 Y34.2063
G01 X18.5514 Y34.1443
G01 X18.5435 Y34.1330
G01 X18.5361 Y34.1214
G01 X18.4964 Y34.0551
G01 X18.4865 Y34.0371
G01 X18.4504 Y33.9610
G01 X18.4449 Y33.9485
G01 X18.4399 Y33.9357
G01 X18.4139 Y33.8629
G01 X18.4096 Y33.8498
G01 X18.4059 Y33.8366
G01 X18.3871 Y33.7616
G01 X18.3841 Y33.7482
G01 X18.3818 Y33.7347
G01 X18.3704 Y33.6583
G01 X18.3687 Y33.6446
G01 X18.3677 Y33.6309
G01 X18.3639 Y33.5537
G01 X18.3637 Y33.5331
G01 X18.3677 Y33.4491
G01 X18.3687 Y33.4354
G01 X18.3704 Y33.4217
G01 X18.3818 Y33.3453
G01 X18.3841 Y33.3318
G01 X18.3871 Y33.3184
G01 X18.4059 Y33.2434
G01 X18.4096 Y33.2302
G01 X18.4139 Y33.2171
G01 X18.4399 Y33.1443
G01 X18.4449 Y33.1315
G01 X18.4504 Y33.1190
G01 X18.4835 Y33.0491
G01 X18.4896 Y33.0368
G01 X18.4964 Y33.0249
G01 X18.5361 Y32.9586
G01 X18.5435 Y32.9470
G01 X18.5514 Y32.9357
G01 X18.5974 Y32.8737
G01 X18.6059 Y32.8628
G01 X18.6149 Y32.8524
G01 X18.6668 Y32.7952
G01 X18.6762 Y32.7852
G01 X18.6862 Y32.7758
G01 X18.7434 Y32.7239
G01 X18.7538 Y32.7149
G01 X18.7647 Y32.7064
G01 X18.8267 Y32.6604
G01 X18.8380 Y32.6525
G01 X18.8496 Y32.6451
G01 X18.9159 Y32.6054
G01 X18.9278 Y32.5986
G01 X18.9401 Y32.5925
G01 X19.0100 Y32.5594
G01 X19.0225 Y32.5539
G01 X19.0353 Y32.5489
G01 X19.1081 Y32.5229
G01 X19.1212 Y32.5186
G01 X19.1344 Y32.5149
G01 X19.2094 Y32.4961
G01 X19.2228 Y32.4931
G01 X19.2363 Y32.4908
G01 X19.3195 Y32.4785
G01 X19.3401 Y32.4767
G01 X19.4173 Y32.4729
G01 X19.4310 Y32.4726
G01 X19.4447 Y32.4729
G01 X19.5219 Y32.4767
G01 X19.5356 Y32.4777
G01 X19.5493 Y32.4794
G01 X19.6257 Y32.4908
G01 X19.6392 Y32.4931
G01 X19.6526 Y32.4961
G01 X19.7276 Y32.5149
G01 X19.7408 Y32.5186
G01 X19.7539 Y32.5229
G01 X19.8267 Y32.5489
G01 X19.8395 Y32.5539
G01 X19.8520 Y32.5594
G01 X19.9219 Y32.5925
G01 X19.9342 Y32.5986
G01 X19.9461 Y32.6054
G01 X20.0124 Y32.6451
G01 X20.0240 Y32.6525
G01 X20.0353 Y32.6604
G01 X20.0973 Y32.7064
G01 X20.1082 Y32.7149
G01 X20.1186 Y32.7239
G01 X20.1758 Y32.7758
G01 X20.1858 Y32.7852
G01 X20.1952 Y32.7952
G01 X20.2471 Y32.8524
G01 X20.2561 Y32.8628
G01 X20.2646 Y32.8737
G01 X20.3106 Y32.9357
G01 X20.3185 Y32.9470
G01 X20.3259 Y32.9586
G01 X20.3656 Y33.0249
G01 X20.3755 Y33.0429
G01 X20.4116 Y33.1190
G01 X20.4171 Y33.1315
G01 X20.4221 Y33.1443
G01 X20.4481 Y33.2171
G01 X20.4524 Y33.2302
G01 X20.4561 Y33.2434
G01 X20.4765 Y33.3250
G01 X20.4802 Y33.3453
G01 X20.4916 Y33.4217
G01 X20.4933 Y33.4354
G01 X20.4943 Y33.4491
G01 X20.4981 Y33.5263
G01 X20.4984 Y33.5400
G01 X20.4981 Y33.5537
G01 X20.4943 Y33.6309
G01 X20.4933 Y33.6446
G01 X20.4916 Y33.6583
G01 X20.4802 Y33.7347
G01 X20.4779 Y33.7482
G01 X20.4749 Y33.7616
G01 X20.4561 Y33.8366
G01 X20.4524 Y33.8498
G01 X20.4481 Y33.8629
G01 X20.4221 Y33.9357
G01 X20.4171 Y33.9485
G01 X20.4116 Y33.9610
G01 X20.3785 Y34.0309
G01 X20.3724 Y34.0432
G01 X20.3656 Y34.0551
G01 X20.3259 Y34.1214
G01 X20.3185 Y34.1330
G01 X20.3106 Y34.1443
G01 X20.2646 Y34.2063
G01 X20.2561 Y34.2172
G01 X20.2471 Y34.2276
G01 X20.1952 Y34.2848
G01 X20.1858 Y34.2948
G01 X20.1758 Y34.3042
G01 X20.1112 Y34.3625
G01 X20.1112 Y37.5558
G01 X21.1484 Y37.5558
G01 X21.1859 Y37.5052
G01 X21.1944 Y37.4944
G01 X21.2033 Y37.4840
G01 X21.2619 Y37.4193
G01 X21.2714 Y37.4094
G01 X21.2813 Y37.3999
G01 X21.3511 Y37.3368
G01 X21.3672 Y37.3239
G01 X21.4373 Y37.2719
G01 X21.4485 Y37.2640
G01 X21.4601 Y37.2567
G01 X21.5350 Y37.2118
G01 X21.5530 Y37.2019
G01 X21.6381 Y37.1616
G01 X21.6506 Y37.1560
G01 X21.6635 Y37.1510
G01 X21.7456 Y37.1216
G01 X21.7587 Y37.1173
G01 X21.7719 Y37.1137
G01 X21.8565 Y37.0925
G01 X21.8699 Y37.0895
G01 X21.8835 Y37.0871
G01 X21.9698 Y37.0743
G01 X21.9834 Y37.0726
G01 X21.9971 Y37.0716
G01 X22.0843 Y37.0673
G01 X22.0980 Y37.0670
G01 X22.1117 Y37.0673
G01 X22.1989 Y37.0716
G01 X22.2126 Y37.0726
G01 X22.2262 Y37.0743
G01 X22.3125 Y37.0871
G01 X22.3261 Y37.0895
G01 X22.3395 Y37.0925
G01 X22.4241 Y37.1137
G01 X22.4373 Y37.1173
G01 X22.4504 Y37.1216
G01 X22.5325 Y37.1510
G01 X22.5454 Y37.1560
G01 X22.5579 Y37.1616
G01 X22.6430 Y37.2019
G01 X22.6610 Y37.2118
G01 X22.7359 Y37.2567
G01 X22.7475 Y37.2640
G01 X22.7587 Y37.2719
G01 X22.8288 Y37.3239
G01 X22.8449 Y37.3368
G01 X22.9147 Y37.3999
G01 X22.9246 Y37.4094
G01 X22.9341 Y37.4193
G01 X22.9927 Y37.4840
G01 X23.0016 Y37.4944
G01 X23.0101 Y37.5052
G01 X23.0476 Y37.5558
G01 X24.3563 Y37.5558
G01 X24.5841 Y37.3280
G01 X24.5688 Y37.2262
G01 X24.5671 Y37.2126
G01 X24.5661 Y37.1989
G01 X24.5615 Y37.1067
G01 X24.5612 Y37.0930
G01 X24.5615 Y37.0793
G01 X24.5661 Y36.9871
G01 X24.5671 Y36.9734
G01 X24.5688 Y36.9598
G01 X24.5823 Y36.8686
G01 X24.5846 Y36.8550
G01 X24.5876 Y36.8416
G01 X24.6101 Y36.7522
G01 X24.6137 Y36.7389
G01 X24.6180 Y36.7259
G01 X24.6491 Y36.6390
G01 X24.6541 Y36.6262
G01 X24.6596 Y36.6136
G01 X24.7021 Y36.5241
G01 X24.7120 Y36.5060
G01 X24.7594 Y36.4269
G01 X24.7668 Y36.4153
G01 X24.7747 Y36.4041
G01 X24.8296 Y36.3300
G01 X24.8381 Y36.3192
G01 X24.8471 Y36.3088
G01 X24.9090 Y36.2404
G01 X24.9185 Y36.2305
G01 X24.9284 Y36.2210
G01 X24.9968 Y36.1591
G01 X25.0072 Y36.1501
G01 X25.0180 Y36.1416
G01 X25.0921 Y36.0867
G01 X25.1091 Y36.0750
G01 X25.1940 Y36.0240
G01 X25.2060 Y36.0172
G01 X25.2183 Y36.0111
G01 X25.3016 Y35.9716
G01 X25.3142 Y35.9661
G01 X25.3270 Y35.9611
G01 X25.4139 Y35.9300
G01 X25.4269 Y35.9257
G01 X25.4402 Y35.9221
G01 X25.5296 Y35.8996
G01 X25.5430 Y35.8966
G01 X25.5566 Y35.8943
G01 X25.6478 Y35.8808
G01 X25.6614 Y35.8791
G01 X25.6751 Y35.8781
G01 X25.7673 Y35.8735
G01 X25.7810 Y35.8732
G01 X25.7947 Y35.8735
G01 X25.8869 Y35.8781
G01 X25.9006 Y35.8791
G01 X25.9142 Y35.8808
G01 X26.0054 Y35.8943
G01 X26.0190 Y35.8966
G01 X26.0324 Y35.8996
G01 X26.1218 Y35.9221
G01 X26.1351 Y35.9257
G01 X26.1481 Y35.9300
G01 X26.2350 Y35.9611
G01 X26.2478 Y35.9661
G01 X26.2604 Y35.9716
G01 X26.3437 Y36.0111
G01 X26.3560 Y36.0172
G01 X26.3680 Y36.0240
G01 X26.4471 Y36.0714
G01 X26.4587 Y36.0788
G01 X26.4699 Y36.0867
G01 X26.5440 Y36.1416
G01 X26.5548 Y36.1501
G01 X26.5652 Y36.1591
G01 X26.6336 Y36.2210
G01 X26.6435 Y36.2305
G01 X26.6530 Y36.2404
G01 X26.7149 Y36.3088
G01 X26.7239 Y36.3192
G01 X26.7324 Y36.3300
G01 X26.7873 Y36.4041
G01 X26.7952 Y36.4153
G01 X26.8026 Y36.4269
G01 X26.8500 Y36.5060
G01 X26.8568 Y36.5180
G01 X26.8629 Y36.5303
G01 X26.9024 Y36.6136
G01 X26.9079 Y36.6262
G01 X26.9129 Y36.6390
G01 X26.9440 Y36.7259
G01 X26.9483 Y36.7389
G01 X26.9519 Y36.7522
G01 X26.9744 Y36.8416
G01 X26.9774 Y36.8550
G01 X26.9797 Y36.8686
G01 X26.9932 Y36.9598
G01 X26.9949 Y36.9734
G01 X26.9959 Y36.9871
G01 X27.0005 Y37.0793
G01 X27.0008 Y37.0930
G01 X27.0005 Y37.1067
G01 X26.9959 Y37.1989
G01 X26.9949 Y37.2126
G01 X26.9932 Y37.2262
G01 X26.9797 Y37.3174
G01 X26.9774 Y37.3310
G01 X26.9744 Y37.3444
G01 X26.9519 Y37.4338
G01 X26.9483 Y37.4471
G01 X26.9440 Y37.4601
G01 X26.9129 Y37.5470
G01 X26.9079 Y37.5598
G01 X26.9024 Y37.5724
G01 X26.8629 Y37.6557
G01 X26.8568 Y37.6680
G01 X26.8500 Y37.6800
G01 X26.8026 Y37.7591
G01 X26.7952 Y37.7707
G01 X26.7873 Y37.7819
G01 X26.7324 Y37.8560
G01 X26.7239 Y37.8668
G01 X26.7149 Y37.8772
G01 X26.6530 Y37.9456
G01 X26.6435 Y37.9555
G01 X26.6336 Y37.9650
G01 X26.5652 Y38.0269
G01 X26.5548 Y38.0359
G01 X26.5440 Y38.0444
G01 X26.4699 Y38.0993
G01 X26.4587 Y38.1072
G01 X26.4471 Y38.1146
G01 X26.3680 Y38.1620
G01 X26.3560 Y38.1688
G01 X26.3437 Y38.1749
G01 X26.2604 Y38.2144
G01 X26.2478 Y38.2199
G01 X26.2350 Y38.2249
G01 X26.1481 Y38.2560
G01 X26.1351 Y38.2603
G01 X26.1218 Y38.2639
G01 X26.0324 Y38.2864
G01 X26.0190 Y38.2894
G01 X26.0054 Y38.2917
G01 X25.9142 Y38.3052
G01 X25.9006 Y38.3069
G01 X25.8869 Y38.3079
G01 X25.7947 Y38.3125
G01 X25.7810 Y38.3128
G01 X25.7673 Y38.3125
G01 X25.6751 Y38.3079
G01 X25.6614 Y38.3069
G01 X25.6478 Y38.3052
G01 X25.5460 Y38.2899
G01 X25.1190 Y38.7170
G01 X25.0799 Y38.7528
G01 X25.0695 Y38.7618
G01 X25.0587 Y38.7703
G01 X25.0216 Y38.7977
G01 X25.0101 Y38.8053
G01 X24.9706 Y38.8291
G01 X24.9586 Y38.8359
G01 X24.9464 Y38.8421
G01 X24.9046 Y38.8617
G01 X24.8855 Y38.8694
G01 X24.8355 Y38.8869
G01 X24.7841 Y38.9001
G01 X24.7707 Y38.9031
G01 X24.7572 Y38.9055
G01 X24.7047 Y38.9129
G01 X24.6910 Y38.9139
G01 X24.6449 Y38.9161
G01 X23.0476 Y38.9162
G01 X23.0101 Y38.9668
G01 X23.0016 Y38.9776
G01 X22.9927 Y38.9880
G01 X22.9341 Y39.0527
G01 X22.9246 Y39.0626
G01 X22.9147 Y39.0721
G01 X22.8449 Y39.1352
G01 X22.8288 Y39.1481
G01 X22.7587 Y39.2001
G01 X22.7475 Y39.2080
G01 X22.7359 Y39.2153
G01 X22.6610 Y39.2602
G01 X22.6430 Y39.2701
G01 X22.5579 Y39.3104
G01 X22.5454 Y39.3160
G01 X22.5325 Y39.3210
G01 X22.4504 Y39.3504
G01 X22.4373 Y39.3547
G01 X22.4241 Y39.3583
G01 X22.3395 Y39.3795
G01 X22.3261 Y39.3825
G01 X22.3125 Y39.3849
G01 X22.2262 Y39.3977
G01 X22.2126 Y39.3994
G01 X22.1989 Y39.4004
G01 X22.1117 Y39.4047
G01 X22.0980 Y39.4050
G01 X22.0843 Y39.4047
G01 X21.9971 Y39.4004
G01 X21.9834 Y39.3994
G01 X21.9698 Y39.3977
G01 X21.8835 Y39.3849
G01 X21.8699 Y39.3825
G01 X21.8565 Y39.3795
G01 X21.7719 Y39.3583
G01 X21.7587 Y39.3547
G01 X21.7456 Y39.3504
G01 X21.6635 Y39.3210
G01 X21.6506 Y39.3160
G01 X21.6381 Y39.3104
G01 X21.5530 Y39.2701
G01 X21.5350 Y39.2602
G01 X21.4601 Y39.2153
G01 X21.4485 Y39.2080
G01 X21.4373 Y39.2001
G01 X21.3672 Y39.1481
G01 X21.3511 Y39.1352
G01 X21.2813 Y39.0721
G01 X21.2714 Y39.0626
G01 X21.2619 Y39.0527
G01 X21.2033 Y38.9880
G01 X21.1944 Y38.9776
G01 X21.1859 Y38.9668
G01 X21.1484 Y38.9162
G01 X20.1112 Y38.9162
G01 X20.1112 Y42.5540
G01 X20.1109 Y42.5677
G01 X20.1085 Y42.6138
G01 X20.1062 Y42.6343
G01 X20.0981 Y42.6867
G01 X20.0856 Y42.7382
G01 X20.0819 Y42.7515
G01 X20.0776 Y42.7645
G01 X20.0594 Y42.8143
G01 X20.0539 Y42.8269
G01 X20.0340 Y42.8685
G01 X20.0241 Y42.8866
G01 X19.9966 Y42.9319
G01 X19.9653 Y42.9747
G01 X19.9524 Y42.9908
G01 X19.9168 Y43.0301
G01 X18.3962 Y44.5507
G01 X22.7541 Y48.9085
G01 X22.7681 Y48.9068
G01 X22.7818 Y48.9058
G01 X22.8602 Y48.9019
G01 X22.8740 Y48.9016
G01 X22.8877 Y48.9019
G01 X22.9662 Y48.9058
G01 X22.9799 Y48.9068
G01 X22.9935 Y48.9085
G01 X23.0712 Y48.9200
G01 X23.0847 Y48.9224
G01 X23.0982 Y48.9254
G01 X23.1810 Y48.9462
G01 X23.2006 Y48.9524
G01 X23.2746 Y48.9789
G01 X23.2874 Y48.9839
G01 X23.3000 Y48.9894
G01 X23.3710 Y49.0230
G01 X23.3833 Y49.0292
G01 X23.3952 Y49.0360
G01 X23.4626 Y49.0763
G01 X23.4742 Y49.0837
G01 X23.4854 Y49.0916
G01 X23.5485 Y49.1384
G01 X23.5594 Y49.1468
G01 X23.5698 Y49.1558
G01 X23.6280 Y49.2086
G01 X23.6379 Y49.2181
G01 X23.6474 Y49.2280
G01 X23.7002 Y49.2862
G01 X23.7091 Y49.2966
G01 X23.7176 Y49.3074
G01 X23.7644 Y49.3705
G01 X23.7760 Y49.3875
G01 X23.8200 Y49.4608
G01 X23.8268 Y49.4727
G01 X23.8330 Y49.4850
G01 X23.8666 Y49.5560
G01 X23.8721 Y49.5686
G01 X23.8771 Y49.5814
G01 X23.9035 Y49.6553
G01 X23.9078 Y49.6684
G01 X23.9115 Y49.6816
G01 X23.9306 Y49.7578
G01 X23.9336 Y49.7712
G01 X23.9360 Y49.7848
G01 X23.9475 Y49.8625
G01 X23.9498 Y49.8830
G01 X23.9540 Y49.9683
G01 X23.9544 Y49.9820
G01 X23.9544 Y51.3820
G01 X23.9540 Y51.3957
G01 X23.9502 Y51.4742
G01 X23.9492 Y51.4879
G01 X23.9475 Y51.5015
G01 X23.9349 Y51.5860
G01 X23.9306 Y51.6062
G01 X23.9115 Y51.6824
G01 X23.9078 Y51.6956
G01 X23.9035 Y51.7087
G01 X23.8771 Y51.7826
G01 X23.8721 Y51.7955
G01 X23.8666 Y51.8080
G01 X23.8330 Y51.8790
G01 X23.8268 Y51.8913
G01 X23.8200 Y51.9033
G01 X23.7796 Y51.9706
G01 X23.7723 Y51.9822
G01 X23.7644 Y51.9935
G01 X23.7176 Y52.0566
G01 X23.7091 Y52.0674
G01 X23.7002 Y52.0778
G01 X23.6474 Y52.1360
G01 X23.6379 Y52.1460
G01 X23.6280 Y52.1554
G01 X23.5698 Y52.2082
G01 X23.5594 Y52.2172
G01 X23.5485 Y52.2256
G01 X23.4854 Y52.2724
G01 X23.4742 Y52.2803
G01 X23.4626 Y52.2877
G01 X23.3952 Y52.3281
G01 X23.3833 Y52.3348
G01 X23.3710 Y52.3410
G01 X23.3000 Y52.3746
G01 X23.2810 Y52.3827
G01 X23.2006 Y52.4116
G01 X23.1876 Y52.4159
G01 X23.1743 Y52.4195
G01 X23.0982 Y52.4386
G01 X23.0780 Y52.4429
G01 X22.9935 Y52.4555
G01 X22.9799 Y52.4572
G01 X22.9662 Y52.4582
G01 X22.8877 Y52.4621
G01 X22.8740 Y52.4624
G01 X22.8602 Y52.4621
G01 X22.7818 Y52.4582
G01 X22.7681 Y52.4572
G01 X22.7544 Y52.4555
G01 X22.6767 Y52.4440
G01 X22.6632 Y52.4416
G01 X22.6498 Y52.4386
G01 X22.5736 Y52.4195
G01 X22.5538 Y52.4138
G01 X22.4733 Y52.3851
G01 X22.4605 Y52.3802
G01 X22.4480 Y52.3746
G01 X22.3769 Y52.3410
G01 X22.3647 Y52.3348
G01 X22.3527 Y52.3281
G01 X22.2853 Y52.2877
G01 X22.2737 Y52.2803
G01 X22.2625 Y52.2724
G01 X22.1994 Y52.2256
G01 X22.1886 Y52.2172
G01 X22.1782 Y52.2082
G01 X22.1200 Y52.1554
G01 X22.1100 Y52.1460
G01 X22.1005 Y52.1360
G01 X22.0432 Y52.0727
G01 X22.0304 Y52.0566
G01 X21.9836 Y51.9935
G01 X21.9757 Y51.9822
G01 X21.9683 Y51.9706
G01 X21.9279 Y51.9033
G01 X21.9211 Y51.8913
G01 X21.9150 Y51.8790
G01 X21.8814 Y51.8080
G01 X21.8758 Y51.7955
G01 X21.8709 Y51.7826
G01 X21.8444 Y51.7087
G01 X21.8401 Y51.6956
G01 X21.8364 Y51.6824
G01 X21.8173 Y51.6062
G01 X21.8143 Y51.5928
G01 X21.8120 Y51.5792
G01 X21.7995 Y51.4947
G01 X21.7978 Y51.4742
G01 X21.7939 Y51.3957
G01 X21.7936 Y51.3820
G01 X21.7936 Y49.9820
G01 X21.7939 Y49.9683
G01 X21.7978 Y49.8898
G01 X21.7987 Y49.8770
G01 X17.4343 Y45.5126
G01 X16.9449 Y46.0020
G01 X16.9602 Y46.1038
G01 X16.9619 Y46.1174
G01 X16.9629 Y46.1311
G01 X16.9675 Y46.2233
G01 X16.9678 Y46.2370
G01 X16.9675 Y46.2507
G01 X16.9629 Y46.3429
G01 X16.9619 Y46.3566
G01 X16.9602 Y46.3702
G01 X16.9467 Y46.4614
G01 X16.9444 Y46.4750
G01 X16.9414 Y46.4884
G01 X16.9189 Y46.5778
G01 X16.9153 Y46.5911
G01 X16.9110 Y46.6041
G01 X16.8799 Y46.6910
G01 X16.8749 Y46.7038
G01 X16.8694 Y46.7164
G01 X16.8299 Y46.7997
G01 X16.8238 Y46.8120
G01 X16.8170 Y46.8240
G01 X16.7696 Y46.9031
G01 X16.7622 Y46.9147
G01 X16.7543 Y46.9259
G01 X16.6994 Y47.0000
G01 X16.6909 Y47.0108
G01 X16.6819 Y47.0212
G01 X16.6200 Y47.0896
G01 X16.6105 Y47.0995
G01 X16.6006 Y47.1090
G01 X16.5322 Y47.1709
G01 X16.5165 Y47.1842
G01 X16.4369 Y47.2433
G01 X16.4257 Y47.2512
G01 X16.4141 Y47.2586
G01 X16.3350 Y47.3060
G01 X16.3230 Y47.3128
G01 X16.3107 Y47.3189
G01 X16.2274 Y47.3584
G01 X16.2148 Y47.3639
G01 X16.2020 Y47.3689
G01 X16.1151 Y47.4000
G01 X16.1021 Y47.4043
G01 X16.0888 Y47.4079
G01 X15.9994 Y47.4304
G01 X15.9860 Y47.4334
G01 X15.9724 Y47.4357
G01 X15.8812 Y47.4492
G01 X15.8676 Y47.4509
G01 X15.8539 Y47.4519
G01 X15.7617 Y47.4565
G01 X15.7480 Y47.4568
G01 X15.7343 Y47.4565
G01 X15.6421 Y47.4519
G01 X15.6284 Y47.4509
G01 X15.6148 Y47.4492
G01 X15.5236 Y47.4357
G01 X15.5100 Y47.4334
G01 X15.4966 Y47.4304
G01 X15.4072 Y47.4079
G01 X15.3939 Y47.4043
G01 X15.3809 Y47.4000
G01 X15.2940 Y47.3689
G01 X15.2812 Y47.3639
G01 X15.2686 Y47.3584
G01 X15.1853 Y47.3189
G01 X15.1730 Y47.3128
G01 X15.1629 Y47.3071
G01 X15.4197 Y47.5634
G01 X16.1036 Y47.5634
G01 X16.1174 Y47.5637
G01 X16.1636 Y47.5661
G01 X16.1841 Y47.5684
G01 X16.2231 Y47.5742
G01 X16.2367 Y47.5766
G01 X16.2501 Y47.5796
G01 X16.2883 Y47.5892
G01 X16.3016 Y47.5929
G01 X16.3147 Y47.5972
G01 X16.3517 Y47.6105
G01 X16.3646 Y47.6155
G01 X16.3772 Y47.6211
G01 X16.4127 Y47.6379
G01 X16.4311 Y47.6475
G01 X16.4766 Y47.6749
G01 X16.4937 Y47.6866
G01 X16.5253 Y47.7101
G01 X16.5361 Y47.7186
G01 X16.5465 Y47.7276
G01 X16.5807 Y47.7588
G01 X17.7292 Y48.9122
G01 X17.7612 Y48.9076
G01 X17.7749 Y48.9062
G01 X17.8671 Y48.9017
G01 X17.8877 Y48.9019
G01 X17.9662 Y48.9058
G01 X17.9867 Y48.9076
G01 X18.0712 Y48.9200
G01 X18.0847 Y48.9224
G01 X18.0982 Y48.9254
G01 X18.1743 Y48.9445
G01 X18.1876 Y48.9481
G01 X18.2006 Y48.9524
G01 X18.2810 Y48.9813
G01 X18.3000 Y48.9894
G01 X18.3710 Y49.0230
G01 X18.3833 Y49.0292
G01 X18.3952 Y49.0360
G01 X18.4626 Y49.0763
G01 X18.4742 Y49.0837
G01 X18.4854 Y49.0916
G01 X18.5485 Y49.1384
G01 X18.5594 Y49.1468
G01 X18.5698 Y49.1558
G01 X18.6280 Y49.2086
G01 X18.6379 Y49.2181
G01 X18.6474 Y49.2280
G01 X18.7047 Y49.2914
G01 X18.7176 Y49.3074
G01 X18.7644 Y49.3705
G01 X18.7723 Y49.3818
G01 X18.7796 Y49.3934
G01 X18.8200 Y49.4608
G01 X18.8268 Y49.4727
G01 X18.8330 Y49.4850
G01 X18.8666 Y49.5560
G01 X18.8721 Y49.5686
G01 X18.8771 Y49.5814
G01 X18.9035 Y49.6553
G01 X18.9078 Y49.6684
G01 X18.9115 Y49.6816
G01 X18.9306 Y49.7578
G01 X18.9336 Y49.7712
G01 X18.9360 Y49.7848
G01 X18.9475 Y49.8625
G01 X18.9492 Y49.8761
G01 X18.9502 Y49.8898
G01 X18.9540 Y49.9683
G01 X18.9544 Y49.9820
G01 X18.9544 Y51.3820
G01 X18.9540 Y51.3957
G01 X18.9502 Y51.4742
G01 X18.9492 Y51.4879
G01 X18.9475 Y51.5015
G01 X18.9360 Y51.5792
G01 X18.9322 Y51.5995
G01 X18.9115 Y51.6824
G01 X18.9078 Y51.6956
G01 X18.9035 Y51.7087
G01 X18.8771 Y51.7826
G01 X18.8721 Y51.7955
G01 X18.8666 Y51.8080
G01 X18.8330 Y51.8790
G01 X18.8268 Y51.8913
G01 X18.8200 Y51.9033
G01 X18.7796 Y51.9706
G01 X18.7723 Y51.9822
G01 X18.7644 Y51.9935
G01 X18.7176 Y52.0566
G01 X18.7091 Y52.0674
G01 X18.7002 Y52.0778
G01 X18.6474 Y52.1360
G01 X18.6379 Y52.1460
G01 X18.6280 Y52.1554
G01 X18.5698 Y52.2082
G01 X18.5594 Y52.2172
G01 X18.5485 Y52.2256
G01 X18.4854 Y52.2724
G01 X18.4742 Y52.2803
G01 X18.4626 Y52.2877
G01 X18.3952 Y52.3281
G01 X18.3833 Y52.3348
G01 X18.3710 Y52.3410
G01 X18.3000 Y52.3746
G01 X18.2874 Y52.3802
G01 X18.2746 Y52.3851
G01 X18.2006 Y52.4116
G01 X18.1876 Y52.4159
G01 X18.1743 Y52.4195
G01 X18.0982 Y52.4386
G01 X18.0847 Y52.4416
G01 X18.0712 Y52.4440
G01 X17.9935 Y52.4555
G01 X17.9799 Y52.4572
G01 X17.9662 Y52.4582
G01 X17.8877 Y52.4621
G01 X17.8740 Y52.4624
G01 X17.8602 Y52.4621
G01 X17.7818 Y52.4582
G01 X17.7681 Y52.4572
G01 X17.7544 Y52.4555
G01 X17.6767 Y52.4440
G01 X17.6632 Y52.4416
G01 X17.6498 Y52.4386
G01 X17.5736 Y52.4195
G01 X17.5603 Y52.4159
G01 X17.5473 Y52.4116
G01 X17.4733 Y52.3851
G01 X17.4605 Y52.3802
G01 X17.4480 Y52.3746
G01 X17.3769 Y52.3410
G01 X17.3647 Y52.3348
G01 X17.3527 Y52.3281
G01 X17.2853 Y52.2877
G01 X17.2737 Y52.2803
G01 X17.2625 Y52.2724
G01 X17.1994 Y52.2256
G01 X17.1886 Y52.2172
G01 X17.1782 Y52.2082
G01 X17.1200 Y52.1554
G01 X17.1100 Y52.1460
G01 X17.1005 Y52.1360
G01 X17.0478 Y52.0778
G01 X17.0388 Y52.0674
G01 X17.0304 Y52.0566
G01 X16.9836 Y51.9935
G01 X16.9757 Y51.9822
G01 X16.9683 Y51.9706
G01 X16.9279 Y51.9033
G01 X16.9180 Y51.8852
G01 X16.8814 Y51.8080
G01 X16.8758 Y51.7955
G01 X16.8709 Y51.7826
G01 X16.8444 Y51.7087
G01 X16.8401 Y51.6956
G01 X16.8364 Y51.6824
G01 X16.8173 Y51.6062
G01 X16.8131 Y51.5860
G01 X16.8005 Y51.5015
G01 X16.7988 Y51.4879
G01 X16.7978 Y51.4742
G01 X16.7939 Y51.3957
G01 X16.7936 Y51.3820
G01 X16.7936 Y49.9820
G01 X16.7939 Y49.9683
G01 X16.7971 Y49.9041
G01 X16.2608 Y49.3655
G01 X16.2685 Y49.3761
G01 X16.2762 Y49.3875
G01 X16.3202 Y49.4608
G01 X16.3269 Y49.4727
G01 X16.3331 Y49.4850
G01 X16.3667 Y49.5560
G01 X16.3723 Y49.5686
G01 X16.3772 Y49.5814
G01 X16.4037 Y49.6553
G01 X16.4080 Y49.6684
G01 X16.4117 Y49.6816
G01 X16.4307 Y49.7578
G01 X16.4338 Y49.7712
G01 X16.4361 Y49.7848
G01 X16.4476 Y49.8625
G01 X16.4499 Y49.8830
G01 X16.4542 Y49.9683
G01 X16.4545 Y49.9820
G01 X16.4545 Y51.3820
G01 X16.4542 Y51.3957
G01 X16.4503 Y51.4742
G01 X16.4493 Y51.4879
G01 X16.4476 Y51.5015
G01 X16.4350 Y51.5860
G01 X16.4307 Y51.6062
G01 X16.4117 Y51.6824
G01 X16.4080 Y51.6956
G01 X16.4037 Y51.7087
G01 X16.3772 Y51.7826
G01 X16.3723 Y51.7955
G01 X16.3667 Y51.8080
G01 X16.3331 Y51.8790
G01 X16.3269 Y51.8913
G01 X16.3202 Y51.9033
G01 X16.2798 Y51.9706
G01 X16.2685 Y51.9879
G01 X16.2177 Y52.0566
G01 X16.2093 Y52.0674
G01 X16.2003 Y52.0778
G01 X16.1475 Y52.1360
G01 X16.1331 Y52.1508
G01 X16.0699 Y52.2082
G01 X16.0541 Y52.2215
G01 X15.9856 Y52.2724
G01 X15.9743 Y52.2803
G01 X15.9627 Y52.2877
G01 X15.9202 Y52.3132
G01 X15.9201 Y53.7369
G01 X15.9179 Y53.7830
G01 X15.9169 Y53.7967
G01 X15.9152 Y53.8103
G01 X15.9071 Y53.8627
G01 X15.9041 Y53.8761
G01 X15.8909 Y53.9275
G01 X15.8866 Y53.9405
G01 X15.8710 Y53.9839
G01 X15.8629 Y54.0029
G01 X15.8399 Y54.0506
G01 X15.8331 Y54.0626
G01 X15.8093 Y54.1021
G01 X15.7977 Y54.1191
G01 X15.7658 Y54.1615
G01 X15.7305 Y54.2010
G01 X15.7161 Y54.2158
G01 X15.6819 Y54.2468
G01 X15.6715 Y54.2558
G01 X15.6607 Y54.2643
G01 X15.6179 Y54.2956
G01 X15.6063 Y54.3029
G01 X15.5667 Y54.3266
G01 X15.5484 Y54.3361
G01 X15.5003 Y54.3584
G01 X15.4505 Y54.3766
G01 X15.4309 Y54.3828
G01 X15.3794 Y54.3957
G01 X15.3592 Y54.3995
G01 X15.3067 Y54.4069
G01 X15.2537 Y54.4099
G01 X15.2400 Y54.4102
G01 X7.8740 Y54.4102
G01 X7.8603 Y54.4099
G01 X7.8073 Y54.4069
G01 X7.7548 Y54.3995
G01 X7.7413 Y54.3971
G01 X7.6898 Y54.3846
G01 X7.6765 Y54.3809
G01 X7.6265 Y54.3634
G01 X7.6074 Y54.3557
G01 X7.5656 Y54.3361
G01 X7.5534 Y54.3299
G01 X7.5077 Y54.3029
G01 X7.4904 Y54.2917
G01 X7.4533 Y54.2643
G01 X7.4425 Y54.2558
G01 X7.4030 Y54.2205
G01 X7.3930 Y54.2110
G01 X7.2660 Y54.0840
G01 X7.2287 Y54.0435
G01 X2.9107 Y48.9635
G01 X2.9019 Y48.9526
G01 X2.8774 Y48.9206
G01 X2.8691 Y48.9092
G01 X2.8614 Y48.8974
G01 X2.8402 Y48.8632
G01 X2.8331 Y48.8510
G01 X2.8266 Y48.8385
G01 X2.8060 Y48.7959
G01 X2.8005 Y48.7830
G01 X2.7841 Y48.7386
G01 X2.7796 Y48.7253
G01 X2.7757 Y48.7117
G01 X2.7657 Y48.6727
G01 X2.7625 Y48.6590
G01 X2.7601 Y48.6451
G01 X2.7540 Y48.6053
G01 X2.7522 Y48.5913
G01 X2.7512 Y48.5773
G01 X2.7492 Y48.5371
G01 X2.7488 Y48.5230
G01 X2.7488 Y34.0450
G01 X2.7491 Y34.0313
G01 X2.7521 Y33.9783
G01 X2.7538 Y33.9647
G01 X2.7606 Y33.9191
G01 X2.7633 Y33.9056
G01 X2.7744 Y33.8608
G01 X2.7781 Y33.8475
G01 X2.7824 Y33.8345
G01 X2.8006 Y33.7847
G01 X2.8229 Y33.7366
G01 X2.8291 Y33.7244
G01 X2.8359 Y33.7124
G01 X2.8597 Y33.6729
G01 X2.8713 Y33.6559
G01 X2.9032 Y33.6135
G01 X2.9122 Y33.6031
G01 X2.9432 Y33.5689
G01 X5.7055 Y30.8065
G01 X5.6963 Y30.7442
G01 X5.6946 Y30.7306
G01 X5.6936 Y30.7169
G01 X5.6893 Y30.6297
G01 X5.6890 Y30.6160
G01 X5.6893 Y30.6023
G01 X5.6936 Y30.5151
G01 X5.6946 Y30.5014
G01 X5.6963 Y30.4878
G01 X5.7055 Y30.4255
G01 X4.5838 Y29.3037
G01 X4.5743 Y29.2938
G01 X4.5434 Y29.2595
G01 X4.5346 Y29.2489
G01 X4.5071 Y29.2119
G01 X4.4992 Y29.2006
G01 X4.4918 Y29.1890
G01 X4.4648 Y29.1434
G01 X4.4587 Y29.1311
G01 X4.4363 Y29.0830
G01 X4.4181 Y29.0332
G01 X4.4138 Y29.0202
G01 X4.4006 Y28.9689
G01 X4.3976 Y28.9554
G01 X4.3953 Y28.9419
G01 X4.3886 Y28.8962
G01 X4.3868 Y28.8757
G01 X4.3845 Y28.8227
G01 X4.3845 Y4.6628
G01 X4.3849 Y4.6491
G01 X4.3878 Y4.5961
G01 X4.3895 Y4.5825
G01 X4.3963 Y4.5368
G01 X4.3990 Y4.5234
G01 X4.4102 Y4.4786
G01 X4.4138 Y4.4653
G01 X4.4181 Y4.4523
G01 X4.4363 Y4.4025
G01 X4.4419 Y4.3899
G01 X4.4648 Y4.3421
G01 X4.4716 Y4.3302
G01 X4.4954 Y4.2906
G01 X4.5071 Y4.2737
G01 X4.5389 Y4.2313
G01 X4.5479 Y4.2209
G01 X4.5790 Y4.1867
G01 X5.5355 Y3.2301
G01 X5.5746 Y3.1942
G01 X5.5903 Y3.1810
G01 X5.6274 Y3.1534
G01 X5.6386 Y3.1455
G01 X5.6502 Y3.1381
G01 X5.6958 Y3.1112
G01 X5.7436 Y3.0882
G01 X5.7562 Y3.0826
G01 X5.7690 Y3.0777
G01 X5.8125 Y3.0622
G01 X5.8323 Y3.0565
G01 X5.8838 Y3.0439
G01 X5.9362 Y3.0358
G01 X5.9567 Y3.0335
G01 X6.0028 Y3.0312
G01 X6.0165 Y3.0309
G01 X9.9092 Y3.0308
G01 X9.9540 Y3.0040
G01 X9.9721 Y2.9941
G01 X10.0679 Y2.9488
G01 X10.0870 Y2.9411
G01 X10.1804 Y2.9078
G01 X10.2002 Y2.9021
G01 X10.2896 Y2.8796
G01 X10.3030 Y2.8766
G01 X10.3166 Y2.8743
G01 X10.4146 Y2.8598
G01 X10.4351 Y2.8581
G01 X10.5273 Y2.8535
G01 X10.5410 Y2.8532
G01 X10.5547 Y2.8535
G01 X10.6469 Y2.8581
G01 X10.6606 Y2.8591
G01 X10.6742 Y2.8608
G01 X10.7654 Y2.8743
G01 X10.7790 Y2.8766
G01 X10.7924 Y2.8796
G01 X10.8885 Y2.9038
G01 X10.9081 Y2.9100
G01 X10.9950 Y2.9411
G01 X11.0078 Y2.9461
G01 X11.0204 Y2.9516
G01 X11.1037 Y2.9911
G01 X11.1160 Y2.9972
G01 X11.1280 Y3.0040
G01 X11.2071 Y3.0514
G01 X11.2187 Y3.0588
G01 X11.2299 Y3.0667
G01 X11.3040 Y3.1216
G01 X11.3148 Y3.1301
G01 X11.3252 Y3.1391
G01 X11.3936 Y3.2010
G01 X11.4035 Y3.2105
G01 X11.4130 Y3.2204
G01 X11.4749 Y3.2888
G01 X11.4839 Y3.2992
G01 X11.4924 Y3.3100
G01 X11.5473 Y3.3841
G01 X11.5552 Y3.3953
G01 X11.5626 Y3.4069
G01 X11.6100 Y3.4860
G01 X11.6168 Y3.4980
G01 X11.6229 Y3.5103
G01 X11.6624 Y3.5936
G01 X11.6679 Y3.6062
G01 X11.6729 Y3.6190
G01 X11.7040 Y3.7059
G01 X11.7083 Y3.7189
G01 X11.7119 Y3.7322
G01 X11.7344 Y3.8216
G01 X11.7374 Y3.8350
G01 X11.7397 Y3.8486
G01 X11.7532 Y3.9398
G01 X11.7549 Y3.9534
G01 X11.7559 Y3.9671
G01 X11.7605 Y4.0593
G01 X11.7608 Y4.0730
G01 X11.7605 Y4.0867
G01 X11.7559 Y4.1789
G01 X11.7549 Y4.1926
G01 X11.7532 Y4.2062
G01 X11.7397 Y4.2974
G01 X11.7374 Y4.3110
G01 X11.7344 Y4.3244
G01 X11.7119 Y4.4138
G01 X11.7083 Y4.4271
G01 X11.7040 Y4.4401
G01 X11.6729 Y4.5270
G01 X11.6679 Y4.5398
G01 X11.6624 Y4.5524
G01 X11.6229 Y4.6357
G01 X11.6168 Y4.6480
G01 X11.6100 Y4.6600
G01 X11.5626 Y4.7391
G01 X11.5552 Y4.7507
G01 X11.5473 Y4.7619
G01 X11.4924 Y4.8360
G01 X11.4839 Y4.8468
G01 X11.4749 Y4.8572
G01 X11.4130 Y4.9256
G01 X11.4035 Y4.9355
G01 X11.3936 Y4.9450
G01 X11.3252 Y5.0069
G01 X11.3148 Y5.0159
G01 X11.3040 Y5.0244
G01 X11.2299 Y5.0793
G01 X11.2187 Y5.0872
G01 X11.2071 Y5.0946
G01 X11.1280 Y5.1420
G01 X11.1099 Y5.1519
G01 X11.0204 Y5.1944
G01 X11.0078 Y5.1999
G01 X10.9950 Y5.2049
G01 X10.9081 Y5.2360
G01 X10.8951 Y5.2403
G01 X10.8818 Y5.2439
G01 X10.7924 Y5.2664
G01 X10.7790 Y5.2694
G01 X10.7654 Y5.2717
G01 X10.6742 Y5.2852
G01 X10.6606 Y5.2869
G01 X10.6469 Y5.2879
G01 X10.5547 Y5.2925
G01 X10.5410 Y5.2928
G01 X10.5273 Y5.2925
G01 X10.4351 Y5.2879
G01 X10.4214 Y5.2869
G01 X10.4078 Y5.2852
G01 X10.3166 Y5.2717
G01 X10.3030 Y5.2694
G01 X10.2896 Y5.2664
G01 X10.2002 Y5.2439
G01 X10.1869 Y5.2403
G01 X10.1739 Y5.2360
G01 X10.0870 Y5.2049
G01 X10.0679 Y5.1972
G01 X9.9783 Y5.1549
G01 X9.9660 Y5.1488
G01 X9.9540 Y5.1420
G01 X9.8749 Y5.0946
G01 X9.8633 Y5.0872
G01 X9.8521 Y5.0793
G01 X9.7780 Y5.0244
G01 X9.7672 Y5.0159
G01 X9.7568 Y5.0069
G01 X9.6884 Y4.9450
G01 X9.6785 Y4.9355
G01 X9.6690 Y4.9256
G01 X9.6025 Y4.8521
G01 X9.5896 Y4.8360
G01 X9.5347 Y4.7619
G01 X9.5268 Y4.7507
G01 X9.5194 Y4.7391
G01 X9.4720 Y4.6600
G01 X9.4621 Y4.6419
G01 X9.4196 Y4.5524
G01 X9.4115 Y4.5334
G01 X9.3758 Y4.4336
G01 X9.3718 Y4.4205
G01 X9.3644 Y4.3912
G01 X7.6864 Y4.3913
G01 X7.7527 Y4.4640
G01 X7.7616 Y4.4744
G01 X7.7701 Y4.4852
G01 X7.8221 Y4.5553
G01 X7.8300 Y4.5665
G01 X7.8373 Y4.5781
G01 X7.8822 Y4.6530
G01 X7.8890 Y4.6649
G01 X7.8951 Y4.6772
G01 X7.9324 Y4.7561
G01 X7.9380 Y4.7686
G01 X7.9430 Y4.7815
G01 X7.9724 Y4.8636
G01 X7.9767 Y4.8767
G01 X7.9803 Y4.8899
G01 X8.0015 Y4.9745
G01 X8.0045 Y4.9879
G01 X8.0069 Y5.0015
G01 X8.0197 Y5.0878
G01 X8.0214 Y5.1014
G01 X8.0224 Y5.1151
G01 X8.0267 Y5.2023
G01 X8.0270 Y5.2160
G01 X8.0267 Y5.2297
G01 X8.0224 Y5.3169
G01 X8.0214 Y5.3306
G01 X8.0197 Y5.3442
G01 X8.0069 Y5.4305
G01 X8.0045 Y5.4441
G01 X8.0015 Y5.4575
G01 X7.9803 Y5.5421
G01 X7.9767 Y5.5553
G01 X7.9724 Y5.5684
G01 X7.9430 Y5.6505
G01 X7.9380 Y5.6634
G01 X7.9324 Y5.6759
G01 X7.8951 Y5.7548
G01 X7.8890 Y5.7671
G01 X7.8822 Y5.7790
G01 X7.8373 Y5.8539
G01 X7.8300 Y5.8655
G01 X7.8221 Y5.8767
G01 X7.7701 Y5.9468
G01 X7.7616 Y5.9576
G01 X7.7527 Y5.9680
G01 X7.6941 Y6.0327
G01 X7.6846 Y6.0426
G01 X7.6747 Y6.0521
G01 X7.6100 Y6.1107
G01 X7.5996 Y6.1196
G01 X7.5888 Y6.1281
G01 X7.5187 Y6.1801
G01 X7.5075 Y6.1880
G01 X7.4959 Y6.1953
G01 X7.4210 Y6.2402
G01 X7.4091 Y6.2470
G01 X7.3968 Y6.2531
G01 X7.3179 Y6.2904
G01 X7.3054 Y6.2960
G01 X7.2925 Y6.3010
G01 X7.2104 Y6.3304
G01 X7.1973 Y6.3347
G01 X7.1841 Y6.3383
G01 X7.0995 Y6.3595
G01 X7.0861 Y6.3625
G01 X7.0725 Y6.3649
G01 X6.9862 Y6.3777
G01 X6.9726 Y6.3794
G01 X6.9589 Y6.3804
G01 X6.8717 Y6.3847
G01 X6.8580 Y6.3850
G01 X6.8443 Y6.3847
G01 X6.7571 Y6.3804
G01 X6.7434 Y6.3794
G01 X6.7298 Y6.3777
G01 X6.6435 Y6.3649
G01 X6.6299 Y6.3625
G01 X6.6165 Y6.3595
G01 X6.5319 Y6.3383
G01 X6.5187 Y6.3347
G01 X6.5056 Y6.3304
G01 X6.4235 Y6.3010
G01 X6.4106 Y6.2960
G01 X6.3981 Y6.2904
G01 X6.3192 Y6.2531
G01 X6.3069 Y6.2470
G01 X6.2950 Y6.2402
G01 X6.2201 Y6.1953
G01 X6.2085 Y6.1880
G01 X6.1973 Y6.1801
G01 X6.1272 Y6.1281
G01 X6.1164 Y6.1196
G01 X6.1060 Y6.1107
G01 X6.0413 Y6.0521
G01 X6.0314 Y6.0426
G01 X6.0219 Y6.0327
G01 X5.9633 Y5.9680
G01 X5.9544 Y5.9576
G01 X5.9459 Y5.9468
G01 X5.8939 Y5.8767
G01 X5.8860 Y5.8655
G01 X5.8787 Y5.8539
G01 X5.8338 Y5.7790
G01 X5.8270 Y5.7671
G01 X5.8209 Y5.7548
G01 X5.7836 Y5.6759
G01 X5.7780 Y5.6634
G01 X5.7730 Y5.6505
G01 X5.7449 Y5.5720
G01 X5.7449 Y7.4000
G01 X5.7730 Y7.3215
G01 X5.7780 Y7.3086
G01 X5.7836 Y7.2961
G01 X5.8209 Y7.2172
G01 X5.8270 Y7.2049
G01 X5.8338 Y7.1930
G01 X5.8787 Y7.1181
G01 X5.8860 Y7.1065
G01 X5.8939 Y7.0953
G01 X5.9459 Y7.0252
G01 X5.9544 Y7.0144
G01 X5.9633 Y7.0040
G01 X6.0219 Y6.9393
G01 X6.0314 Y6.9294
G01 X6.0413 Y6.9199
G01 X6.1060 Y6.8613
G01 X6.1164 Y6.8524
G01 X6.1272 Y6.8439
G01 X6.1973 Y6.7919
G01 X6.2085 Y6.7840
G01 X6.2201 Y6.7767
G01 X6.2950 Y6.7318
G01 X6.3069 Y6.7250
G01 X6.3192 Y6.7189
G01 X6.3981 Y6.6816
G01 X6.4106 Y6.6760
G01 X6.4235 Y6.6710
G01 X6.5056 Y6.6416
G01 X6.5187 Y6.6373
G01 X6.5319 Y6.6337
G01 X6.6165 Y6.6125
G01 X6.6299 Y6.6095
G01 X6.6435 Y6.6071
G01 X6.7298 Y6.5943
G01 X6.7434 Y6.5926
G01 X6.7571 Y6.5916
G01 X6.8443 Y6.5873
G01 X6.8580 Y6.5870
G01 X6.8717 Y6.5873
G01 X6.9589 Y6.5916
G01 X6.9726 Y6.5926
G01 X6.9862 Y6.5943
G01 X7.0725 Y6.6071
G01 X7.0861 Y6.6095
G01 X7.0995 Y6.6125
G01 X7.1841 Y6.6337
G01 X7.1973 Y6.6373
G01 X7.2104 Y6.6416
G01 X7.2925 Y6.6710
G01 X7.3054 Y6.6760
G01 X7.3179 Y6.6816
G01 X7.3968 Y6.7189
G01 X7.4091 Y6.7250
G01 X7.4210 Y6.7318
G01 X7.4959 Y6.7767
G01 X7.5075 Y6.7840
G01 X7.5187 Y6.7919
G01 X7.5888 Y6.8439
G01 X7.5996 Y6.8524
G01 X7.6100 Y6.8613
G01 X7.6747 Y6.9199
G01 X7.6846 Y6.9294
G01 X7.6941 Y6.9393
G01 X7.7527 Y7.0040
G01 X7.7616 Y7.0144
G01 X7.7701 Y7.0252
G01 X7.8221 Y7.0953
G01 X7.8300 Y7.1065
G01 X7.8373 Y7.1181
G01 X7.8822 Y7.1930
G01 X7.8890 Y7.2049
G01 X7.8951 Y7.2172
G01 X7.9324 Y7.2961
G01 X7.9380 Y7.3086
G01 X7.9430 Y7.3215
G01 X7.9724 Y7.4036
G01 X7.9767 Y7.4167
G01 X7.9803 Y7.4299
G01 X8.0015 Y7.5145
G01 X8.0045 Y7.5279
G01 X8.0069 Y7.5415
G01 X8.0197 Y7.6278
G01 X8.0214 Y7.6414
G01 X8.0224 Y7.6551
G01 X8.0267 Y7.7423
G01 X8.0270 Y7.7560
G01 X8.0267 Y7.7697
G01 X8.0224 Y7.8569
G01 X8.0214 Y7.8706
G01 X8.0197 Y7.8842
G01 X8.0069 Y7.9705
G01 X8.0045 Y7.9841
G01 X8.0015 Y7.9975
G01 X7.9803 Y8.0821
G01 X7.9767 Y8.0953
G01 X7.9724 Y8.1084
G01 X7.9430 Y8.1905
G01 X7.9380 Y8.2034
G01 X7.9324 Y8.2159
G01 X7.8951 Y8.2948
G01 X7.8890 Y8.3071
G01 X7.8822 Y8.3190
G01 X7.8373 Y8.3939
G01 X7.8300 Y8.4055
G01 X7.8221 Y8.4167
G01 X7.7701 Y8.4868
G01 X7.7616 Y8.4976
G01 X7.7527 Y8.5080
G01 X7.6941 Y8.5727
G01 X7.6846 Y8.5826
G01 X7.6747 Y8.5921
G01 X7.6100 Y8.6507
G01 X7.5996 Y8.6596
G01 X7.5888 Y8.6681
G01 X7.5187 Y8.7201
G01 X7.5075 Y8.7280
G01 X7.4959 Y8.7353
G01 X7.4210 Y8.7802
G01 X7.4091 Y8.7870
G01 X7.3968 Y8.7931
G01 X7.3179 Y8.8304
G01 X7.3054 Y8.8360
G01 X7.2925 Y8.8410
G01 X7.2104 Y8.8704
G01 X7.1973 Y8.8747
G01 X7.1841 Y8.8783
G01 X7.0995 Y8.8995
G01 X7.0861 Y8.9025
G01 X7.0725 Y8.9049
G01 X6.9862 Y8.9177
G01 X6.9726 Y8.9194
G01 X6.9589 Y8.9204
G01 X6.8717 Y8.9247
G01 X6.8580 Y8.9250
G01 X6.8443 Y8.9247
G01 X6.7571 Y8.9204
G01 X6.7434 Y8.9194
G01 X6.7298 Y8.9177
G01 X6.6435 Y8.9049
G01 X6.6299 Y8.9025
G01 X6.6165 Y8.8995
G01 X6.5319 Y8.8783
G01 X6.5187 Y8.8747
G01 X6.5056 Y8.8704
G01 X6.4235 Y8.8410
G01 X6.4106 Y8.8360
G01 X6.3981 Y8.8304
G01 X6.3192 Y8.7931
G01 X6.3069 Y8.7870
G01 X6.2950 Y8.7802
G01 X6.2201 Y8.7353
G01 X6.2085 Y8.7280
G01 X6.1973 Y8.7201
G01 X6.1272 Y8.6681
G01 X6.1164 Y8.6596
G01 X6.1060 Y8.6507
G01 X6.0413 Y8.5921
G01 X6.0314 Y8.5826
G01 X6.0219 Y8.5727
G01 X5.9633 Y8.5080
G01 X5.9544 Y8.4976
G01 X5.9459 Y8.4868
G01 X5.8939 Y8.4167
G01 X5.8860 Y8.4055
G01 X5.8787 Y8.3939
G01 X5.8338 Y8.3190
G01 X5.8270 Y8.3071
G01 X5.8209 Y8.2948
G01 X5.7836 Y8.2159
G01 X5.7780 Y8.2034
G01 X5.7730 Y8.1905
G01 X5.7449 Y8.1120
G01 X5.7449 Y9.9400
G01 X5.7730 Y9.8615
G01 X5.7780 Y9.8486
G01 X5.7836 Y9.8361
G01 X5.8209 Y9.7572
G01 X5.8270 Y9.7449
G01 X5.8338 Y9.7330
G01 X5.8787 Y9.6581
G01 X5.8860 Y9.6465
G01 X5.8939 Y9.6353
G01 X5.9459 Y9.5652
G01 X5.9544 Y9.5544
G01 X5.9633 Y9.5440
G01 X6.0219 Y9.4793
G01 X6.0314 Y9.4694
G01 X6.0413 Y9.4599
G01 X6.1060 Y9.4013
G01 X6.1164 Y9.3924
G01 X6.1272 Y9.3839
G01 X6.1973 Y9.3319
G01 X6.2085 Y9.3240
G01 X6.2201 Y9.3167
G01 X6.2950 Y9.2718
G01 X6.3069 Y9.2650
G01 X6.3192 Y9.2589
G01 X6.3981 Y9.2216
G01 X6.4106 Y9.2160
G01 X6.4235 Y9.2110
G01 X6.5056 Y9.1816
G01 X6.5187 Y9.1773
G01 X6.5319 Y9.1737
G01 X6.6165 Y9.1525
G01 X6.6299 Y9.1495
G01 X6.6435 Y9.1471
G01 X6.7298 Y9.1343
G01 X6.7434 Y9.1326
G01 X6.7571 Y9.1316
G01 X6.8443 Y9.1273
G01 X6.8580 Y9.1270
G01 X6.8717 Y9.1273
G01 X6.9589 Y9.1316
G01 X6.9726 Y9.1326
G01 X6.9862 Y9.1343
G01 X7.0725 Y9.1471
G01 X7.0861 Y9.1495
G01 X7.0995 Y9.1525
G01 X7.1841 Y9.1737
G01 X7.1973 Y9.1773
G01 X7.2104 Y9.1816
G01 X7.2925 Y9.2110
G01 X7.3054 Y9.2160
G01 X7.3179 Y9.2216
G01 X7.3968 Y9.2589
G01 X7.4091 Y9.2650
G01 X7.4210 Y9.2718
G01 X7.4959 Y9.3167
G01 X7.5075 Y9.3240
G01 X7.5187 Y9.3319
G01 X7.5888 Y9.3839
G01 X7.5996 Y9.3924
G01 X7.6100 Y9.4013
G01 X7.6747 Y9.4599
G01 X7.6846 Y9.4694
G01 X7.6941 Y9.4793
G01 X7.7527 Y9.5440
G01 X7.7616 Y9.5544
G01 X7.7701 Y9.5652
G01 X7.8221 Y9.6353
G01 X7.8300 Y9.6465
G01 X7.8373 Y9.6581
G01 X7.8822 Y9.7330
G01 X7.8890 Y9.7449
G01 X7.8951 Y9.7572
G01 X7.9324 Y9.8361
G01 X7.9380 Y9.8486
G01 X7.9430 Y9.8615
G01 X7.9724 Y9.9436
G01 X7.9767 Y9.9567
G01 X7.9803 Y9.9699
G01 X8.0015 Y10.0545
G01 X8.0045 Y10.0679
G01 X8.0069 Y10.0815
G01 X8.0197 Y10.1678
G01 X8.0214 Y10.1814
G01 X8.0224 Y10.1951
G01 X8.0267 Y10.2823
G01 X8.0270 Y10.2960
G01 X8.0267 Y10.3097
G01 X8.0224 Y10.3969
G01 X8.0214 Y10.4106
G01 X8.0197 Y10.4242
G01 X8.0069 Y10.5105
G01 X8.0045 Y10.5241
G01 X8.0015 Y10.5375
G01 X7.9803 Y10.6221
G01 X7.9767 Y10.6353
G01 X7.9724 Y10.6484
G01 X7.9430 Y10.7305
G01 X7.9380 Y10.7434
G01 X7.9324 Y10.7559
G01 X7.8951 Y10.8348
G01 X7.8890 Y10.8471
G01 X7.8822 Y10.8590
G01 X7.8373 Y10.9339
G01 X7.8300 Y10.9455
G01 X7.8221 Y10.9567
G01 X7.7701 Y11.0268
G01 X7.7616 Y11.0376
G01 X7.7527 Y11.0480
G01 X7.6941 Y11.1127
G01 X7.6846 Y11.1226
G01 X7.6747 Y11.1321
G01 X7.6100 Y11.1907
G01 X7.5996 Y11.1996
G01 X7.5888 Y11.2081
G01 X7.5187 Y11.2601
G01 X7.5075 Y11.2680
G01 X7.4959 Y11.2753
G01 X7.4210 Y11.3202
G01 X7.4091 Y11.3270
G01 X7.3968 Y11.3331
G01 X7.3179 Y11.3704
G01 X7.3054 Y11.3760
G01 X7.2925 Y11.3810
G01 X7.2104 Y11.4104
G01 X7.1973 Y11.4147
G01 X7.1841 Y11.4183
G01 X7.0995 Y11.4395
G01 X7.0861 Y11.4425
G01 X7.0725 Y11.4449
G01 X6.9862 Y11.4577
G01 X6.9726 Y11.4594
G01 X6.9589 Y11.4604
G01 X6.8717 Y11.4647
G01 X6.8580 Y11.4650
G01 X6.8443 Y11.4647
G01 X6.7571 Y11.4604
G01 X6.7434 Y11.4594
G01 X6.7298 Y11.4577
G01 X6.6435 Y11.4449
G01 X6.6299 Y11.4425
G01 X6.6165 Y11.4395
G01 X6.5319 Y11.4183
G01 X6.5187 Y11.4147
G01 X6.5056 Y11.4104
G01 X6.4235 Y11.3810
G01 X6.4106 Y11.3760
G01 X6.3981 Y11.3704
G01 X6.3192 Y11.3331
G01 X6.3069 Y11.3270
G01 X6.2950 Y11.3202
G01 X6.2201 Y11.2753
G01 X6.2085 Y11.2680
G01 X6.1973 Y11.2601
G01 X6.1272 Y11.2081
G01 X6.1164 Y11.1996
G01 X6.1060 Y11.1907
G01 X6.0413 Y11.1321
G01 X6.0314 Y11.1226
G01 X6.0219 Y11.1127
G01 X5.9633 Y11.0480
G01 X5.9544 Y11.0376
G01 X5.9459 Y11.0268
G01 X5.8939 Y10.9567
G01 X5.8860 Y10.9455
G01 X5.8787 Y10.9339
G01 X5.8338 Y10.8590
G01 X5.8270 Y10.8471
G01 X5.8209 Y10.8348
G01 X5.7836 Y10.7559
G01 X5.7780 Y10.7434
G01 X5.7730 Y10.7305
G01 X5.7449 Y10.6520
G01 X5.7449 Y12.4800
G01 X5.7730 Y12.4015
G01 X5.7780 Y12.3886
G01 X5.7836 Y12.3761
G01 X5.8209 Y12.2972
G01 X5.8270 Y12.2849
G01 X5.8338 Y12.2730
G01 X5.8787 Y12.1981
G01 X5.8860 Y12.1865
G01 X5.8939 Y12.1753
G01 X5.9459 Y12.1052
G01 X5.9544 Y12.0944
G01 X5.9633 Y12.0840
G01 X6.0219 Y12.0193
G01 X6.0314 Y12.0094
G01 X6.0413 Y11.9999
G01 X6.1060 Y11.9413
G01 X6.1164 Y11.9324
G01 X6.1272 Y11.9239
G01 X6.1973 Y11.8719
G01 X6.2085 Y11.8640
G01 X6.2201 Y11.8567
G01 X6.2950 Y11.8118
G01 X6.3069 Y11.8050
G01 X6.3192 Y11.7989
G01 X6.3981 Y11.7616
G01 X6.4106 Y11.7560
G01 X6.4235 Y11.7510
G01 X6.5056 Y11.7216
G01 X6.5187 Y11.7173
G01 X6.5319 Y11.7137
G01 X6.6165 Y11.6925
G01 X6.6299 Y11.6895
G01 X6.6435 Y11.6871
G01 X6.7298 Y11.6743
G01 X6.7434 Y11.6726
G01 X6.7571 Y11.6716
G01 X6.8443 Y11.6673
G01 X6.8580 Y11.6670
G01 X6.8717 Y11.6673
G01 X6.9589 Y11.6716
G01 X6.9726 Y11.6726
G01 X6.9862 Y11.6743
G01 X7.0793 Y11.6882
G01 X7.0995 Y11.6925
G01 X7.1841 Y11.7137
G01 X7.1973 Y11.7173
G01 X7.2104 Y11.7216
G01 X7.2925 Y11.7510
G01 X7.3054 Y11.7560
G01 X7.3179 Y11.7616
G01 X7.3968 Y11.7989
G01 X7.4091 Y11.8050
G01 X7.4210 Y11.8118
G01 X7.4959 Y11.8567
G01 X7.5075 Y11.8640
G01 X7.5187 Y11.8719
G01 X7.5888 Y11.9239
G01 X7.5996 Y11.9324
G01 X7.6100 Y11.9413
G01 X7.6747 Y11.9999
G01 X7.6846 Y12.0094
G01 X7.6941 Y12.0193
G01 X7.7527 Y12.0840
G01 X7.7616 Y12.0944
G01 X7.7701 Y12.1052
G01 X7.8221 Y12.1753
G01 X7.8300 Y12.1865
G01 X7.8373 Y12.1981
G01 X7.8822 Y12.2730
G01 X7.8890 Y12.2849
G01 X7.8951 Y12.2972
G01 X7.9324 Y12.3761
G01 X7.9380 Y12.3886
G01 X7.9430 Y12.4015
G01 X7.9724 Y12.4836
G01 X7.9767 Y12.4967
G01 X7.9803 Y12.5099
G01 X8.0015 Y12.5945
G01 X8.0045 Y12.6079
G01 X8.0069 Y12.6215
G01 X8.0197 Y12.7078
G01 X8.0214 Y12.7214
G01 X8.0224 Y12.7351
G01 X8.0267 Y12.8223
G01 X8.0270 Y12.8360
G01 X8.0267 Y12.8497
G00 Z2.0000
G00 X5.9249 Y13.8095
G01 F60.00
G01 Z-0.1866
G01 F250.00
G01 X5.9851 Y13.8640
G01 X6.0022 Y13.8788
G01 X6.0110 Y13.8858
G01 X6.0992 Y13.9513
G01 X6.1180 Y13.9638
G01 X6.1276 Y13.9697
G01 X6.2024 Y14.0146
G01 X6.2221 Y14.0257
G01 X6.2321 Y14.0309
G01 X6.3314 Y14.0779
G01 X6.3522 Y14.0865
G01 X6.4063 Y14.1060
G01 X6.3522 Y14.1255
G01 X6.3314 Y14.1341
G01 X6.2321 Y14.1811
G01 X6.2221 Y14.1863
G01 X6.2024 Y14.1974
G01 X6.1276 Y14.2423
G01 X6.1085 Y14.2543
G01 X6.0992 Y14.2607
G01 X6.0110 Y14.3262
G01 X5.9936 Y14.3405
G01 X5.9851 Y14.3480
G01 X5.9249 Y14.4025
G01 X5.9249 Y13.8095
G00 Z2.0000
G00 X7.8469 Y15.3809
G01 F60.00
G01 Z-0.1866
G01 F250.00
G01 X7.8422 Y15.4729
G01 X7.8280 Y15.5689
G01 X7.8044 Y15.6631
G01 X7.7717 Y15.7545
G01 X7.7302 Y15.8422
G01 X7.6803 Y15.9255
G01 X7.6225 Y16.0034
G01 X7.5573 Y16.0753
G01 X7.4854 Y16.1405
G01 X7.4075 Y16.1983
G01 X7.3242 Y16.2482
G01 X7.2365 Y16.2897
G01 X7.1451 Y16.3224
G01 X7.0509 Y16.3460
G01 X6.9549 Y16.3602
G01 X6.8580 Y16.3650
G01 X6.7611 Y16.3602
G01 X6.6651 Y16.3460
G01 X6.5709 Y16.3224
G01 X6.4795 Y16.2897
G01 X6.3918 Y16.2482
G01 X6.3085 Y16.1983
G01 X6.2306 Y16.1405
G01 X6.1587 Y16.0753
G01 X6.0935 Y16.0034
G01 X6.0357 Y15.9255
G01 X5.9858 Y15.8422
G01 X5.9443 Y15.7545
G01 X5.9116 Y15.6631
G01 X5.8880 Y15.5689
G01 X5.8738 Y15.4729
G01 X5.8690 Y15.3760
G01 X5.8738 Y15.2791
G01 X5.8880 Y15.1831
G01 X5.9116 Y15.0889
G01 X5.9443 Y14.9975
G01 X5.9858 Y14.9098
G01 X6.0357 Y14.8265
G01 X6.0935 Y14.7486
G01 X6.1587 Y14.6767
G01 X6.2306 Y14.6115
G01 X6.3085 Y14.5537
G01 X6.3918 Y14.5038
G01 X6.4795 Y14.4623
G01 X6.5709 Y14.4296
G01 X6.6651 Y14.4060
G01 X6.7611 Y14.3918
G01 X6.8580 Y14.3870
G01 X6.9549 Y14.3918
G01 X7.0509 Y14.4060
G01 X7.1451 Y14.4296
G01 X7.2365 Y14.4623
G01 X7.3242 Y14.5038
G01 X7.4075 Y14.5537
G01 X7.4854 Y14.6115
G01 X7.5573 Y14.6767
G01 X7.6225 Y14.7486
G01 X7.6803 Y14.8265
G01 X7.7302 Y14.9098
G01 X7.7717 Y14.9975
G01 X7.8044 Y15.0889
G01 X7.8280 Y15.1831
G01 X7.8422 Y15.2791
G01 X7.8469 Y15.3711
G01 X7.8469 Y15.3809
G00 Z2.0000
G00 X5.9249 Y16.3495
G01 F60.00
G01 Z-0.1866
G01 F250.00
G01 X5.9851 Y16.4040
G01 X6.0022 Y16.4188
G01 X6.0110 Y16.4258
G01 X6.0992 Y16.4913
G01 X6.1180 Y16.5038
G01 X6.1276 Y16.5097
G01 X6.2024 Y16.5546
G01 X6.2221 Y16.5657
G01 X6.2321 Y16.5709
G01 X6.3314 Y16.6179
G01 X6.3522 Y16.6265
G01 X6.4063 Y16.6460
G01 X6.3522 Y16.6655
G01 X6.3314 Y16.6741
G01 X6.2321 Y16.7211
G01 X6.2122 Y16.7317
G01 X6.2024 Y16.7374
G01 X6.1276 Y16.7823
G01 X6.1085 Y16.7943
G01 X6.0992 Y16.8007
G01 X6.0110 Y16.8662
G01 X6.0022 Y16.8732
G01 X5.9851 Y16.8880
G01 X5.9249 Y16.9425
G01 X5.9249 Y16.3495
G00 Z2.0000
G00 X7.8469 Y17.9209
G01 F60.00
G01 Z-0.1866
G01 F250.00
G01 X7.8422 Y18.0129
G01 X7.8280 Y18.1089
G01 X7.8044 Y18.2031
G01 X7.7717 Y18.2945
G01 X7.7302 Y18.3822
G01 X7.6803 Y18.4655
G01 X7.6225 Y18.5434
G01 X7.5573 Y18.6153
G01 X7.4854 Y18.6805
G01 X7.4075 Y18.7383
G01 X7.3242 Y18.7882
G01 X7.2365 Y18.8297
G01 X7.1451 Y18.8624
G01 X7.0509 Y18.8860
G01 X6.9549 Y18.9002
G01 X6.8580 Y18.9050
G01 X6.7611 Y18.9002
G01 X6.6651 Y18.8860
G01 X6.5709 Y18.8624
G01 X6.4795 Y18.8297
G01 X6.3918 Y18.7882
G01 X6.3085 Y18.7383
G01 X6.2306 Y18.6805
G01 X6.1587 Y18.6153
G01 X6.0935 Y18.5434
G01 X6.0357 Y18.4655
G01 X5.9858 Y18.3822
G01 X5.9443 Y18.2945
G01 X5.9116 Y18.2031
G01 X5.8880 Y18.1089
G01 X5.8738 Y18.0129
G01 X5.8690 Y17.9160
G01 X5.8738 Y17.8191
G01 X5.8880 Y17.7231
G01 X5.9116 Y17.6289
G01 X5.9443 Y17.5375
G01 X5.9858 Y17.4498
G01 X6.0357 Y17.3665
G01 X6.0935 Y17.2886
G01 X6.1587 Y17.2167
G01 X6.2306 Y17.1515
G01 X6.3085 Y17.0937
G01 X6.3918 Y17.0438
G01 X6.4795 Y17.0023
G01 X6.5709 Y16.9696
G01 X6.6651 Y16.9460
G01 X6.7611 Y16.9318
G01 X6.8580 Y16.9270
G01 X6.9549 Y16.9318
G01 X7.0509 Y16.9460
G01 X7.1451 Y16.9696
G01 X7.2365 Y17.0023
G01 X7.3242 Y17.0438
G01 X7.4075 Y17.0937
G01 X7.4854 Y17.1515
G01 X7.5573 Y17.2167
G01 X7.6225 Y17.2886
G01 X7.6803 Y17.3665
G01 X7.7302 Y17.4498
G01 X7.7717 Y17.5375
G01 X7.8044 Y17.6289
G01 X7.8280 Y17.7231
G01 X7.8422 Y17.8191
G01 X7.8469 Y17.9111
G01 X7.8469 Y17.9209
G00 Z2.0000
G00 X8.0595 Y19.8437
G01 F60.00
G01 Z-0.1866
G01 F250.00
G01 X8.0529 Y19.8301
G01 X8.0423 Y19.8102
G01 X7.9858 Y19.7160
G01 X7.9797 Y19.7065
G01 X7.9667 Y19.6881
G01 X7.9078 Y19.6090
G01 X7.9008 Y19.6002
G01 X7.8860 Y19.5831
G01 X7.8275 Y19.5185
G01 X7.8119 Y19.5021
G01 X7.7955 Y19.4865
G01 X7.7224 Y19.4205
G01 X7.7138 Y19.4132
G01 X7.6960 Y19.3993
G01 X7.6259 Y19.3473
G01 X7.6075 Y19.3343
G01 X7.5884 Y19.3223
G01 X7.5038 Y19.2717
G01 X7.4839 Y19.2611
G01 X7.4737 Y19.2561
G01 X7.3846 Y19.2141
G01 X7.3638 Y19.2055
G01 X7.3097 Y19.1860
G01 X7.3638 Y19.1665
G01 X7.3846 Y19.1579
G01 X7.4737 Y19.1159
G01 X7.4939 Y19.1057
G01 X7.5038 Y19.1003
G01 X7.5884 Y19.0497
G01 X7.6075 Y19.0377
G01 X7.6259 Y19.0247
G01 X7.6960 Y18.9727
G01 X7.7138 Y18.9588
G01 X7.7224 Y18.9515
G01 X7.7955 Y18.8855
G01 X7.8119 Y18.8699
G01 X7.8275 Y18.8535
G01 X7.8860 Y18.7889
G01 X7.9008 Y18.7718
G01 X7.9078 Y18.7630
G01 X7.9667 Y18.6839
G01 X7.9733 Y18.6748
G01 X7.9858 Y18.6560
G01 X8.0423 Y18.5618
G01 X8.0529 Y18.5419
G01 X8.0595 Y18.5283
G01 X8.0595 Y19.8437
G00 Z2.0000
G00 X7.8469 Y20.4609
G01 F60.00
G01 Z-0.1866
G01 F250.00
G01 X7.8422 Y20.5529
G01 X7.8280 Y20.6489
G01 X7.8044 Y20.7431
G01 X7.7717 Y20.8345
G01 X7.7302 Y20.9222
G01 X7.6803 Y21.0055
G01 X7.6225 Y21.0834
G01 X7.5573 Y21.1553
G01 X7.4854 Y21.2205
G01 X7.4075 Y21.2783
G01 X7.3242 Y21.3282
G01 X7.2365 Y21.3697
G01 X7.1451 Y21.4024
G01 X7.0509 Y21.4260
G01 X6.9549 Y21.4402
G01 X6.8580 Y21.4450
G01 X6.7611 Y21.4402
G01 X6.6651 Y21.4260
G01 X6.5709 Y21.4024
G01 X6.4795 Y21.3697
G01 X6.3918 Y21.3282
G01 X6.3085 Y21.2783
G01 X6.2306 Y21.2205
G01 X6.1587 Y21.1553
G01 X6.0935 Y21.0834
G01 X6.0357 Y21.0055
G01 X5.9858 Y20.9222
G01 X5.9443 Y20.8345
G01 X5.9116 Y20.7431
G01 X5.8880 Y20.6489
G01 X5.8738 Y20.5529
G01 X5.8690 Y20.4560
G01 X5.8738 Y20.3591
G01 X5.8880 Y20.2631
G01 X5.9116 Y20.1689
G01 X5.9443 Y20.0775
G01 X5.9858 Y19.9898
G01 X6.0357 Y19.9065
G01 X6.0935 Y19.8286
G01 X6.1587 Y19.7567
G01 X6.2306 Y19.6915
G01 X6.3085 Y19.6337
G01 X6.3918 Y19.5838
G01 X6.4795 Y19.5423
G01 X6.5709 Y19.5096
G01 X6.6651 Y19.4860
G01 X6.7611 Y19.4718
G01 X6.8580 Y19.4670
G01 X6.9549 Y19.4718
G01 X7.0509 Y19.4860
G01 X7.1451 Y19.5096
G01 X7.2365 Y19.5423
G01 X7.3242 Y19.5838
G01 X7.4075 Y19.6337
G01 X7.4854 Y19.6915
G01 X7.5573 Y19.7567
G01 X7.6225 Y19.8286
G01 X7.6803 Y19.9065
G01 X7.7302 Y19.9898
G01 X7.7717 Y20.0775
G01 X7.8044 Y20.1689
G01 X7.8280 Y20.2631
G01 X7.8422 Y20.3591
G01 X7.8469 Y20.4511
G01 X7.8469 Y20.4609
G00 Z2.0000
G00 X7.3097 Y21.7260
G01 F60.00
G01 Z-0.1866
G01 F250.00
G01 X7.3638 Y21.7065
G01 X7.3846 Y21.6979
G01 X7.4737 Y21.6559
G01 X7.4939 Y21.6457
G01 X7.5038 Y21.6403
G01 X7.5884 Y21.5897
G01 X7.6075 Y21.5777
G01 X7.6259 Y21.5647
G01 X7.6960 Y21.5127
G01 X7.7138 Y21.4988
G01 X7.7224 Y21.4915
G01 X7.7955 Y21.4255
G01 X7.8119 Y21.4099
G01 X7.8275 Y21.3935
G01 X7.8860 Y21.3289
G01 X7.9008 Y21.3118
G01 X7.9078 Y21.3030
G01 X7.9667 Y21.2239
G01 X7.9733 Y21.2148
G01 X7.9858 Y21.1960
G01 X8.0423 Y21.1018
G01 X8.0529 Y21.0819
G01 X8.0595 Y21.0683
G01 X8.0595 Y22.3837
G01 X8.0529 Y22.3701
G01 X8.0423 Y22.3502
G01 X7.9858 Y22.2560
G01 X7.9797 Y22.2465
G01 X7.9667 Y22.2281
G01 X7.9078 Y22.1490
G01 X7.9008 Y22.1402
G01 X7.8860 Y22.1231
G01 X7.8275 Y22.0585
G01 X7.8119 Y22.0421
G01 X7.7955 Y22.0265
G01 X7.7224 Y21.9605
G01 X7.7138 Y21.9532
G01 X7.6960 Y21.9393
G01 X7.6259 Y21.8873
G01 X7.6075 Y21.8743
G01 X7.5884 Y21.8623
G01 X7.5038 Y21.8117
G01 X7.4839 Y21.8011
G01 X7.4737 Y21.7961
G01 X7.3846 Y21.7541
G01 X7.3638 Y21.7455
G01 X7.3097 Y21.7260
G00 Z2.0000
G00 X7.8469 Y23.0009
G01 F60.00
G01 Z-0.1866
G01 F250.00
G01 X7.8422 Y23.0929
G01 X7.8280 Y23.1889
G01 X7.8044 Y23.2831
G01 X7.7717 Y23.3745
G01 X7.7302 Y23.4622
G01 X7.6803 Y23.5455
G01 X7.6225 Y23.6234
G01 X7.5573 Y23.6953
G01 X7.4854 Y23.7605
G01 X7.4075 Y23.8183
G01 X7.3242 Y23.8682
G01 X7.2365 Y23.9097
G01 X7.1451 Y23.9424
G01 X7.0509 Y23.9660
G01 X6.9549 Y23.9802
G01 X6.8580 Y23.9850
G01 X6.7611 Y23.9802
G01 X6.6651 Y23.9660
G01 X6.5709 Y23.9424
G01 X6.4795 Y23.9097
G01 X6.3918 Y23.8682
G01 X6.3085 Y23.8183
G01 X6.2306 Y23.7605
G01 X6.1587 Y23.6953
G01 X6.0935 Y23.6234
G01 X6.0357 Y23.5455
G01 X5.9858 Y23.4622
G01 X5.9443 Y23.3745
G01 X5.9116 Y23.2831
G01 X5.8880 Y23.1889
G01 X5.8738 Y23.0929
G01 X5.8690 Y22.9960
G01 X5.8738 Y22.8991
G01 X5.8880 Y22.8031
G01 X5.9116 Y22.7089
G01 X5.9443 Y22.6175
G01 X5.9858 Y22.5298
G01 X6.0357 Y22.4465
G01 X6.0935 Y22.3686
G01 X6.1587 Y22.2967
G01 X6.2306 Y22.2315
G01 X6.3085 Y22.1737
G01 X6.3918 Y22.1238
G01 X6.4795 Y22.0823
G01 X6.5709 Y22.0496
G01 X6.6651 Y22.0260
G01 X6.7611 Y22.0118
G01 X6.8580 Y22.0070
G01 X6.9549 Y22.0118
G01 X7.0509 Y22.0260
G01 X7.1451 Y22.0496
G01 X7.2365 Y22.0823
G01 X7.3242 Y22.1238
G01 X7.4075 Y22.1737
G01 X7.4854 Y22.2315
G01 X7.5573 Y22.2967
G01 X7.6225 Y22.3686
G01 X7.6803 Y22.4465
G01 X7.7302 Y22.5298
G01 X7.7717 Y22.6175
G01 X7.8044 Y22.7089
G01 X7.8280 Y22.8031
G01 X7.8422 Y22.8991
G01 X7.8469 Y22.9911
G01 X7.8469 Y23.0009
G00 Z2.0000
G00 X7.3097 Y24.2660
G01 F60.00
G01 Z-0.1866
G01 F250.00
G01 X7.3638 Y24.2465
G01 X7.3846 Y24.2379
G01 X7.4737 Y24.1959
G01 X7.4939 Y24.1857
G01 X7.5038 Y24.1803
G01 X7.5884 Y24.1297
G01 X7.6075 Y24.1177
G01 X7.6259 Y24.1047
G01 X7.6960 Y24.0527
G01 X7.7050 Y24.0458
G01 X7.7224 Y24.0315
G01 X7.7955 Y23.9655
G01 X7.8119 Y23.9499
G01 X7.8275 Y23.9335
G01 X7.8860 Y23.8689
G01 X7.8935 Y23.8604
G01 X7.9078 Y23.8430
G01 X7.9667 Y23.7639
G01 X7.9733 Y23.7548
G01 X7.9858 Y23.7360
G01 X8.0423 Y23.6418
G01 X8.0529 Y23.6219
G01 X8.0595 Y23.6083
G01 X8.0595 Y24.9237
G01 X8.0529 Y24.9101
G01 X8.0423 Y24.8902
G01 X7.9858 Y24.7960
G01 X7.9733 Y24.7772
G01 X7.9667 Y24.7681
G01 X7.9078 Y24.6890
G01 X7.9008 Y24.6802
G01 X7.8860 Y24.6631
G01 X7.8275 Y24.5985
G01 X7.8119 Y24.5821
G01 X7.7955 Y24.5665
G01 X7.7224 Y24.5005
G01 X7.7050 Y24.4862
G01 X7.6960 Y24.4793
G01 X7.6259 Y24.4273
G01 X7.6075 Y24.4143
G01 X7.5884 Y24.4023
G01 X7.5038 Y24.3517
G01 X7.4939 Y24.3463
G01 X7.4737 Y24.3361
G01 X7.3846 Y24.2941
G01 X7.3638 Y24.2855
G01 X7.3097 Y24.2660
G00 Z2.0000
G00 X7.8469 Y25.5409
G01 F60.00
G01 Z-0.1866
G01 F250.00
G01 X7.8422 Y25.6329
G01 X7.8280 Y25.7289
G01 X7.8044 Y25.8231
G01 X7.7717 Y25.9145
G01 X7.7302 Y26.0022
G01 X7.6803 Y26.0855
G01 X7.6225 Y26.1634
G01 X7.5573 Y26.2353
G01 X7.4854 Y26.3005
G01 X7.4075 Y26.3583
G01 X7.3242 Y26.4082
G01 X7.2365 Y26.4497
G01 X7.1451 Y26.4824
G01 X7.0509 Y26.5060
G01 X6.9549 Y26.5202
G01 X6.8580 Y26.5250
G01 X6.7611 Y26.5202
G01 X6.6651 Y26.5060
G01 X6.5709 Y26.4824
G01 X6.4795 Y26.4497
G01 X6.3918 Y26.4082
G01 X6.3085 Y26.3583
G01 X6.2306 Y26.3005
G01 X6.1587 Y26.2353
G01 X6.0935 Y26.1634
G01 X6.0357 Y26.0855
G01 X5.9858 Y26.0022
G01 X5.9443 Y25.9145
G01 X5.9116 Y25.8231
G01 X5.8880 Y25.7289
G01 X5.8738 Y25.6329
G01 X5.8690 Y25.5360
G01 X5.8738 Y25.4391
G01 X5.8880 Y25.3431
G01 X5.9116 Y25.2489
G01 X5.9443 Y25.1575
G01 X5.9858 Y25.0698
G01 X6.0357 Y24.9865
G01 X6.0935 Y24.9086
G01 X6.1587 Y24.8367
G01 X6.2306 Y24.7715
G01 X6.3085 Y24.7137
G01 X6.3918 Y24.6638
G01 X6.4795 Y24.6223
G01 X6.5709 Y24.5896
G01 X6.6651 Y24.5660
G01 X6.7611 Y24.5518
G01 X6.8580 Y24.5470
G01 X6.9549 Y24.5518
G01 X7.0509 Y24.5660
G01 X7.1451 Y24.5896
G01 X7.2365 Y24.6223
G01 X7.3242 Y24.6638
G01 X7.4075 Y24.7137
G01 X7.4854 Y24.7715
G01 X7.5573 Y24.8367
G01 X7.6225 Y24.9086
G01 X7.6803 Y24.9865
G01 X7.7302 Y25.0698
G01 X7.7717 Y25.1575
G01 X7.8044 Y25.2489
G01 X7.8280 Y25.3431
G01 X7.8422 Y25.4391
G01 X7.8469 Y25.5311
G01 X7.8469 Y25.5409
G00 Z2.0000
G00 X7.0485 Y26.9235
G01 F60.00
G01 Z-0.1866
G01 F250.00
G01 X6.9862 Y26.9143
G01 X6.9657 Y26.9120
G01 X6.8717 Y26.9073
G01 X6.8511 Y26.9071
G01 X6.7571 Y26.9116
G01 X6.7434 Y26.9126
G01 X6.7298 Y26.9143
G01 X6.6435 Y26.9271
G01 X6.6299 Y26.9295
G01 X6.6165 Y26.9325
G01 X6.5319 Y26.9537
G01 X6.5187 Y26.9573
G01 X6.5056 Y26.9616
G01 X6.4235 Y26.9910
G01 X6.4106 Y26.9960
G01 X6.3981 Y27.0016
G01 X6.3192 Y27.0389
G01 X6.3069 Y27.0450
G01 X6.2950 Y27.0518
G01 X6.2201 Y27.0967
G01 X6.2085 Y27.1040
G01 X6.1973 Y27.1119
