(G-CODE GENERATED BY FLATCAM v8.994 - www.flatcam.org - Version Date: 2020/11/7)

(Name: Gerber_BoardOutline.GKO_cutout_cnc)
(Type: G-code from Geometry)
(Units: MM)

(Created on Saturday, 05 February 2022 at 21:18)

(This preprocessor is the default preprocessor used by FlatCAM.)
(It is made to work with MACH3 compatible motion controllers.)

(TOOL DIAMETER: 3.0 mm)
(Feedrate_XY: 200.0 mm/min)
(Feedrate_Z: 60.0 mm/min)
(Feedrate rapids 1500.0 mm/min)

(Z_Cut: -1.8 mm)
(DepthPerCut: 0.6 mm <=>3 passes)
(Z_Move: 2.0 mm)
(Z Start: None mm)
(Z End: 5.0 mm)
(X,Y End: None mm)
(Steps per circle: 64)
(Preprocessor Geometry: default)

(X range:   -3.1271 ...   33.1271  mm)
(Y range:   -3.1271 ...   58.1271  mm)

(Spindle Speed: 0.0 RPM)
G21
G90
G94

G01 F200.00

M5
G00 Z15.0000
G00 X0.0000 Y0.0000
T1
M6    
(MSG, Change to Tool Dia = 3.0000)
M0
G00 Z15.0000

M03
G01 F200.00
G00 X-3.1271 Y25.5000
G01 F60.00
G01 Z-0.6000
G01 F200.00
G01 X-3.1271 Y-0.1271
G01 X-3.1126 Y-0.4211
G01 X-3.0694 Y-0.7123
G01 X-2.9979 Y-0.9979
G01 X-2.8987 Y-1.2751
G01 X-2.7728 Y-1.5412
G01 X-2.6215 Y-1.7938
G01 X-2.4461 Y-2.0302
G01 X-2.2484 Y-2.2484
G01 X-2.0302 Y-2.4461
G01 X-1.7938 Y-2.6215
G01 X-1.5413 Y-2.7728
G01 X-1.2751 Y-2.8987
G01 X-0.9979 Y-2.9979
G01 X-0.7123 Y-3.0694
G01 X-0.4211 Y-3.1126
G01 X-0.1271 Y-3.1271
G01 X30.1271 Y-3.1271
G01 X30.4211 Y-3.1126
G01 X30.7123 Y-3.0694
G01 X30.9979 Y-2.9979
G01 X31.2751 Y-2.8987
G01 X31.5412 Y-2.7728
G01 X31.7938 Y-2.6215
G01 X32.0302 Y-2.4461
G01 X32.2484 Y-2.2484
G01 X32.4461 Y-2.0302
G01 X32.6215 Y-1.7938
G01 X32.7728 Y-1.5412
G01 X32.8987 Y-1.2751
G01 X32.9979 Y-0.9979
G01 X33.0694 Y-0.7123
G01 X33.1126 Y-0.4211
G01 X33.1271 Y-0.1271
G01 X33.1271 Y25.5000
G00 X33.1271 Y25.5000
G01 F60.00
G01 Z-1.2000
G01 F200.00
G01 X33.1271 Y-0.1271
G01 X33.1126 Y-0.4211
G01 X33.0694 Y-0.7123
G01 X32.9979 Y-0.9979
G01 X32.8987 Y-1.2751
G01 X32.7728 Y-1.5412
G01 X32.6215 Y-1.7938
G01 X32.4461 Y-2.0302
G01 X32.2484 Y-2.2484
G01 X32.0302 Y-2.4461
G01 X31.7938 Y-2.6215
G01 X31.5412 Y-2.7728
G01 X31.2751 Y-2.8987
G01 X30.9979 Y-2.9979
G01 X30.7123 Y-3.0694
G01 X30.4211 Y-3.1126
G01 X30.1271 Y-3.1271
G01 X-0.1271 Y-3.1271
G01 X-0.4211 Y-3.1126
G01 X-0.7123 Y-3.0694
G01 X-0.9979 Y-2.9979
G01 X-1.2751 Y-2.8987
G01 X-1.5413 Y-2.7728
G01 X-1.7938 Y-2.6215
G01 X-2.0302 Y-2.4461
G01 X-2.2484 Y-2.2484
G01 X-2.4461 Y-2.0302
G01 X-2.6215 Y-1.7938
G01 X-2.7728 Y-1.5412
G01 X-2.8987 Y-1.2751
G01 X-2.9979 Y-0.9979
G01 X-3.0694 Y-0.7123
G01 X-3.1126 Y-0.4211
G01 X-3.1271 Y-0.1271
G01 X-3.1271 Y25.5000
G00 X-3.1271 Y25.5000
G01 F60.00
G01 Z-1.8000
G01 F200.00
G01 X-3.1271 Y-0.1271
G01 X-3.1126 Y-0.4211
G01 X-3.0694 Y-0.7123
G01 X-2.9979 Y-0.9979
G01 X-2.8987 Y-1.2751
G01 X-2.7728 Y-1.5412
G01 X-2.6215 Y-1.7938
G01 X-2.4461 Y-2.0302
G01 X-2.2484 Y-2.2484
G01 X-2.0302 Y-2.4461
G01 X-1.7938 Y-2.6215
G01 X-1.5413 Y-2.7728
G01 X-1.2751 Y-2.8987
G01 X-0.9979 Y-2.9979
G01 X-0.7123 Y-3.0694
G01 X-0.4211 Y-3.1126
G01 X-0.1271 Y-3.1271
G01 X30.1271 Y-3.1271
G01 X30.4211 Y-3.1126
G01 X30.7123 Y-3.0694
G01 X30.9979 Y-2.9979
G01 X31.2751 Y-2.8987
G01 X31.5412 Y-2.7728
G01 X31.7938 Y-2.6215
G01 X32.0302 Y-2.4461
G01 X32.2484 Y-2.2484
G01 X32.4461 Y-2.0302
G01 X32.6215 Y-1.7938
G01 X32.7728 Y-1.5412
G01 X32.8987 Y-1.2751
G01 X32.9979 Y-0.9979
G01 X33.0694 Y-0.7123
G01 X33.1126 Y-0.4211
G01 X33.1271 Y-0.1271
G01 X33.1271 Y25.5000
G00 Z2.0000
G00 X-3.1271 Y32.5000
G01 F60.00
G01 Z-0.6000
G01 F200.00
G01 X-3.1271 Y55.1271
G01 X-3.1126 Y55.4211
G01 X-3.0694 Y55.7123
G01 X-2.9979 Y55.9979
G01 X-2.8987 Y56.2751
G01 X-2.7728 Y56.5413
G01 X-2.6215 Y56.7938
G01 X-2.4461 Y57.0302
G01 X-2.2484 Y57.2484
G01 X-2.0302 Y57.4461
G01 X-1.7938 Y57.6215
G01 X-1.5413 Y57.7728
G01 X-1.2751 Y57.8987
G01 X-0.9979 Y57.9979
G01 X-0.7123 Y58.0694
G01 X-0.4211 Y58.1126
G01 X-0.1271 Y58.1271
G01 X30.1271 Y58.1271
G01 X30.4211 Y58.1126
G01 X30.7123 Y58.0694
G01 X30.9979 Y57.9979
G01 X31.2751 Y57.8987
G01 X31.5412 Y57.7728
G01 X31.7938 Y57.6215
G01 X32.0302 Y57.4461
G01 X32.2484 Y57.2484
G01 X32.4461 Y57.0302
G01 X32.6215 Y56.7938
G01 X32.7728 Y56.5413
G01 X32.8987 Y56.2751
G01 X32.9979 Y55.9979
G01 X33.0694 Y55.7123
G01 X33.1126 Y55.4211
G01 X33.1271 Y55.1271
G01 X33.1271 Y32.5000
G00 X33.1271 Y32.5000
G01 F60.00
G01 Z-1.2000
G01 F200.00
G01 X33.1271 Y55.1271
G01 X33.1126 Y55.4211
G01 X33.0694 Y55.7123
G01 X32.9979 Y55.9979
G01 X32.8987 Y56.2751
G01 X32.7728 Y56.5413
G01 X32.6215 Y56.7938
G01 X32.4461 Y57.0302
G01 X32.2484 Y57.2484
G01 X32.0302 Y57.4461
G01 X31.7938 Y57.6215
G01 X31.5412 Y57.7728
G01 X31.2751 Y57.8987
G01 X30.9979 Y57.9979
G01 X30.7123 Y58.0694
G01 X30.4211 Y58.1126
G01 X30.1271 Y58.1271
G01 X-0.1271 Y58.1271
G01 X-0.4211 Y58.1126
G01 X-0.7123 Y58.0694
G01 X-0.9979 Y57.9979
G01 X-1.2751 Y57.8987
G01 X-1.5413 Y57.7728
G01 X-1.7938 Y57.6215
G01 X-2.0302 Y57.4461
G01 X-2.2484 Y57.2484
G01 X-2.4461 Y57.0302
G01 X-2.6215 Y56.7938
G01 X-2.7728 Y56.5413
G01 X-2.8987 Y56.2751
G01 X-2.9979 Y55.9979
G01 X-3.0694 Y55.7123
G01 X-3.1126 Y55.4211
G01 X-3.1271 Y55.1271
G01 X-3.1271 Y32.5000
G00 X-3.1271 Y32.5000
G01 F60.00
G01 Z-1.8000
G01 F200.00
G01 X-3.1271 Y55.1271
G01 X-3.1126 Y55.4211
G01 X-3.0694 Y55.7123
G01 X-2.9979 Y55.9979
G01 X-2.8987 Y56.2751
G01 X-2.7728 Y56.5413
G01 X-2.6215 Y56.7938
G01 X-2.4461 Y57.0302
G01 X-2.2484 Y57.2484
G01 X-2.0302 Y57.4461
G01 X-1.7938 Y57.6215
G01 X-1.5413 Y57.7728
G01 X-1.2751 Y57.8987
G01 X-0.9979 Y57.9979
G01 X-0.7123 Y58.0694
G01 X-0.4211 Y58.1126
G01 X-0.1271 Y58.1271
G01 X30.1271 Y58.1271
G01 X30.4211 Y58.1126
G01 X30.7123 Y58.0694
G01 X30.9979 Y57.9979
G01 X31.2751 Y57.8987
G01 X31.5412 Y57.7728
G01 X31.7938 Y57.6215
G01 X32.0302 Y57.4461
G01 X32.2484 Y57.2484
G01 X32.4461 Y57.0302
G01 X32.6215 Y56.7938
G01 X32.7728 Y56.5413
G01 X32.8987 Y56.2751
G01 X32.9979 Y55.9979
G01 X33.0694 Y55.7123
G01 X33.1126 Y55.4211
G01 X33.1271 Y55.1271
G01 X33.1271 Y32.5000
G00 Z2.0000
M05
G00 Z2.0000
G00 Z5.00


