(G-CODE GENERATED BY FLATCAM v8.994 - www.flatcam.org - Version Date: 2020/11/7)

(Name: Gerber_Drill_PTH.DRL_cnc)
(Type: G-code from Geometry)
(Units: MM)

(Created on Saturday, 05 February 2022 at 21:15)

(This preprocessor is the default preprocessor used by FlatCAM.)
(It is made to work with MACH3 compatible motion controllers.)


(TOOLS DIAMETER: )
(Tool: 1 -> Dia: 0.889)
(Tool: 2 -> Dia: 0.9)
(Tool: 3 -> Dia: 0.915)
(Tool: 4 -> Dia: 1.101)

(FEEDRATE Z: )
(Tool: 1 -> Feedrate: 300)
(Tool: 2 -> Feedrate: 300)
(Tool: 3 -> Feedrate: 300)
(Tool: 4 -> Feedrate: 300)

(FEEDRATE RAPIDS: )
(Tool: 1 -> Feedrate Rapids: 1500)
(Tool: 2 -> Feedrate Rapids: 1500)
(Tool: 3 -> Feedrate Rapids: 1500)
(Tool: 4 -> Feedrate Rapids: 1500)

(Z_CUT: )
(Tool: 1 -> Z_Cut: -1.8)
(Tool: 2 -> Z_Cut: -1.8)
(Tool: 3 -> Z_Cut: -1.8)
(Tool: 4 -> Z_Cut: -1.8)

(Tools Offset: )
(Tool: 1 -> Offset Z: 0.0)
(Tool: 2 -> Offset Z: 0.0)
(Tool: 3 -> Offset Z: 0.0)
(Tool: 4 -> Offset Z: 0.0)

(Z_MOVE: )
(Tool: 1 -> Z_Move: 2)
(Tool: 2 -> Z_Move: 2)
(Tool: 3 -> Z_Move: 2)
(Tool: 4 -> Z_Move: 2)

(Z Toolchange: 5.0 mm)
(X,Y Toolchange: 0.0000, 0.0000 mm)
(Z Start: None mm)
(Z End: 0.5 mm)
(X,Y End: None mm)
(Steps per circle: 64)
(Preprocessor Excellon: default)

(X range:    6.4005 ...   26.2310  mm)
(Y range:    3.6230 ...   51.2325  mm)

(Spindle Speed: 0 RPM)
G21
G90
G94

G01 F300.00

M5
G00 Z5.0000
T1
G00 X0.0000 Y0.0000                
M6
(MSG, Change to Tool Dia = 0.8890 ||| Total drills for tool T1 = 52)
M0
G00 Z5.0000

G01 F300.00
M03
G00 X16.8910 Y33.5400
G01 Z-1.8000
G01 Z0
G00 Z2.0000
G00 X14.3510 Y33.5400
G01 Z-1.8000
G01 Z0
G00 Z2.0000
G00 X11.8110 Y33.5400
G01 Z-1.8000
G01 Z0
G00 Z2.0000
G00 X13.0810 Y28.0760
G01 Z-1.8000
G01 Z0
G00 Z2.0000
G00 X13.0810 Y20.4560
G01 Z-1.8000
G01 Z0
G00 Z2.0000
G00 X15.7480 Y15.7570
G01 Z-1.8000
G01 Z0
G00 Z2.0000
G00 X22.0980 Y17.9160
G01 Z-1.8000
G01 Z0
G00 Z2.0000
G00 X22.0980 Y15.3760
G01 Z-1.8000
G01 Z0
G00 Z2.0000
G00 X22.0980 Y12.8360
G01 Z-1.8000
G01 Z0
G00 Z2.0000
G00 X22.0980 Y10.2960
G01 Z-1.8000
G01 Z0
G00 Z2.0000
G00 X22.0980 Y7.7560
G01 Z-1.8000
G01 Z0
G00 Z2.0000
G00 X22.0980 Y5.2160
G01 Z-1.8000
G01 Z0
G00 Z2.0000
G00 X18.1610 Y4.0730
G01 Z-1.8000
G01 Z0
G00 Z2.0000
G00 X15.7480 Y8.1370
G01 Z-1.8000
G01 Z0
G00 Z2.0000
G00 X10.2870 Y8.3910
G01 Z-1.8000
G01 Z0
G00 Z2.0000
G00 X10.5410 Y4.0730
G01 Z-1.8000
G01 Z0
G00 Z2.0000
G00 X6.8580 Y5.2160
G01 Z-1.8000
G01 Z0
G00 Z2.0000
G00 X6.8580 Y7.7560
G01 Z-1.8000
G01 Z0
G00 Z2.0000
G00 X6.8580 Y10.2960
G01 Z-1.8000
G01 Z0
G00 Z2.0000
G00 X6.8580 Y12.8360
G01 Z-1.8000
G01 Z0
G00 Z2.0000
G00 X6.8580 Y15.3760
G01 Z-1.8000
G01 Z0
G00 Z2.0000
G00 X10.2870 Y16.0110
G01 Z-1.8000
G01 Z0
G00 Z2.0000
G00 X6.8580 Y17.9160
G01 Z-1.8000
G01 Z0
G00 Z2.0000
G00 X6.8580 Y20.4560
G01 Z-1.8000
G01 Z0
G00 Z2.0000
G00 X6.8580 Y22.9960
G01 Z-1.8000
G01 Z0
G00 Z2.0000
G00 X6.8580 Y25.5360
G01 Z-1.8000
G01 Z0
G00 Z2.0000
G00 X6.8580 Y28.0760
G01 Z-1.8000
G01 Z0
G00 Z2.0000
G00 X6.8580 Y30.6160
G01 Z-1.8000
G01 Z0
G00 Z2.0000
G00 X6.8580 Y33.1560
G01 Z-1.8000
G01 Z0
G00 Z2.0000
G00 X6.8580 Y35.6960
G01 Z-1.8000
G01 Z0
G00 Z2.0000
G00 X6.8580 Y38.2360
G01 Z-1.8000
G01 Z0
G00 Z2.0000
G00 X6.8580 Y40.7760
G01 Z-1.8000
G01 Z0
G00 Z2.0000
G00 X8.1280 Y46.2370
G01 Z-1.8000
G01 Z0
G00 Z2.0000
G00 X7.8740 Y50.6820
G01 Z-1.8000
G01 Z0
G00 Z2.0000
G00 X10.3740 Y50.6820
G01 Z-1.8000
G01 Z0
G00 Z2.0000
G00 X12.8740 Y50.6820
G01 Z-1.8000
G01 Z0
G00 Z2.0000
G00 X15.3740 Y50.6820
G01 Z-1.8000
G01 Z0
G00 Z2.0000
G00 X15.7480 Y46.2370
G01 Z-1.8000
G01 Z0
G00 Z2.0000
G00 X17.8740 Y50.6820
G01 Z-1.8000
G01 Z0
G00 Z2.0000
G00 X20.3740 Y50.6820
G01 Z-1.8000
G01 Z0
G00 Z2.0000
G00 X22.8740 Y50.6820
G01 Z-1.8000
G01 Z0
G00 Z2.0000
G00 X25.7810 Y44.7130
G01 Z-1.8000
G01 Z0
G00 Z2.0000
G00 X22.0980 Y40.7760
G01 Z-1.8000
G01 Z0
G00 Z2.0000
G00 X22.0980 Y38.2360
G01 Z-1.8000
G01 Z0
G00 Z2.0000
G00 X25.7810 Y37.0930
G01 Z-1.8000
G01 Z0
G00 Z2.0000
G00 X22.0980 Y35.6960
G01 Z-1.8000
G01 Z0
G00 Z2.0000
G00 X22.0980 Y33.1560
G01 Z-1.8000
G01 Z0
G00 Z2.0000
G00 X22.0980 Y30.6160
G01 Z-1.8000
G01 Z0
G00 Z2.0000
G00 X22.0980 Y28.0760
G01 Z-1.8000
G01 Z0
G00 Z2.0000
G00 X22.0980 Y25.5360
G01 Z-1.8000
G01 Z0
G00 Z2.0000
G00 X22.0980 Y22.9960
G01 Z-1.8000
G01 Z0
G00 Z2.0000
G00 X19.4310 Y33.5400
G01 Z-1.8000
G01 Z0
G00 Z2.0000
M05
G00 Z0.50


