(G-CODE GENERATED BY FLATCAM v8.994 - www.flatcam.org - Version Date: 2020/11/7)

(Name: Gerber_BoardOutlineLayer.GKO_cutout_cnc)
(Type: G-code from Geometry)
(Units: MM)

(Created on Sunday, 06 February 2022 at 13:03)

(This preprocessor is the default preprocessor used by FlatCAM.)
(It is made to work with MACH3 compatible motion controllers.)

(TOOL DIAMETER: 2.5 mm)
(Feedrate_XY: 200.0 mm/min)
(Feedrate_Z: 60.0 mm/min)
(Feedrate rapids 1500.0 mm/min)

(Z_Cut: -1.8 mm)
(DepthPerCut: 0.6 mm <=>3 passes)
(Z_Move: 2.0 mm)
(Z Start: None mm)
(Z End: 5.0 mm)
(X,Y End: None mm)
(Steps per circle: 64)
(Preprocessor Geometry: default)

(X range:   -2.6271 ...   32.6271  mm)
(Y range:   -2.6271 ...   57.6271  mm)

(Spindle Speed: 12000.0 RPM)
G21
G90
G94

G01 F200.00

M5
G00 Z15.0000
G00 X0.0000 Y0.0000
T1
M6    
(MSG, Change to Tool Dia = 2.5000)
M0
G00 Z15.0000

M03 S12000.0
G01 F200.00
G00 X13.0000 Y-2.6271
G01 F60.00
G01 Z-0.6000
G01 F200.00
G01 X-0.1271 Y-2.6271
G01 X-0.3721 Y-2.6150
G01 X-0.6148 Y-2.5790
G01 X-0.8528 Y-2.5194
G01 X-1.0838 Y-2.4368
G01 X-1.3056 Y-2.3319
G01 X-1.5160 Y-2.2057
G01 X-1.7130 Y-2.0596
G01 X-1.8948 Y-1.8948
G01 X-2.0596 Y-1.7130
G01 X-2.2057 Y-1.5160
G01 X-2.3319 Y-1.3055
G01 X-2.4368 Y-1.0838
G01 X-2.5194 Y-0.8528
G01 X-2.5790 Y-0.6148
G01 X-2.6150 Y-0.3721
G01 X-2.6271 Y-0.1271
G01 X-2.6271 Y55.1271
G01 X-2.6150 Y55.3721
G01 X-2.5790 Y55.6148
G01 X-2.5194 Y55.8528
G01 X-2.4368 Y56.0838
G01 X-2.3319 Y56.3056
G01 X-2.2057 Y56.5160
G01 X-2.0596 Y56.7130
G01 X-1.8948 Y56.8948
G01 X-1.7130 Y57.0596
G01 X-1.5160 Y57.2057
G01 X-1.3056 Y57.3319
G01 X-1.0838 Y57.4368
G01 X-0.8528 Y57.5194
G01 X-0.6148 Y57.5790
G01 X-0.3721 Y57.6150
G01 X-0.1271 Y57.6271
G01 X13.0000 Y57.6271
G00 X13.0000 Y57.6271
G01 F60.00
G01 Z-1.2000
G01 F200.00
G01 X-0.1271 Y57.6271
G01 X-0.3721 Y57.6150
G01 X-0.6148 Y57.5790
G01 X-0.8528 Y57.5194
G01 X-1.0838 Y57.4368
G01 X-1.3056 Y57.3319
G01 X-1.5160 Y57.2057
G01 X-1.7130 Y57.0596
G01 X-1.8948 Y56.8948
G01 X-2.0596 Y56.7130
G01 X-2.2057 Y56.5160
G01 X-2.3319 Y56.3056
G01 X-2.4368 Y56.0838
G01 X-2.5194 Y55.8528
G01 X-2.5790 Y55.6148
G01 X-2.6150 Y55.3721
G01 X-2.6271 Y55.1271
G01 X-2.6271 Y-0.1271
G01 X-2.6150 Y-0.3721
G01 X-2.5790 Y-0.6148
G01 X-2.5194 Y-0.8528
G01 X-2.4368 Y-1.0838
G01 X-2.3319 Y-1.3055
G01 X-2.2057 Y-1.5160
G01 X-2.0596 Y-1.7130
G01 X-1.8948 Y-1.8948
G01 X-1.7130 Y-2.0596
G01 X-1.5160 Y-2.2057
G01 X-1.3056 Y-2.3319
G01 X-1.0838 Y-2.4368
G01 X-0.8528 Y-2.5194
G01 X-0.6148 Y-2.5790
G01 X-0.3721 Y-2.6150
G01 X-0.1271 Y-2.6271
G01 X13.0000 Y-2.6271
G00 X13.0000 Y-2.6271
G01 F60.00
G01 Z-1.8000
G01 F200.00
G01 X-0.1271 Y-2.6271
G01 X-0.3721 Y-2.6150
G01 X-0.6148 Y-2.5790
G01 X-0.8528 Y-2.5194
G01 X-1.0838 Y-2.4368
G01 X-1.3056 Y-2.3319
G01 X-1.5160 Y-2.2057
G01 X-1.7130 Y-2.0596
G01 X-1.8948 Y-1.8948
G01 X-2.0596 Y-1.7130
G01 X-2.2057 Y-1.5160
G01 X-2.3319 Y-1.3055
G01 X-2.4368 Y-1.0838
G01 X-2.5194 Y-0.8528
G01 X-2.5790 Y-0.6148
G01 X-2.6150 Y-0.3721
G01 X-2.6271 Y-0.1271
G01 X-2.6271 Y55.1271
G01 X-2.6150 Y55.3721
G01 X-2.5790 Y55.6148
G01 X-2.5194 Y55.8528
G01 X-2.4368 Y56.0838
G01 X-2.3319 Y56.3056
G01 X-2.2057 Y56.5160
G01 X-2.0596 Y56.7130
G01 X-1.8948 Y56.8948
G01 X-1.7130 Y57.0596
G01 X-1.5160 Y57.2057
G01 X-1.3056 Y57.3319
G01 X-1.0838 Y57.4368
G01 X-0.8528 Y57.5194
G01 X-0.6148 Y57.5790
G01 X-0.3721 Y57.6150
G01 X-0.1271 Y57.6271
G01 X13.0000 Y57.6271
G00 Z2.0000
G00 X19.5000 Y57.6271
G01 F60.00
G01 Z-0.6000
G01 F200.00
G01 X30.1271 Y57.6271
G01 X30.3721 Y57.6150
G01 X30.6148 Y57.5790
G01 X30.8528 Y57.5194
G01 X31.0838 Y57.4368
G01 X31.3055 Y57.3319
G01 X31.5160 Y57.2057
G01 X31.7130 Y57.0596
G01 X31.8948 Y56.8948
G01 X32.0596 Y56.7130
G01 X32.2057 Y56.5160
G01 X32.3319 Y56.3056
G01 X32.4368 Y56.0838
G01 X32.5194 Y55.8528
G01 X32.5790 Y55.6148
G01 X32.6150 Y55.3721
G01 X32.6271 Y55.1271
G01 X32.6271 Y-0.1271
G01 X32.6150 Y-0.3721
G01 X32.5790 Y-0.6148
G01 X32.5194 Y-0.8528
G01 X32.4368 Y-1.0838
G01 X32.3319 Y-1.3055
G01 X32.2057 Y-1.5160
G01 X32.0596 Y-1.7130
G01 X31.8948 Y-1.8948
G01 X31.7130 Y-2.0596
G01 X31.5160 Y-2.2057
G01 X31.3055 Y-2.3319
G01 X31.0838 Y-2.4368
G01 X30.8528 Y-2.5194
G01 X30.6148 Y-2.5790
G01 X30.3721 Y-2.6150
G01 X30.1271 Y-2.6271
G01 X19.5000 Y-2.6271
G00 X19.5000 Y-2.6271
G01 F60.00
G01 Z-1.2000
G01 F200.00
G01 X30.1271 Y-2.6271
G01 X30.3721 Y-2.6150
G01 X30.6148 Y-2.5790
G01 X30.8528 Y-2.5194
G01 X31.0838 Y-2.4368
G01 X31.3055 Y-2.3319
G01 X31.5160 Y-2.2057
G01 X31.7130 Y-2.0596
G01 X31.8948 Y-1.8948
G01 X32.0596 Y-1.7130
G01 X32.2057 Y-1.5160
G01 X32.3319 Y-1.3055
G01 X32.4368 Y-1.0838
G01 X32.5194 Y-0.8528
G01 X32.5790 Y-0.6148
G01 X32.6150 Y-0.3721
G01 X32.6271 Y-0.1271
G01 X32.6271 Y55.1271
G01 X32.6150 Y55.3721
G01 X32.5790 Y55.6148
G01 X32.5194 Y55.8528
G01 X32.4368 Y56.0838
G01 X32.3319 Y56.3056
G01 X32.2057 Y56.5160
G01 X32.0596 Y56.7130
G01 X31.8948 Y56.8948
G01 X31.7130 Y57.0596
G01 X31.5160 Y57.2057
G01 X31.3055 Y57.3319
G01 X31.0838 Y57.4368
G01 X30.8528 Y57.5194
G01 X30.6148 Y57.5790
G01 X30.3721 Y57.6150
G01 X30.1271 Y57.6271
G01 X19.5000 Y57.6271
G00 X19.5000 Y57.6271
G01 F60.00
G01 Z-1.8000
G01 F200.00
G01 X30.1271 Y57.6271
G01 X30.3721 Y57.6150
G01 X30.6148 Y57.5790
G01 X30.8528 Y57.5194
G01 X31.0838 Y57.4368
G01 X31.3055 Y57.3319
G01 X31.5160 Y57.2057
G01 X31.7130 Y57.0596
G01 X31.8948 Y56.8948
G01 X32.0596 Y56.7130
G01 X32.2057 Y56.5160
G01 X32.3319 Y56.3056
G01 X32.4368 Y56.0838
G01 X32.5194 Y55.8528
G01 X32.5790 Y55.6148
G01 X32.6150 Y55.3721
G01 X32.6271 Y55.1271
G01 X32.6271 Y-0.1271
G01 X32.6150 Y-0.3721
G01 X32.5790 Y-0.6148
G01 X32.5194 Y-0.8528
G01 X32.4368 Y-1.0838
G01 X32.3319 Y-1.3055
G01 X32.2057 Y-1.5160
G01 X32.0596 Y-1.7130
G01 X31.8948 Y-1.8948
G01 X31.7130 Y-2.0596
G01 X31.5160 Y-2.2057
G01 X31.3055 Y-2.3319
G01 X31.0838 Y-2.4368
G01 X30.8528 Y-2.5194
G01 X30.6148 Y-2.5790
G01 X30.3721 Y-2.6150
G01 X30.1271 Y-2.6271
G01 X19.5000 Y-2.6271
G00 Z2.0000
M05
G00 Z2.0000
G00 Z5.00


